doc/3DLUTs/Candlelight.CUBE
#Created by: Adobe Photoshop CS6
#Copyright: Copyright 2012 Adobe Systems Inc.
TITLE "CandleLight from Tungsten"
#LUT size
LUT_3D_SIZE 9
#data domain
DOMAIN_MIN 0.0 0.0 0.0
DOMAIN_MAX 1.0 1.0 1.0
#LUT data points
0.023529 0.019608 0.015686
0.129412 0.078431 0.070588
0.207843 0.109804 0.101961
0.286275 0.133333 0.125490
0.384314 0.180392 0.172549
0.505882 0.239216 0.227451
0.670588 0.321569 0.305882
0.843137 0.407843 0.392157
0.941176 0.458824 0.439216
0.098039 0.105882 0.070588
0.137255 0.113725 0.078431
0.215686 0.145098 0.105882
0.286275 0.160784 0.125490
0.376471 0.200000 0.164706
0.509804 0.262745 0.235294
0.666667 0.333333 0.301961
0.847059 0.419608 0.392157
0.937255 0.462745 0.435294
0.141176 0.172549 0.101961
0.172549 0.176471 0.105882
0.223529 0.188235 0.113725
0.294118 0.207843 0.133333
0.388235 0.243137 0.180392
0.513726 0.294118 0.235294
0.670588 0.356863 0.309804
0.850980 0.439216 0.400000
0.937255 0.482353 0.439216
0.180392 0.247059 0.125490
0.203922 0.243137 0.125490
0.250980 0.250980 0.133333
0.305882 0.258824 0.149020
0.400000 0.286275 0.188235
0.525490 0.333333 0.247059
0.678431 0.392157 0.317647
0.850980 0.462745 0.400000
0.945098 0.501961 0.447059
0.231373 0.325490 0.164706
0.254902 0.329412 0.168627
0.294118 0.329412 0.172549
0.345098 0.337255 0.180392
0.415686 0.349020 0.203922
0.533333 0.384314 0.254902
0.690196 0.435294 0.325490
0.854902 0.498039 0.403922
0.952941 0.537255 0.450980
0.313726 0.443137 0.223529
0.333333 0.443137 0.227451
0.364706 0.443137 0.231373
0.403922 0.450980 0.239216
0.458824 0.458824 0.247059
0.552941 0.470588 0.274510
0.698039 0.509804 0.337255
0.870588 0.568627 0.419608
0.960784 0.603922 0.462745
0.419608 0.592157 0.301961
0.435294 0.596078 0.309804
0.466667 0.603922 0.317647
0.494118 0.607843 0.325490
0.533333 0.603922 0.321569
0.611765 0.615686 0.337255
0.733333 0.635294 0.372549
0.894118 0.678431 0.439216
0.976471 0.701961 0.474510
0.568627 0.792157 0.415686
0.580392 0.792157 0.415686
0.596078 0.796078 0.419608
0.615686 0.800000 0.423529
0.643137 0.796078 0.423529
0.717647 0.811765 0.439216
0.807843 0.815686 0.450980
0.937255 0.839216 0.482353
0.996078 0.858824 0.560784
0.650980 0.905882 0.474510
0.662745 0.909804 0.478431
0.670588 0.905882 0.474510
0.682353 0.905882 0.474510
0.721569 0.913725 0.486275
0.780392 0.921569 0.498039
0.866667 0.929412 0.509804
0.976471 0.941176 0.533333
0.988235 0.941176 0.709804
0.050980 0.039216 0.039216
0.129412 0.078431 0.078431
0.207843 0.105882 0.105882
0.282353 0.125490 0.129412
0.376471 0.172549 0.172549
0.509804 0.243137 0.235294
0.674510 0.325490 0.313726
0.843137 0.407843 0.396078
0.945098 0.462745 0.447059
0.098039 0.101961 0.074510
0.133333 0.113725 0.086275
0.211765 0.145098 0.117647
0.278431 0.164706 0.133333
0.376471 0.207843 0.180392
0.505882 0.262745 0.235294
0.670588 0.337255 0.313726
0.843137 0.419608 0.400000
0.941176 0.470588 0.447059
0.141176 0.176471 0.109804
0.172549 0.172549 0.113725
0.219608 0.184314 0.121569
0.286275 0.203922 0.141176
0.384314 0.247059 0.188235
0.513726 0.294118 0.247059
0.674510 0.364706 0.317647
0.847059 0.439216 0.396078
0.949020 0.486275 0.450980
0.172549 0.239216 0.129412
0.203922 0.235294 0.133333
0.250980 0.247059 0.145098
0.305882 0.258824 0.156863
0.396078 0.286275 0.196078
0.521569 0.333333 0.250980
0.682353 0.392157 0.329412
0.850980 0.462745 0.403922
0.945098 0.505882 0.447059
0.223529 0.317647 0.164706
0.258824 0.325490 0.176471
0.294118 0.329412 0.184314
0.337255 0.329412 0.188235
0.407843 0.345098 0.207843
0.533333 0.384314 0.262745
0.686275 0.431373 0.329412
0.854902 0.498039 0.403922
0.960784 0.545098 0.462745
0.313726 0.443137 0.231373
0.333333 0.439216 0.235294
0.368627 0.447059 0.243137
0.403922 0.447059 0.247059
0.454902 0.454902 0.254902
0.556863 0.474510 0.282353
0.701961 0.513726 0.345098
0.870588 0.568627 0.419608
0.960784 0.603922 0.462745
0.423529 0.596078 0.309804
0.439216 0.596078 0.313726
0.458824 0.596078 0.317647
0.498039 0.603922 0.325490
0.533333 0.603922 0.325490
0.611765 0.615686 0.345098
0.733333 0.635294 0.376471
0.894118 0.678431 0.443137
0.984314 0.705882 0.482353
0.568627 0.788235 0.415686
0.580392 0.792157 0.419608
0.592157 0.788235 0.419608
0.611765 0.792157 0.423529
0.647059 0.800000 0.427451
0.717647 0.811765 0.443137
0.811765 0.819608 0.458824
0.929412 0.831373 0.478431
0.996078 0.858824 0.560784
0.643137 0.898039 0.470588
0.662745 0.909804 0.482353
0.674510 0.909804 0.482353
0.694118 0.913725 0.486275
0.725490 0.917647 0.494118
0.780392 0.921569 0.501961
0.862745 0.925490 0.509804
0.976471 0.941176 0.533333
0.988235 0.937255 0.690196
0.090196 0.070588 0.090196
0.137255 0.086275 0.105882
0.211765 0.109804 0.129412
0.282353 0.125490 0.149020
0.376471 0.172549 0.188235
0.505882 0.239216 0.243137
0.666667 0.317647 0.313726
0.843137 0.407843 0.400000
0.937255 0.454902 0.443137
0.105882 0.109804 0.101961
0.141176 0.117647 0.105882
0.207843 0.145098 0.133333
0.274510 0.168627 0.156863
0.372549 0.211765 0.200000
0.509804 0.270588 0.254902
0.670588 0.345098 0.329412
0.847059 0.431373 0.411765
0.941176 0.474510 0.454902
0.145098 0.172549 0.125490
0.172549 0.164706 0.125490
0.211765 0.176471 0.137255
0.286275 0.211765 0.168627
0.380392 0.247059 0.207843
0.509804 0.298039 0.262745
0.674510 0.368627 0.333333
0.847059 0.443137 0.411765
0.945098 0.490196 0.454902
0.180392 0.247059 0.152941
0.207843 0.231373 0.156863
0.243137 0.231373 0.160784
0.294118 0.247059 0.176471
0.388235 0.286275 0.215686
0.513726 0.333333 0.262745
0.678431 0.396078 0.337255
0.850980 0.466667 0.411765
0.949020 0.509804 0.458824
0.231373 0.321569 0.184314
0.262745 0.313726 0.196078
0.294118 0.317647 0.203922
0.329412 0.317647 0.200000
0.400000 0.337255 0.223529
0.529412 0.384314 0.278431
0.686275 0.439216 0.345098
0.858824 0.501961 0.423529
0.952941 0.541176 0.462745
0.313726 0.443137 0.243137
0.341176 0.439216 0.250980
0.368627 0.439216 0.254902
0.396078 0.439216 0.258824
0.450980 0.447059 0.270588
0.549020 0.470588 0.294118
0.698039 0.513726 0.356863
0.866667 0.568627 0.427451
0.956863 0.600000 0.466667
0.431373 0.600000 0.321569
0.447059 0.596078 0.329412
0.462745 0.592157 0.325490
0.490196 0.596078 0.333333
0.533333 0.600000 0.341176
0.607843 0.607843 0.349020
0.729412 0.627451 0.384314
0.890196 0.678431 0.450980
0.988235 0.709804 0.498039
0.568627 0.788235 0.419608
0.580392 0.788235 0.423529
0.596078 0.792157 0.427451
0.623529 0.800000 0.439216
0.654902 0.803922 0.439216
0.713726 0.800000 0.447059
0.803922 0.811765 0.458824
0.929412 0.831373 0.486275
0.996078 0.862745 0.584314
0.643137 0.898039 0.474510
0.658824 0.901961 0.482353
0.674510 0.905882 0.486275
0.690196 0.905882 0.490196
0.721569 0.909804 0.494118
0.772549 0.913725 0.501961
0.862745 0.925490 0.517647
0.968627 0.933333 0.537255
0.988235 0.937255 0.690196
0.121569 0.094118 0.137255
0.156863 0.098039 0.141176
0.215686 0.109804 0.156863
0.290196 0.133333 0.180392
0.384314 0.180392 0.211765
0.509804 0.243137 0.262745
0.670588 0.321569 0.333333
0.847059 0.411765 0.415686
0.937255 0.454902 0.450980
0.129412 0.125490 0.141176
0.160784 0.133333 0.137255
0.207843 0.145098 0.152941
0.282353 0.176471 0.184314
0.380392 0.211765 0.223529
0.509804 0.270588 0.270588
0.666667 0.341176 0.337255
0.847059 0.427451 0.415686
0.941176 0.474510 0.462745
0.149020 0.172549 0.152941
0.172549 0.164706 0.141176
0.215686 0.180392 0.160784
0.278431 0.211765 0.188235
0.376471 0.250980 0.231373
0.501961 0.301961 0.278431
0.674510 0.376471 0.349020
0.847059 0.450980 0.427451
0.945098 0.494118 0.466667
0.180392 0.243137 0.172549
0.207843 0.227451 0.172549
0.243137 0.227451 0.180392
0.286275 0.243137 0.196078
0.384314 0.286275 0.235294
0.509804 0.337255 0.286275
0.670588 0.396078 0.352941
0.858824 0.482353 0.435294
0.945098 0.513726 0.470588
0.231373 0.321569 0.207843
0.258824 0.305882 0.203922
0.294118 0.305882 0.219608
0.325490 0.309804 0.223529
0.396078 0.333333 0.243137
0.521569 0.384314 0.298039
0.682353 0.443137 0.360784
0.858824 0.509804 0.435294
0.949020 0.545098 0.474510
0.317647 0.443137 0.258824
0.345098 0.435294 0.270588
0.368627 0.431373 0.270588
0.400000 0.435294 0.278431
0.447059 0.435294 0.282353
0.545098 0.462745 0.313726
0.698039 0.517647 0.376471
0.870588 0.576471 0.447059
0.964706 0.611765 0.486275
0.423529 0.592157 0.325490
0.450980 0.600000 0.345098
0.470588 0.592157 0.345098
0.494118 0.592157 0.349020
0.537255 0.596078 0.356863
0.607843 0.607843 0.368627
0.725490 0.627451 0.400000
0.894118 0.682353 0.470588
0.988235 0.713726 0.509804
0.572549 0.792157 0.431373
0.584314 0.792157 0.439216
0.600000 0.788235 0.443137
0.623529 0.796078 0.450980
0.650980 0.792157 0.447059
0.713726 0.800000 0.458824
0.807843 0.811765 0.474510
0.925490 0.827451 0.498039
0.996078 0.858824 0.584314
0.654902 0.905882 0.494118
0.662745 0.905882 0.494118
0.686275 0.913725 0.505882
0.701961 0.913725 0.509804
0.725490 0.909804 0.505882
0.784314 0.921569 0.521569
0.870588 0.933333 0.541176
0.968627 0.933333 0.545098
0.988235 0.937255 0.709804
0.125490 0.094118 0.172549
0.168627 0.098039 0.180392
0.219608 0.109804 0.188235
0.294118 0.133333 0.211765
0.380392 0.172549 0.235294
0.509804 0.239216 0.282353
0.674510 0.325490 0.352941
0.843137 0.407843 0.423529
0.941176 0.458824 0.470588
0.145098 0.133333 0.184314
0.180392 0.145098 0.176471
0.219608 0.149020 0.180392
0.282353 0.168627 0.203922
0.376471 0.207843 0.239216
0.509804 0.270588 0.290196
0.670588 0.345098 0.356863
0.850980 0.431373 0.435294
0.941176 0.470588 0.470588
0.156863 0.184314 0.188235
0.192157 0.180392 0.180392
0.227451 0.188235 0.184314
0.282353 0.211765 0.207843
0.376471 0.254902 0.254902
0.505882 0.309804 0.298039
0.670588 0.380392 0.368627
0.850980 0.454902 0.443137
0.949020 0.498039 0.482353
0.188235 0.247059 0.207843
0.215686 0.227451 0.196078
0.250980 0.231373 0.203922
0.294118 0.247059 0.219608
0.376471 0.286275 0.258824
0.505882 0.341176 0.309804
0.674510 0.411765 0.376471
0.850980 0.486275 0.454902
0.956863 0.533333 0.498039
0.235294 0.321569 0.231373
0.266667 0.313726 0.235294
0.290196 0.298039 0.231373
0.325490 0.301961 0.243137
0.384314 0.325490 0.262745
0.517647 0.384314 0.321569
0.682353 0.450980 0.384314
0.862745 0.521569 0.458824
0.949020 0.552941 0.494118
0.321569 0.443137 0.282353
0.341176 0.431373 0.282353
0.376471 0.427451 0.294118
0.396078 0.419608 0.294118
0.443137 0.431373 0.305882
0.529412 0.450980 0.329412
0.698039 0.517647 0.400000
0.870588 0.580392 0.466667
0.960784 0.611765 0.501961
0.427451 0.596078 0.345098
0.450980 0.596078 0.356863
0.474510 0.588235 0.364706
0.505882 0.592157 0.376471
0.541176 0.592157 0.376471
0.603922 0.596078 0.384314
0.717647 0.623529 0.415686
0.898039 0.682353 0.490196
0.984314 0.717647 0.533333
0.572549 0.792157 0.443137
0.588235 0.796078 0.450980
0.607843 0.788235 0.458824
0.627451 0.788235 0.462745
0.666667 0.796078 0.474510
0.713726 0.796078 0.470588
0.807843 0.807843 0.494118
0.929412 0.827451 0.517647
0.992157 0.862745 0.603922
0.654902 0.905882 0.501961
0.666667 0.909804 0.505882
0.690196 0.909804 0.517647
0.701961 0.905882 0.517647
0.733333 0.909804 0.521569
0.788235 0.921569 0.545098
0.866667 0.925490 0.549020
0.968627 0.933333 0.564706
0.984314 0.941176 0.745098
0.160784 0.109804 0.239216
0.196078 0.117647 0.247059
0.243137 0.125490 0.250980
0.298039 0.137255 0.262745
0.392157 0.180392 0.290196
0.517647 0.243137 0.329412
0.678431 0.321569 0.384314
0.847059 0.407843 0.450980
0.941176 0.454902 0.486275
0.168627 0.145098 0.243137
0.211765 0.168627 0.239216
0.250980 0.172549 0.247059
0.298039 0.180392 0.254902
0.384314 0.211765 0.286275
0.513726 0.270588 0.329412
0.674510 0.345098 0.388235
0.847059 0.427451 0.454902
0.941176 0.470588 0.494118
0.184314 0.196078 0.247059
0.227451 0.211765 0.250980
0.266667 0.219608 0.247059
0.298039 0.227451 0.250980
0.380392 0.254902 0.286275
0.509804 0.309804 0.337255
0.666667 0.376471 0.392157
0.847059 0.450980 0.462745
0.945098 0.494118 0.501961
0.211765 0.254902 0.266667
0.243137 0.247059 0.254902
0.278431 0.250980 0.250980
0.309804 0.262745 0.254902
0.380392 0.286275 0.286275
0.505882 0.345098 0.341176
0.674510 0.419608 0.411765
0.858824 0.498039 0.482353
0.952941 0.529412 0.517647
0.243137 0.321569 0.278431
0.270588 0.313726 0.270588
0.294118 0.298039 0.258824
0.337255 0.309804 0.274510
0.388235 0.329412 0.294118
0.509804 0.388235 0.352941
0.678431 0.462745 0.423529
0.858824 0.533333 0.494118
0.956863 0.576471 0.541176
0.325490 0.439216 0.317647
0.349020 0.435294 0.321569
0.376471 0.423529 0.321569
0.407843 0.415686 0.329412
0.443137 0.415686 0.333333
0.521569 0.447059 0.360784
0.690196 0.521569 0.435294
0.870588 0.592157 0.501961
0.968627 0.635294 0.552941
0.435294 0.600000 0.380392
0.447059 0.592157 0.380392
0.482353 0.592157 0.396078
0.505882 0.576471 0.400000
0.552941 0.588235 0.415686
0.607843 0.592157 0.423529
0.709804 0.611765 0.447059
0.894118 0.686275 0.521569
0.984314 0.721569 0.560784
0.576471 0.792157 0.466667
0.592157 0.796078 0.474510
0.611765 0.788235 0.482353
0.639216 0.784314 0.490196
0.678431 0.792157 0.505882
0.725490 0.796078 0.509804
0.811765 0.803922 0.521569
0.921569 0.823529 0.549020
0.992157 0.866667 0.643137
0.654902 0.905882 0.521569
0.666667 0.909804 0.533333
0.682353 0.905882 0.537255
0.717647 0.913725 0.556863
0.745098 0.909804 0.564706
0.796078 0.917647 0.568627
0.874510 0.925490 0.584314
0.972549 0.933333 0.600000
0.984314 0.933333 0.741176
0.239216 0.172549 0.352941
0.258824 0.168627 0.352941
0.294118 0.176471 0.356863
0.341176 0.184314 0.364706
0.407843 0.192157 0.372549
0.521569 0.239216 0.400000
0.682353 0.321569 0.447059
0.850980 0.407843 0.501961
0.945098 0.454902 0.541176
0.239216 0.192157 0.349020
0.278431 0.211765 0.352941
0.313726 0.219608 0.360784
0.345098 0.219608 0.360784
0.411765 0.235294 0.372549
0.521569 0.274510 0.400000
0.682353 0.349020 0.454902
0.858824 0.431373 0.517647
0.945098 0.466667 0.541176
0.254902 0.235294 0.360784
0.294118 0.250980 0.360784
0.329412 0.262745 0.352941
0.360784 0.270588 0.356863
0.407843 0.274510 0.364706
0.517647 0.309804 0.396078
0.678431 0.380392 0.454902
0.858824 0.458824 0.521569
0.952941 0.498039 0.552941
0.266667 0.282353 0.364706
0.301961 0.286275 0.364706
0.341176 0.298039 0.356863
0.376471 0.309804 0.356863
0.415686 0.313726 0.360784
0.509804 0.345098 0.392157
0.682353 0.419608 0.466667
0.862745 0.494118 0.529412
0.952941 0.533333 0.568627
0.294118 0.341176 0.376471
0.317647 0.341176 0.364706
0.352941 0.345098 0.364706
0.388235 0.349020 0.360784
0.427451 0.360784 0.364706
0.509804 0.388235 0.396078
0.674510 0.458824 0.466667
0.858824 0.541176 0.545098
0.956863 0.580392 0.584314
0.337255 0.439216 0.392157
0.352941 0.431373 0.384314
0.380392 0.423529 0.376471
0.407843 0.411765 0.372549
0.454902 0.419608 0.380392
0.537255 0.458824 0.415686
0.690196 0.537255 0.490196
0.874510 0.619608 0.576471
0.964706 0.658824 0.615686
0.439216 0.592157 0.439216
0.454902 0.588235 0.439216
0.490196 0.592157 0.447059
0.517647 0.584314 0.454902
0.552941 0.572549 0.454902
0.603922 0.576471 0.466667
0.701961 0.603922 0.498039
0.890196 0.698039 0.592157
0.992157 0.745098 0.635294
0.580392 0.792157 0.517647
0.592157 0.792157 0.521569
0.615686 0.792157 0.533333
0.647059 0.792157 0.545098
0.682353 0.784314 0.552941
0.745098 0.796078 0.580392
0.815686 0.796078 0.584314
0.913725 0.815686 0.607843
0.988235 0.874510 0.713726
0.650980 0.898039 0.564706
0.662745 0.901961 0.568627
0.690196 0.909804 0.584314
0.717647 0.905882 0.596078
0.760784 0.909804 0.615686
0.819608 0.917647 0.643137
0.886275 0.921569 0.650980
0.972549 0.933333 0.662745
0.980392 0.937255 0.796078
0.356863 0.258824 0.533333
0.376471 0.266667 0.537255
0.400000 0.266667 0.537255
0.439216 0.274510 0.545098
0.486275 0.282353 0.552941
0.572549 0.298039 0.564706
0.698039 0.321569 0.580392
0.862745 0.407843 0.623529
0.952941 0.454902 0.650980
0.360784 0.278431 0.533333
0.392157 0.294118 0.537255
0.415686 0.298039 0.537255
0.443137 0.305882 0.545098
0.494118 0.309804 0.549020
0.576471 0.321569 0.560784
0.694118 0.345098 0.576471
0.862745 0.427451 0.623529
0.956863 0.470588 0.658824
0.368627 0.305882 0.537255
0.396078 0.321569 0.533333
0.431373 0.337255 0.541176
0.458824 0.341176 0.541176
0.501961 0.345098 0.545098
0.576471 0.352941 0.556863
0.694118 0.380392 0.576471
0.870588 0.458824 0.635294
0.964706 0.498039 0.658824
0.376471 0.337255 0.541176
0.403922 0.352941 0.541176
0.443137 0.368627 0.541176
0.474510 0.384314 0.541176
0.521569 0.392157 0.552941
0.584314 0.396078 0.556863
0.690196 0.415686 0.568627
0.866667 0.490196 0.631373
0.960784 0.529412 0.670588
0.392157 0.388235 0.541176
0.419608 0.400000 0.549020
0.454902 0.411765 0.549020
0.498039 0.431373 0.549020
0.545098 0.447059 0.552941
0.600000 0.454902 0.556863
0.690196 0.466667 0.568627
0.866667 0.541176 0.643137
0.964706 0.576471 0.674510
0.419608 0.474510 0.556863
0.447059 0.478431 0.556863
0.478431 0.486275 0.556863
0.517647 0.498039 0.556863
0.560784 0.509804 0.552941
0.619608 0.525490 0.560784
0.694118 0.537255 0.576471
0.874510 0.619608 0.662745
0.976471 0.666667 0.709804
0.474510 0.603922 0.576471
0.486275 0.596078 0.568627
0.513726 0.596078 0.568627
0.545098 0.600000 0.576471
0.580392 0.592157 0.564706
0.643137 0.600000 0.568627
0.725490 0.635294 0.603922
0.886275 0.717647 0.686275
0.984314 0.780392 0.760784
0.588235 0.792157 0.639216
0.600000 0.792157 0.639216
0.623529 0.792157 0.647059
0.647059 0.784314 0.643137
0.690196 0.788235 0.654902
0.752941 0.784314 0.666667
0.831373 0.792157 0.690196
0.913725 0.815686 0.713726
0.980392 0.894118 0.827451
0.654902 0.898039 0.674510
0.670588 0.901961 0.678431
0.698039 0.909804 0.690196
0.721569 0.905882 0.694118
0.764706 0.909804 0.709804
0.827451 0.913725 0.729412
0.921569 0.925490 0.772549
0.980392 0.937255 0.800000
0.976471 0.945098 0.878431
0.486275 0.352941 0.721569
0.501961 0.360784 0.725490
0.521569 0.364706 0.729412
0.545098 0.372549 0.733333
0.588235 0.380392 0.745098
0.654902 0.384314 0.741176
0.760784 0.400000 0.760784
0.894118 0.431373 0.780392
0.972549 0.454902 0.796078
0.490196 0.364706 0.721569
0.505882 0.376471 0.721569
0.529412 0.384314 0.733333
0.556863 0.392157 0.737255
0.588235 0.392157 0.733333
0.662745 0.407843 0.749020
0.768627 0.423529 0.764706
0.890196 0.443137 0.776471
0.972549 0.466667 0.796078
0.501961 0.392157 0.729412
0.517647 0.403922 0.729412
0.549020 0.419608 0.733333
0.572549 0.423529 0.737255
0.603922 0.423529 0.737255
0.670588 0.435294 0.749020
0.772549 0.454902 0.764706
0.901961 0.474510 0.780392
0.980392 0.498039 0.800000
0.501961 0.411765 0.725490
0.525490 0.427451 0.733333
0.556863 0.450980 0.737255
0.588235 0.458824 0.737255
0.615686 0.462745 0.741176
0.678431 0.470588 0.749020
0.780392 0.490196 0.764706
0.898039 0.505882 0.776471
0.976471 0.529412 0.803922
0.517647 0.458824 0.733333
0.529412 0.462745 0.729412
0.564706 0.478431 0.737255
0.600000 0.498039 0.741176
0.650980 0.525490 0.756863
0.698039 0.529412 0.760784
0.796078 0.549020 0.776471
0.898039 0.556863 0.784314
0.980392 0.580392 0.803922
0.533333 0.533333 0.749020
0.549020 0.529412 0.745098
0.580392 0.549020 0.749020
0.615686 0.564706 0.752941
0.674510 0.588235 0.764706
0.741176 0.619608 0.772549
0.819608 0.631373 0.792157
0.909804 0.639216 0.796078
0.984314 0.666667 0.823529
0.568627 0.639216 0.756863
0.584314 0.643137 0.760784
0.607843 0.654902 0.764706
0.639216 0.662745 0.772549
0.694118 0.682353 0.780392
0.764706 0.709804 0.796078
0.854902 0.741176 0.803922
0.933333 0.749020 0.815686
0.980392 0.784314 0.850980
0.623529 0.792157 0.780392
0.635294 0.800000 0.784314
0.666667 0.807843 0.796078
0.686275 0.803922 0.796078
0.729412 0.811765 0.800000
0.796078 0.823529 0.811765
0.886275 0.839216 0.827451
0.964706 0.862745 0.843137
0.976471 0.901961 0.901961
0.678431 0.898039 0.815686
0.686275 0.898039 0.811765
0.709804 0.905882 0.819608
0.733333 0.905882 0.819608
0.772549 0.909804 0.827451
0.835294 0.913725 0.843137
0.925490 0.925490 0.858824
0.976471 0.941176 0.901961
0.968627 0.956863 0.945098
