doc/3DLUTs/Candlelight.CUBE
#Created by: Adobe Photoshop CS6
#Copyright: Copyright 2012 Adobe Systems Inc.
TITLE "CandleLight from Tungsten"
#LUT size
LUT_3D_SIZE 17
#data domain
DOMAIN_MIN 0.0 0.0 0.0
DOMAIN_MAX 1.0 1.0 1.0
#LUT data points
0.023529 0.019608 0.015686
0.074510 0.047059 0.043137
0.129412 0.078431 0.070588
0.172549 0.101961 0.090196
0.207843 0.109804 0.101961
0.247059 0.121569 0.113725
0.286275 0.133333 0.125490
0.333333 0.156863 0.149020
0.384314 0.180392 0.172549
0.439216 0.207843 0.196078
0.505882 0.239216 0.227451
0.584314 0.278431 0.266667
0.670588 0.321569 0.305882
0.768627 0.368627 0.356863
0.843137 0.407843 0.392157
0.905882 0.439216 0.419608
0.941176 0.458824 0.439216
0.062745 0.058824 0.039216
0.086275 0.066667 0.047059
0.133333 0.098039 0.074510
0.176471 0.113725 0.094118
0.211765 0.125490 0.098039
0.254902 0.137255 0.113725
0.290196 0.149020 0.129412
0.337255 0.168627 0.149020
0.376471 0.184314 0.164706
0.435294 0.211765 0.196078
0.509804 0.250980 0.231373
0.588235 0.290196 0.270588
0.670588 0.325490 0.305882
0.768627 0.372549 0.356863
0.847059 0.415686 0.396078
0.901961 0.439216 0.415686
0.937255 0.458824 0.435294
0.098039 0.105882 0.070588
0.109804 0.101961 0.066667
0.137255 0.113725 0.078431
0.180392 0.133333 0.098039
0.215686 0.145098 0.105882
0.254902 0.156863 0.117647
0.286275 0.160784 0.125490
0.337255 0.188235 0.152941
0.376471 0.200000 0.164706
0.443137 0.227451 0.200000
0.509804 0.262745 0.235294
0.588235 0.301961 0.274510
0.666667 0.333333 0.301961
0.768627 0.380392 0.356863
0.847059 0.419608 0.392157
0.901961 0.447059 0.419608
0.937255 0.462745 0.435294
0.121569 0.145098 0.086275
0.133333 0.145098 0.090196
0.160784 0.149020 0.098039
0.188235 0.156863 0.101961
0.219608 0.164706 0.109804
0.258824 0.180392 0.121569
0.294118 0.192157 0.137255
0.337255 0.207843 0.152941
0.388235 0.223529 0.176471
0.447059 0.247059 0.203922
0.513726 0.274510 0.235294
0.592157 0.309804 0.270588
0.674510 0.349020 0.313726
0.768627 0.392157 0.356863
0.850980 0.431373 0.400000
0.905882 0.458824 0.423529
0.941176 0.478431 0.443137
0.141176 0.172549 0.101961
0.152941 0.172549 0.101961
0.172549 0.176471 0.105882
0.200000 0.184314 0.113725
0.223529 0.188235 0.113725
0.258824 0.196078 0.121569
0.294118 0.207843 0.133333
0.341176 0.227451 0.156863
0.388235 0.243137 0.180392
0.450980 0.266667 0.207843
0.513726 0.294118 0.235294
0.596078 0.325490 0.274510
0.670588 0.356863 0.309804
0.764706 0.400000 0.352941
0.850980 0.439216 0.400000
0.901961 0.458824 0.419608
0.937255 0.482353 0.439216
0.156863 0.207843 0.109804
0.172549 0.207843 0.113725
0.188235 0.207843 0.113725
0.215686 0.215686 0.121569
0.235294 0.215686 0.121569
0.270588 0.227451 0.133333
0.305882 0.235294 0.141176
0.352941 0.250980 0.164706
0.388235 0.258824 0.176471
0.454902 0.286275 0.211765
0.517647 0.309804 0.239216
0.592157 0.337255 0.274510
0.678431 0.376471 0.317647
0.768627 0.415686 0.360784
0.850980 0.450980 0.400000
0.901961 0.470588 0.423529
0.949020 0.494118 0.447059
0.180392 0.247059 0.125490
0.192157 0.247059 0.125490
0.203922 0.243137 0.125490
0.227451 0.243137 0.125490
0.250980 0.250980 0.133333
0.282353 0.254902 0.141176
0.305882 0.258824 0.149020
0.352941 0.274510 0.168627
0.400000 0.286275 0.188235
0.454902 0.305882 0.211765
0.525490 0.333333 0.247059
0.600000 0.360784 0.282353
0.678431 0.392157 0.317647
0.768627 0.423529 0.360784
0.850980 0.462745 0.400000
0.909804 0.490196 0.431373
0.945098 0.501961 0.447059
0.200000 0.286275 0.141176
0.215686 0.290196 0.145098
0.231373 0.286275 0.145098
0.254902 0.286275 0.149020
0.278431 0.290196 0.152941
0.301961 0.298039 0.160784
0.325490 0.298039 0.164706
0.352941 0.298039 0.168627
0.403922 0.317647 0.192157
0.462745 0.333333 0.219608
0.525490 0.356863 0.250980
0.603922 0.384314 0.286275
0.686275 0.415686 0.325490
0.768627 0.443137 0.360784
0.854902 0.478431 0.400000
0.905882 0.501961 0.423529
0.945098 0.517647 0.443137
0.231373 0.325490 0.164706
0.243137 0.329412 0.168627
0.254902 0.329412 0.168627
0.278431 0.333333 0.176471
0.294118 0.329412 0.172549
0.321569 0.337255 0.180392
0.345098 0.337255 0.180392
0.376471 0.341176 0.188235
0.415686 0.349020 0.203922
0.470588 0.368627 0.227451
0.533333 0.384314 0.254902
0.607843 0.407843 0.290196
0.690196 0.435294 0.325490
0.780392 0.470588 0.372549
0.854902 0.498039 0.403922
0.921569 0.529412 0.439216
0.952941 0.537255 0.450980
0.266667 0.372549 0.188235
0.278431 0.376471 0.192157
0.290196 0.376471 0.196078
0.305882 0.380392 0.196078
0.325490 0.384314 0.203922
0.345098 0.384314 0.200000
0.368627 0.388235 0.207843
0.396078 0.388235 0.211765
0.427451 0.392157 0.219608
0.482353 0.403922 0.239216
0.541176 0.419608 0.262745
0.619608 0.447059 0.301961
0.690196 0.462745 0.329412
0.780392 0.498039 0.368627
0.870588 0.533333 0.415686
0.917647 0.549020 0.435294
0.949020 0.556863 0.447059
0.313726 0.443137 0.223529
0.317647 0.439216 0.219608
0.333333 0.443137 0.227451
0.349020 0.447059 0.231373
0.364706 0.443137 0.231373
0.384314 0.450980 0.239216
0.403922 0.450980 0.239216
0.427451 0.454902 0.247059
0.458824 0.458824 0.247059
0.498039 0.458824 0.254902
0.552941 0.470588 0.274510
0.631373 0.494118 0.309804
0.698039 0.509804 0.337255
0.796078 0.549020 0.388235
0.870588 0.568627 0.419608
0.921569 0.584314 0.439216
0.960784 0.603922 0.462745
0.368627 0.517647 0.262745
0.372549 0.517647 0.266667
0.384314 0.517647 0.266667
0.396078 0.517647 0.266667
0.407843 0.517647 0.266667
0.419608 0.517647 0.270588
0.443137 0.521569 0.274510
0.466667 0.525490 0.282353
0.490196 0.525490 0.286275
0.529412 0.533333 0.290196
0.576471 0.537255 0.298039
0.635294 0.549020 0.317647
0.721569 0.572549 0.360784
0.803922 0.596078 0.392157
0.878431 0.615686 0.423529
0.937255 0.635294 0.454902
0.964706 0.643137 0.462745
0.419608 0.592157 0.301961
0.435294 0.600000 0.309804
0.435294 0.596078 0.309804
0.447059 0.596078 0.309804
0.466667 0.603922 0.317647
0.482353 0.607843 0.321569
0.494118 0.607843 0.325490
0.509804 0.603922 0.321569
0.533333 0.603922 0.321569
0.568627 0.611765 0.329412
0.611765 0.615686 0.337255
0.666667 0.619608 0.349020
0.733333 0.635294 0.372549
0.819608 0.658824 0.407843
0.894118 0.678431 0.439216
0.945098 0.698039 0.466667
0.976471 0.701961 0.474510
0.498039 0.694118 0.360784
0.501961 0.694118 0.360784
0.513726 0.701961 0.368627
0.517647 0.698039 0.364706
0.529412 0.701961 0.368627
0.545098 0.705882 0.372549
0.552941 0.701961 0.372549
0.564706 0.698039 0.368627
0.596078 0.705882 0.376471
0.623529 0.709804 0.384314
0.658824 0.713726 0.388235
0.709804 0.717647 0.396078
0.768627 0.721569 0.403922
0.843137 0.737255 0.427451
0.913725 0.756863 0.462745
0.960784 0.764706 0.478431
0.996078 0.776471 0.498039
0.568627 0.792157 0.415686
0.568627 0.788235 0.411765
0.580392 0.792157 0.415686
0.580392 0.788235 0.411765
0.596078 0.796078 0.419608
0.600000 0.792157 0.419608
0.615686 0.800000 0.423529
0.631373 0.803922 0.427451
0.643137 0.796078 0.423529
0.670588 0.800000 0.423529
0.717647 0.811765 0.439216
0.752941 0.807843 0.443137
0.807843 0.815686 0.450980
0.874510 0.827451 0.466667
0.937255 0.839216 0.482353
0.984314 0.843137 0.498039
0.996078 0.858824 0.560784
0.615686 0.858824 0.447059
0.623529 0.862745 0.450980
0.627451 0.866667 0.454902
0.627451 0.858824 0.447059
0.639216 0.866667 0.454902
0.647059 0.862745 0.450980
0.658824 0.862745 0.454902
0.670588 0.862745 0.458824
0.694118 0.870588 0.462745
0.713726 0.870588 0.466667
0.752941 0.878431 0.474510
0.788235 0.878431 0.474510
0.839216 0.878431 0.482353
0.898039 0.886275 0.494118
0.956863 0.894118 0.505882
0.996078 0.898039 0.513726
0.992157 0.905882 0.635294
0.650980 0.905882 0.474510
0.654902 0.909804 0.474510
0.662745 0.909804 0.478431
0.666667 0.909804 0.478431
0.670588 0.905882 0.474510
0.682353 0.913725 0.482353
0.682353 0.905882 0.474510
0.705882 0.913725 0.482353
0.721569 0.913725 0.486275
0.749020 0.917647 0.490196
0.780392 0.921569 0.498039
0.811765 0.917647 0.498039
0.866667 0.929412 0.509804
0.917647 0.929412 0.517647
0.976471 0.941176 0.533333
0.992157 0.941176 0.631373
0.988235 0.941176 0.709804
0.027451 0.019608 0.019608
0.086275 0.054902 0.050980
0.129412 0.078431 0.070588
0.172549 0.101961 0.094118
0.207843 0.105882 0.101961
0.247059 0.121569 0.113725
0.286275 0.133333 0.125490
0.333333 0.156863 0.149020
0.384314 0.180392 0.172549
0.439216 0.207843 0.200000
0.505882 0.239216 0.227451
0.584314 0.278431 0.266667
0.670588 0.321569 0.305882
0.768627 0.368627 0.356863
0.843137 0.407843 0.392157
0.905882 0.439216 0.419608
0.941176 0.458824 0.439216
0.062745 0.058824 0.039216
0.082353 0.066667 0.050980
0.133333 0.098039 0.078431
0.176471 0.113725 0.098039
0.207843 0.125490 0.101961
0.243137 0.129412 0.109804
0.290196 0.149020 0.129412
0.325490 0.160784 0.145098
0.384314 0.192157 0.176471
0.435294 0.211765 0.196078
0.509804 0.250980 0.235294
0.588235 0.290196 0.274510
0.674510 0.333333 0.309804
0.768627 0.372549 0.356863
0.847059 0.415686 0.396078
0.901961 0.439216 0.419608
0.937255 0.458824 0.435294
0.098039 0.105882 0.070588
0.109804 0.101961 0.066667
0.137255 0.113725 0.082353
0.180392 0.133333 0.098039
0.215686 0.145098 0.109804
0.247059 0.149020 0.113725
0.290196 0.168627 0.133333
0.329412 0.180392 0.149020
0.376471 0.200000 0.164706
0.443137 0.231373 0.203922
0.509804 0.262745 0.235294
0.588235 0.301961 0.274510
0.666667 0.333333 0.305882
0.768627 0.380392 0.356863
0.847059 0.419608 0.392157
0.901961 0.447059 0.419608
0.941176 0.470588 0.443137
0.121569 0.145098 0.090196
0.133333 0.145098 0.090196
0.156863 0.145098 0.098039
0.188235 0.156863 0.105882
0.219608 0.164706 0.113725
0.258824 0.180392 0.125490
0.294118 0.192157 0.137255
0.337255 0.207843 0.156863
0.380392 0.219608 0.172549
0.447059 0.247059 0.203922
0.513726 0.274510 0.239216
0.584314 0.301961 0.266667
0.674510 0.349020 0.313726
0.768627 0.392157 0.356863
0.850980 0.431373 0.400000
0.905882 0.458824 0.423529
0.941176 0.478431 0.443137
0.141176 0.172549 0.101961
0.152941 0.172549 0.105882
0.172549 0.176471 0.109804
0.200000 0.180392 0.109804
0.223529 0.188235 0.113725
0.254902 0.196078 0.125490
0.294118 0.207843 0.137255
0.341176 0.227451 0.160784
0.388235 0.243137 0.180392
0.443137 0.258824 0.203922
0.513726 0.294118 0.239216
0.596078 0.325490 0.274510
0.670588 0.356863 0.313726
0.764706 0.400000 0.356863
0.847059 0.439216 0.396078
0.901961 0.458824 0.419608
0.937255 0.482353 0.439216
0.156863 0.207843 0.113725
0.172549 0.207843 0.113725
0.188235 0.207843 0.117647
0.211765 0.207843 0.117647
0.235294 0.215686 0.121569
0.270588 0.227451 0.133333
0.305882 0.239216 0.145098
0.349020 0.250980 0.164706
0.392157 0.262745 0.184314
0.447059 0.282353 0.211765
0.517647 0.309804 0.243137
0.592157 0.337255 0.274510
0.678431 0.376471 0.317647
0.768627 0.415686 0.360784
0.850980 0.450980 0.400000
0.901961 0.470588 0.423529
0.941176 0.486275 0.443137
0.172549 0.239216 0.121569
0.184314 0.239216 0.121569
0.203922 0.243137 0.125490
0.231373 0.247059 0.133333
0.254902 0.250980 0.137255
0.282353 0.254902 0.145098
0.305882 0.258824 0.149020
0.352941 0.274510 0.172549
0.400000 0.286275 0.192157
0.454902 0.305882 0.215686
0.525490 0.333333 0.247059
0.600000 0.360784 0.282353
0.678431 0.392157 0.317647
0.768627 0.423529 0.360784
0.850980 0.462745 0.400000
0.909804 0.490196 0.431373
0.945098 0.501961 0.447059
0.200000 0.286275 0.141176
0.207843 0.278431 0.137255
0.231373 0.286275 0.149020
0.254902 0.286275 0.149020
0.274510 0.290196 0.156863
0.294118 0.290196 0.156863
0.325490 0.298039 0.164706
0.356863 0.301961 0.176471
0.403922 0.317647 0.196078
0.462745 0.333333 0.219608
0.525490 0.356863 0.250980
0.603922 0.384314 0.286275
0.678431 0.411765 0.321569
0.768627 0.443137 0.360784
0.854902 0.478431 0.400000
0.905882 0.501961 0.423529
0.945098 0.517647 0.443137
0.231373 0.325490 0.168627
0.243137 0.325490 0.168627
0.254902 0.325490 0.172549
0.278431 0.333333 0.176471
0.298039 0.333333 0.176471
0.317647 0.333333 0.176471
0.341176 0.337255 0.184314
0.368627 0.333333 0.184314
0.415686 0.349020 0.203922
0.470588 0.364706 0.227451
0.533333 0.384314 0.258824
0.607843 0.407843 0.290196
0.682353 0.427451 0.321569
0.780392 0.470588 0.372549
0.854902 0.498039 0.403922
0.921569 0.529412 0.439216
0.952941 0.537255 0.450980
0.266667 0.372549 0.192157
0.278431 0.376471 0.196078
0.290196 0.376471 0.196078
0.305882 0.376471 0.200000
0.325490 0.384314 0.203922
0.345098 0.384314 0.203922
0.368627 0.388235 0.207843
0.396078 0.388235 0.211765
0.427451 0.392157 0.219608
0.482353 0.403922 0.239216
0.541176 0.419608 0.262745
0.619608 0.447059 0.301961
0.690196 0.462745 0.329412
0.780392 0.498039 0.372549
0.866667 0.533333 0.415686
0.917647 0.549020 0.435294
0.949020 0.560784 0.447059
0.313726 0.443137 0.227451
0.321569 0.443137 0.227451
0.333333 0.443137 0.227451
0.349020 0.447059 0.231373
0.368627 0.447059 0.239216
0.384314 0.450980 0.239216
0.403922 0.450980 0.243137
0.427451 0.454902 0.247059
0.458824 0.458824 0.247059
0.501961 0.462745 0.262745
0.552941 0.470588 0.274510
0.631373 0.494118 0.309804
0.698039 0.509804 0.337255
0.796078 0.549020 0.388235
0.870588 0.568627 0.419608
0.925490 0.588235 0.447059
0.960784 0.603922 0.462745
0.364706 0.513726 0.262745
0.372549 0.517647 0.266667
0.384314 0.517647 0.266667
0.396078 0.517647 0.266667
0.407843 0.517647 0.270588
0.419608 0.517647 0.270588
0.443137 0.521569 0.278431
0.466667 0.525490 0.282353
0.490196 0.525490 0.286275
0.529412 0.533333 0.290196
0.576471 0.533333 0.301961
0.635294 0.545098 0.321569
0.721569 0.572549 0.360784
0.803922 0.596078 0.392157
0.882353 0.619608 0.431373
0.937255 0.635294 0.454902
0.964706 0.643137 0.466667
0.423529 0.596078 0.309804
0.435294 0.600000 0.313726
0.435294 0.596078 0.309804
0.447059 0.596078 0.309804
0.466667 0.603922 0.317647
0.482353 0.607843 0.325490
0.494118 0.607843 0.325490
0.509804 0.603922 0.321569
0.533333 0.603922 0.321569
0.568627 0.611765 0.329412
0.611765 0.615686 0.341176
0.666667 0.619608 0.349020
0.733333 0.635294 0.372549
0.819608 0.658824 0.407843
0.894118 0.678431 0.443137
0.945098 0.698039 0.466667
0.976471 0.701961 0.474510
0.498039 0.694118 0.360784
0.501961 0.694118 0.360784
0.513726 0.701961 0.368627
0.517647 0.698039 0.364706
0.529412 0.698039 0.364706
0.545098 0.705882 0.376471
0.552941 0.701961 0.372549
0.564706 0.698039 0.368627
0.596078 0.705882 0.376471
0.623529 0.709804 0.384314
0.658824 0.713726 0.388235
0.709804 0.717647 0.396078
0.768627 0.721569 0.403922
0.835294 0.729412 0.423529
0.913725 0.756863 0.462745
0.960784 0.764706 0.478431
0.996078 0.776471 0.498039
0.568627 0.792157 0.415686
0.568627 0.788235 0.411765
0.580392 0.792157 0.415686
0.580392 0.788235 0.411765
0.596078 0.796078 0.423529
0.600000 0.792157 0.419608
0.615686 0.800000 0.423529
0.631373 0.803922 0.427451
0.643137 0.796078 0.423529
0.670588 0.800000 0.427451
0.717647 0.811765 0.439216
0.752941 0.807843 0.443137
0.807843 0.815686 0.450980
0.874510 0.827451 0.466667
0.937255 0.839216 0.482353
0.984314 0.843137 0.498039
0.996078 0.858824 0.560784
0.615686 0.858824 0.447059
0.623529 0.862745 0.450980
0.627451 0.866667 0.454902
0.627451 0.858824 0.447059
0.639216 0.866667 0.454902
0.647059 0.862745 0.450980
0.662745 0.866667 0.462745
0.678431 0.866667 0.462745
0.698039 0.870588 0.466667
0.713726 0.870588 0.466667
0.752941 0.878431 0.474510
0.788235 0.878431 0.474510
0.839216 0.878431 0.482353
0.898039 0.886275 0.494118
0.956863 0.894118 0.505882
0.996078 0.898039 0.513726
0.992157 0.905882 0.635294
0.650980 0.905882 0.474510
0.654902 0.909804 0.478431
0.662745 0.909804 0.478431
0.666667 0.909804 0.478431
0.670588 0.905882 0.474510
0.682353 0.913725 0.482353
0.682353 0.905882 0.474510
0.705882 0.913725 0.486275
0.721569 0.913725 0.486275
0.749020 0.917647 0.494118
0.780392 0.921569 0.498039
0.815686 0.921569 0.501961
0.866667 0.929412 0.509804
0.917647 0.929412 0.517647
0.976471 0.941176 0.533333
0.996078 0.929412 0.584314
0.988235 0.941176 0.709804
0.050980 0.039216 0.039216
0.078431 0.050980 0.054902
0.129412 0.078431 0.078431
0.172549 0.098039 0.098039
0.207843 0.105882 0.105882
0.243137 0.113725 0.117647
0.282353 0.125490 0.129412
0.333333 0.156863 0.156863
0.376471 0.172549 0.172549
0.431373 0.200000 0.196078
0.509804 0.243137 0.235294
0.588235 0.282353 0.274510
0.674510 0.325490 0.313726
0.768627 0.368627 0.356863
0.843137 0.407843 0.396078
0.905882 0.439216 0.423529
0.945098 0.462745 0.447059
0.062745 0.058824 0.050980
0.082353 0.066667 0.054902
0.133333 0.098039 0.086275
0.172549 0.113725 0.101961
0.203922 0.125490 0.113725
0.239216 0.133333 0.117647
0.278431 0.145098 0.137255
0.321569 0.164706 0.152941
0.372549 0.188235 0.172549
0.443137 0.223529 0.211765
0.509804 0.254902 0.243137
0.592157 0.294118 0.278431
0.666667 0.325490 0.309804
0.764706 0.376471 0.360784
0.847059 0.419608 0.400000
0.901961 0.443137 0.423529
0.937255 0.462745 0.439216
0.098039 0.101961 0.074510
0.113725 0.105882 0.078431
0.133333 0.113725 0.086275
0.176471 0.133333 0.105882
0.211765 0.145098 0.117647
0.250980 0.156863 0.129412
0.278431 0.164706 0.133333
0.325490 0.184314 0.152941
0.376471 0.207843 0.180392
0.439216 0.227451 0.203922
0.505882 0.262745 0.235294
0.584314 0.294118 0.270588
0.670588 0.337255 0.313726
0.764706 0.380392 0.356863
0.843137 0.419608 0.400000
0.905882 0.450980 0.427451
0.941176 0.470588 0.447059
0.121569 0.145098 0.094118
0.137255 0.145098 0.098039
0.152941 0.145098 0.098039
0.180392 0.152941 0.113725
0.211765 0.160784 0.117647
0.247059 0.176471 0.129412
0.286275 0.188235 0.141176
0.333333 0.207843 0.164706
0.384314 0.227451 0.188235
0.439216 0.247059 0.207843
0.509804 0.278431 0.243137
0.592157 0.313726 0.278431
0.674510 0.349020 0.321569
0.764706 0.392157 0.360784
0.847059 0.431373 0.400000
0.905882 0.458824 0.427451
0.937255 0.474510 0.443137
0.141176 0.176471 0.109804
0.152941 0.172549 0.109804
0.172549 0.172549 0.113725
0.196078 0.176471 0.117647
0.219608 0.184314 0.121569
0.254902 0.196078 0.133333
0.286275 0.203922 0.141176
0.341176 0.227451 0.168627
0.384314 0.247059 0.188235
0.447059 0.266667 0.219608
0.513726 0.294118 0.247059
0.592157 0.325490 0.282353
0.674510 0.364706 0.317647
0.764706 0.400000 0.360784
0.847059 0.439216 0.396078
0.901961 0.462745 0.427451
0.949020 0.486275 0.450980
0.152941 0.203922 0.117647
0.172549 0.200000 0.121569
0.192157 0.207843 0.125490
0.211765 0.207843 0.129412
0.231373 0.207843 0.129412
0.262745 0.219608 0.141176
0.298039 0.231373 0.152941
0.345098 0.250980 0.176471
0.392157 0.262745 0.192157
0.450980 0.286275 0.219608
0.521569 0.313726 0.250980
0.596078 0.345098 0.282353
0.674510 0.376471 0.321569
0.768627 0.419608 0.364706
0.847059 0.450980 0.400000
0.901961 0.470588 0.427451
0.945098 0.494118 0.447059
0.172549 0.239216 0.129412
0.184314 0.231373 0.129412
0.203922 0.235294 0.133333
0.227451 0.243137 0.141176
0.250980 0.247059 0.145098
0.270588 0.247059 0.149020
0.305882 0.258824 0.156863
0.349020 0.270588 0.176471
0.396078 0.286275 0.196078
0.454902 0.305882 0.223529
0.521569 0.333333 0.250980
0.600000 0.360784 0.290196
0.682353 0.392157 0.329412
0.772549 0.431373 0.368627
0.850980 0.462745 0.403922
0.909804 0.494118 0.435294
0.945098 0.505882 0.447059
0.196078 0.282353 0.145098
0.211765 0.274510 0.149020
0.235294 0.282353 0.156863
0.254902 0.286275 0.164706
0.274510 0.286275 0.164706
0.294118 0.286275 0.168627
0.317647 0.290196 0.168627
0.360784 0.301961 0.188235
0.400000 0.317647 0.203922
0.454902 0.329412 0.219608
0.525490 0.356863 0.258824
0.603922 0.384314 0.294118
0.686275 0.415686 0.329412
0.768627 0.443137 0.364706
0.854902 0.478431 0.403922
0.909804 0.505882 0.431373
0.945098 0.517647 0.447059
0.223529 0.317647 0.164706
0.243137 0.321569 0.176471
0.258824 0.325490 0.176471
0.274510 0.325490 0.176471
0.294118 0.329412 0.184314
0.313726 0.329412 0.184314
0.337255 0.329412 0.188235
0.368627 0.333333 0.196078
0.407843 0.345098 0.207843
0.466667 0.364706 0.235294
0.533333 0.384314 0.262745
0.607843 0.407843 0.294118
0.686275 0.431373 0.329412
0.780392 0.470588 0.376471
0.854902 0.498039 0.403922
0.913725 0.521569 0.435294
0.960784 0.545098 0.462745
0.266667 0.372549 0.196078
0.282353 0.372549 0.203922
0.294118 0.372549 0.203922
0.305882 0.376471 0.200000
0.325490 0.380392 0.207843
0.345098 0.380392 0.207843
0.364706 0.380392 0.211765
0.392157 0.384314 0.219608
0.423529 0.388235 0.227451
0.478431 0.403922 0.247059
0.541176 0.419608 0.270588
0.611765 0.443137 0.298039
0.690196 0.462745 0.333333
0.784314 0.501961 0.380392
0.866667 0.533333 0.419608
0.917647 0.549020 0.439216
0.949020 0.560784 0.450980
0.313726 0.443137 0.231373
0.321569 0.439216 0.231373
0.333333 0.439216 0.235294
0.349020 0.443137 0.235294
0.368627 0.447059 0.243137
0.380392 0.443137 0.243137
0.403922 0.447059 0.247059
0.431373 0.454902 0.250980
0.454902 0.454902 0.254902
0.494118 0.454902 0.258824
0.556863 0.474510 0.282353
0.623529 0.486275 0.309804
0.701961 0.513726 0.345098
0.796078 0.549020 0.392157
0.870588 0.568627 0.419608
0.925490 0.592157 0.447059
0.960784 0.603922 0.462745
0.364706 0.513726 0.266667
0.376471 0.513726 0.270588
0.388235 0.517647 0.278431
0.400000 0.517647 0.278431
0.411765 0.517647 0.278431
0.427451 0.521569 0.278431
0.447059 0.525490 0.286275
0.466667 0.521569 0.286275
0.490196 0.525490 0.286275
0.533333 0.533333 0.298039
0.568627 0.529412 0.298039
0.635294 0.545098 0.325490
0.713726 0.564706 0.356863
0.803922 0.596078 0.396078
0.882353 0.619608 0.435294
0.937255 0.635294 0.454902
0.964706 0.643137 0.466667
0.423529 0.596078 0.309804
0.435294 0.596078 0.313726
0.439216 0.596078 0.313726
0.447059 0.596078 0.313726
0.458824 0.596078 0.317647
0.470588 0.596078 0.317647
0.498039 0.603922 0.325490
0.517647 0.607843 0.329412
0.533333 0.603922 0.325490
0.568627 0.607843 0.333333
0.611765 0.615686 0.345098
0.666667 0.619608 0.349020
0.733333 0.635294 0.376471
0.819608 0.658824 0.411765
0.894118 0.678431 0.443137
0.941176 0.690196 0.462745
0.984314 0.705882 0.482353
0.498039 0.694118 0.360784
0.505882 0.698039 0.372549
0.505882 0.690196 0.364706
0.517647 0.698039 0.368627
0.529412 0.698039 0.372549
0.537255 0.698039 0.372549
0.556863 0.705882 0.380392
0.564706 0.698039 0.372549
0.600000 0.709804 0.384314
0.623529 0.709804 0.388235
0.658824 0.709804 0.392157
0.713726 0.721569 0.403922
0.760784 0.717647 0.403922
0.839216 0.737255 0.435294
0.913725 0.756863 0.462745
0.964706 0.768627 0.486275
0.996078 0.776471 0.498039
0.568627 0.788235 0.415686
0.568627 0.788235 0.415686
0.580392 0.792157 0.419608
0.580392 0.788235 0.415686
0.592157 0.788235 0.419608
0.607843 0.796078 0.427451
0.611765 0.792157 0.423529
0.627451 0.796078 0.423529
0.647059 0.800000 0.427451
0.670588 0.800000 0.427451
0.717647 0.811765 0.443137
0.752941 0.807843 0.447059
0.811765 0.819608 0.458824
0.866667 0.819608 0.462745
0.929412 0.831373 0.478431
0.980392 0.843137 0.501961
0.996078 0.858824 0.560784
0.615686 0.858824 0.447059
0.627451 0.866667 0.458824
0.623529 0.858824 0.450980
0.639216 0.866667 0.458824
0.643137 0.866667 0.458824
0.650980 0.866667 0.458824
0.666667 0.866667 0.466667
0.682353 0.870588 0.470588
0.690196 0.862745 0.462745
0.721569 0.874510 0.474510
0.756863 0.878431 0.478431
0.788235 0.878431 0.478431
0.843137 0.882353 0.490196
0.898039 0.886275 0.494118
0.956863 0.894118 0.509804
0.996078 0.898039 0.517647
0.992157 0.905882 0.643137
0.643137 0.898039 0.470588
0.650980 0.901961 0.470588
0.662745 0.909804 0.482353
0.666667 0.909804 0.482353
0.674510 0.909804 0.482353
0.678431 0.905882 0.478431
0.694118 0.913725 0.486275
0.705882 0.913725 0.490196
0.725490 0.917647 0.494118
0.749020 0.917647 0.494118
0.780392 0.921569 0.501961
0.823529 0.925490 0.505882
0.862745 0.925490 0.509804
0.917647 0.929412 0.517647
0.976471 0.941176 0.533333
0.992157 0.933333 0.615686
0.988235 0.937255 0.690196
0.070588 0.058824 0.066667
0.090196 0.062745 0.070588
0.133333 0.082353 0.090196
0.172549 0.098039 0.101961
0.211765 0.109804 0.121569
0.247059 0.117647 0.125490
0.290196 0.133333 0.145098
0.325490 0.149020 0.156863
0.376471 0.172549 0.176471
0.435294 0.203922 0.207843
0.509804 0.243137 0.243137
0.588235 0.282353 0.278431
0.674510 0.325490 0.317647
