doc/3DLUTs/Candlelight.CUBE
#Created by: Adobe Photoshop CS6
#Copyright: Copyright 2012 Adobe Systems Inc.
TITLE "CandleLight from Tungsten"
#LUT size
LUT_3D_SIZE 5
#data domain
DOMAIN_MIN 0.0 0.0 0.0
DOMAIN_MAX 1.0 1.0 1.0
#LUT data points
0.023529 0.019608 0.015686
0.207843 0.109804 0.101961
0.384314 0.180392 0.172549
0.670588 0.321569 0.305882
0.941176 0.458824 0.439216
0.141176 0.172549 0.101961
0.223529 0.188235 0.113725
0.388235 0.243137 0.180392
0.670588 0.356863 0.309804
0.937255 0.482353 0.439216
0.231373 0.325490 0.164706
0.294118 0.329412 0.172549
0.415686 0.349020 0.203922
0.690196 0.435294 0.325490
0.952941 0.537255 0.450980
0.419608 0.592157 0.301961
0.466667 0.603922 0.317647
0.533333 0.603922 0.321569
0.733333 0.635294 0.372549
0.976471 0.701961 0.474510
0.650980 0.905882 0.474510
0.670588 0.905882 0.474510
0.721569 0.913725 0.486275
0.866667 0.929412 0.509804
0.988235 0.941176 0.709804
0.090196 0.070588 0.090196
0.211765 0.109804 0.129412
0.376471 0.172549 0.188235
0.666667 0.317647 0.313726
0.937255 0.454902 0.443137
0.145098 0.172549 0.125490
0.211765 0.176471 0.137255
0.380392 0.247059 0.207843
0.674510 0.368627 0.333333
0.945098 0.490196 0.454902
0.231373 0.321569 0.184314
0.294118 0.317647 0.203922
0.400000 0.337255 0.223529
0.686275 0.439216 0.345098
0.952941 0.541176 0.462745
0.431373 0.600000 0.321569
0.462745 0.592157 0.325490
0.533333 0.600000 0.341176
0.729412 0.627451 0.384314
0.988235 0.709804 0.498039
0.643137 0.898039 0.474510
0.674510 0.905882 0.486275
0.721569 0.909804 0.494118
0.862745 0.925490 0.517647
0.988235 0.937255 0.690196
0.125490 0.094118 0.172549
0.219608 0.109804 0.188235
0.380392 0.172549 0.235294
0.674510 0.325490 0.352941
0.941176 0.458824 0.470588
0.156863 0.184314 0.188235
0.227451 0.188235 0.184314
0.376471 0.254902 0.254902
0.670588 0.380392 0.368627
0.949020 0.498039 0.482353
0.235294 0.321569 0.231373
0.290196 0.298039 0.231373
0.384314 0.325490 0.262745
0.682353 0.450980 0.384314
0.949020 0.552941 0.494118
0.427451 0.596078 0.345098
0.474510 0.588235 0.364706
0.541176 0.592157 0.376471
0.717647 0.623529 0.415686
0.984314 0.717647 0.533333
0.654902 0.905882 0.501961
0.690196 0.909804 0.517647
0.733333 0.909804 0.521569
0.866667 0.925490 0.549020
0.984314 0.941176 0.745098
0.239216 0.172549 0.352941
0.294118 0.176471 0.356863
0.407843 0.192157 0.372549
0.682353 0.321569 0.447059
0.945098 0.454902 0.541176
0.254902 0.235294 0.360784
0.329412 0.262745 0.352941
0.407843 0.274510 0.364706
0.678431 0.380392 0.454902
0.952941 0.498039 0.552941
0.294118 0.341176 0.376471
0.352941 0.345098 0.364706
0.427451 0.360784 0.364706
0.674510 0.458824 0.466667
0.956863 0.580392 0.584314
0.439216 0.592157 0.439216
0.490196 0.592157 0.447059
0.552941 0.572549 0.454902
0.701961 0.603922 0.498039
0.992157 0.745098 0.635294
0.650980 0.898039 0.564706
0.690196 0.909804 0.584314
0.760784 0.909804 0.615686
0.886275 0.921569 0.650980
0.980392 0.937255 0.796078
0.486275 0.352941 0.721569
0.521569 0.364706 0.729412
0.588235 0.380392 0.745098
0.760784 0.400000 0.760784
0.972549 0.454902 0.796078
0.501961 0.392157 0.729412
0.549020 0.419608 0.733333
0.603922 0.423529 0.737255
0.772549 0.454902 0.764706
0.980392 0.498039 0.800000
0.517647 0.458824 0.733333
0.564706 0.478431 0.737255
0.650980 0.525490 0.756863
0.796078 0.549020 0.776471
0.980392 0.580392 0.803922
0.568627 0.639216 0.756863
0.607843 0.654902 0.764706
0.694118 0.682353 0.780392
0.854902 0.741176 0.803922
0.980392 0.784314 0.850980
0.678431 0.898039 0.815686
0.709804 0.905882 0.819608
0.772549 0.909804 0.827451
0.925490 0.925490 0.858824
0.968627 0.956863 0.945098
