doc/3DLUTs/DropBlues.3DL
#Created by: Adobe Photoshop CS6
#Copyright: Copyright 2012 Adobe Systems Inc.
0 128 256 384 512 639 767 895 1023
241 241 241
225 257 337
337 321 514
450 369 658
562 482 819
755 626 1060
899 755 1269
1060 883 1493
1204 1012 1686
64 594 145
241 562 514
514 562 658
594 610 803
691 674 980
819 771 1156
980 899 1365
1108 1012 1542
1253 1108 1750
80 1060 16
64 1076 562
514 1028 964
851 980 1076
931 1012 1204
1028 1092 1397
1124 1140 1542
1253 1237 1718
1381 1317 1895
48 1510 0
0 1510 498
0 1510 1012
755 1461 1429
1253 1413 1510
1317 1461 1670
1349 1493 1799
1461 1558 1959
1590 1622 2120
0 1975 0
0 1991 466
0 1959 931
0 1975 1477
947 1927 1879
1622 1815 1911
1654 1863 2072
1783 1911 2232
1847 1991 2393
0 2473 0
0 2489 401
0 2473 964
0 2473 1461
0 2473 1943
1285 2377 2345
1975 2280 2361
2056 2312 2521
2136 2361 2666
112 2955 0
0 2955 369
0 2955 964
0 2971 1477
0 2971 1927
0 2971 2473
1510 2842 2810
2377 2714 2794
2441 2762 2971
0 3453 0
0 3469 337
0 3453 867
0 3469 1429
0 3453 1911
0 3437 2425
0 3437 2939
1783 3324 3276
2778 3180 3244
128 3934 0
337 3934 128
0 3934 867
0 3967 1413
0 3934 1895
0 3918 2409
0 3934 2907
0 3918 3437
2039 3822 3774
514 273 289
401 305 401
450 369 546
546 466 723
658 562 899
787 691 1092
931 803 1301
1108 915 1510
1220 1028 1702
594 578 96
562 562 562
594 626 723
691 658 867
787 739 1028
883 835 1220
1012 915 1397
1156 1028 1574
1285 1156 1799
562 1044 32
514 1060 562
755 1012 980
915 1012 1124
947 1044 1237
1060 1124 1397
1156 1172 1542
1269 1253 1718
1381 1333 1911
498 1510 0
482 1510 466
450 1526 1012
867 1445 1413
1253 1413 1526
1397 1477 1686
1413 1526 1831
1493 1590 1959
1606 1622 2104
466 1959 0
321 1959 466
466 1991 980
466 1975 1477
1076 1927 1863
1638 1847 1943
1686 1863 2088
1783 1927 2248
1863 2007 2409
482 2473 0
385 2489 434
289 2457 915
305 2457 1461
434 2457 1943
1285 2393 2361
2023 2280 2377
2056 2312 2521
2120 2345 2650
530 2955 0
209 2955 401
321 2971 947
273 2971 1461
257 2971 1943
273 2955 2425
1638 2842 2778
2441 2730 2794
2441 2762 2971
546 3453 0
610 3437 225
96 3453 883
0 3453 1429
0 3437 1911
0 3437 2441
0 3421 2923
1863 3324 3292
2778 3180 3244
450 3918 0
610 3950 209
0 3934 867
0 3934 1365
0 3918 1895
0 3934 2393
0 3918 2907
0 3934 3421
2104 3838 3790
996 225 257
674 482 546
707 530 707
723 578 819
819 658 980
931 771 1172
1076 883 1381
1156 980 1542
1301 1092 1766
1076 562 80
996 594 594
819 707 819
819 755 947
915 803 1092
1012 899 1269
1140 996 1461
1220 1092 1638
1381 1188 1831
1060 1044 48
1060 1028 498
1028 1028 1028
1028 1076 1172
1108 1124 1301
1172 1156 1461
1253 1220 1606
1349 1285 1783
1493 1381 1943
1044 1510 0
1012 1493 498
964 1493 996
1188 1461 1429
1397 1477 1558
1413 1493 1702
1477 1526 1831
1574 1622 2007
1654 1670 2152
1028 1975 0
1012 1959 450
931 1959 931
996 1991 1477
1333 1927 1879
1702 1863 1975
1799 1927 2120
1831 1959 2248
1927 2007 2409
980 2457 0
980 2457 418
931 2473 947
931 2457 1461
883 2473 1959
1510 2377 2345
2088 2312 2409
2120 2345 2553
2200 2377 2698
1108 2955 0
964 2939 289
851 2971 931
851 2971 1445
899 2939 1943
851 2939 2441
1750 2842 2810
2441 2746 2826
2505 2778 3003
1012 3453 0
964 3437 289
819 3437 899
771 3437 1397
851 3437 1895
771 3437 2425
691 3453 2955
1975 3324 3276
2826 3180 3260
947 3934 0
996 3918 225
755 3934 851
739 3918 1365
787 3934 1895
787 3934 2409
658 3934 2907
803 3902 3421
2248 3838 3774
1590 96 128
1237 546 674
980 707 835
1012 771 996
1092 851 1156
1108 915 1301
1220 996 1461
1317 1092 1654
1461 1188 1847
1574 530 32
1461 642 626
1076 883 964
1076 899 1076
1108 964 1204
1220 1028 1397
1285 1092 1542
1381 1188 1702
1477 1285 1895
1526 1028 0
1510 1028 514
1413 1060 1092
1269 1156 1269
1285 1204 1381
1333 1253 1558
1413 1301 1702
1493 1381 1863
1622 1461 2007
1526 1510 0
1526 1493 482
1510 1477 980
1510 1510 1510
1493 1542 1638
1542 1574 1766
1606 1606 1895
1702 1670 2072
1766 1734 2200
1510 1975 0
1510 1959 466
1510 1959 947
1445 1975 1477
1702 1943 1911
1847 1927 2023
1879 1975 2184
1927 2023 2312
1991 2039 2441
1510 2441 0
1445 2457 385
1493 2441 931
1413 2457 1461
1429 2457 1943
1815 2377 2345
2168 2345 2457
2248 2377 2602
2280 2409 2714
1493 2939 0
1461 2939 305
1445 2939 883
1397 2939 1445
1429 2939 1895
1429 2939 2441
1991 2875 2842
2553 2778 2875
2602 2826 3019
1461 3437 0
1445 3437 145
1429 3437 867
1429 3453 1381
1397 3437 1911
1413 3453 2409
1349 3453 2955
2120 3340 3276
2907 3228 3308
1477 3918 0
1445 3918 0
1365 3918 819
1317 3934 1381
1317 3918 1911
1381 3934 2409
1269 3902 2923
1333 3967 3437
2425 3838 3774
2056 0 64
1799 562 707
1253 915 1012
1285 964 1156
1317 1012 1285
1381 1076 1429
1429 1156 1622
1526 1253 1799
1638 1333 1959
2023 514 0
1975 578 562
1461 996 1108
1333 1060 1220
1381 1108 1365
1445 1172 1526
1477 1220 1654
1590 1333 1847
1654 1381 1991
1991 996 0
2007 1012 514
1831 1108 1092
1493 1285 1365
1526 1317 1510
1542 1381 1638
1574 1413 1799
1686 1493 1975
1750 1574 2104
1959 1477 0
1991 1493 466
2007 1493 980
1847 1542 1574
1734 1622 1734
1702 1654 1847
1783 1686 1975
1847 1766 2152
1943 1831 2329
1975 1959 0
1991 1959 434
2007 1975 964
1991 1959 1477
1975 1975 1975
1991 2023 2104
2007 2039 2232
2072 2072 2377
2136 2136 2521
1959 2441 0
1975 2441 353
1991 2441 947
1975 2441 1445
1959 2457 1943
2152 2409 2377
2312 2393 2505
2361 2441 2634
2393 2489 2794
1975 2939 0
1943 2939 305
1975 2923 883
1959 2939 1461
1927 2955 1911
1895 2939 2441
2296 2875 2842
2634 2810 2923
2682 2858 3067
1927 3453 0
1927 3421 193
1943 3437 883
1959 3453 1413
1895 3437 1895
1895 3437 2425
1927 3437 2907
2441 3388 3340
2987 3260 3356
1927 3902 0
1975 3918 48
1975 3918 867
1879 3918 1381
1879 3934 1863
1911 3934 2393
1911 3950 2907
1895 3950 3437
2602 3838 3774
2537 0 0
2377 418 610
1895 996 1172
1590 1188 1333
1622 1220 1461
1654 1285 1606
1702 1333 1766
1750 1397 1927
1847 1493 2104
2505 450 16
2505 498 546
2007 1044 1204
1622 1253 1397
1670 1301 1542
1686 1349 1670
1750 1397 1815
1766 1477 1959
1847 1558 2120
2489 996 0
2489 980 482
2312 1124 1108
1766 1413 1510
1750 1461 1622
1815 1526 1799
1863 1558 1927
1879 1622 2056
1959 1686 2216
2489 1493 0
2489 1461 418
2473 1477 947
2264 1574 1622
1943 1734 1815
1975 1783 1975
1991 1815 2104
2072 1895 2264
2120 1927 2393
2489 1959 0
2457 1943 434
2457 1959 931
2473 1959 1461
2312 2007 2023
2184 2088 2168
2216 2136 2329
2264 2168 2457
2312 2216 2602
2505 2441 0
2489 2441 385
2441 2441 915
2489 2441 1445
2473 2425 1927
2457 2457 2457
2457 2489 2585
2489 2537 2730
2537 2569 2875
2505 2939 0
2473 2955 385
2473 2939 931
2489 2939 1429
2457 2939 1911
2409 2939 2441
2650 2907 2875
2810 2891 3003
2842 2923 3115
2425 3421 0
2441 3421 241
2441 3437 899
2489 3404 1397
2505 3453 1911
2441 3437 2425
2409 3437 2955
2746 3388 3340
3148 3324 3404
2489 3934 0
2473 3934 16
2505 3934 803
2441 3934 1365
2425 3934 1895
2393 3950 2393
2377 3934 2923
2409 3950 3437
2971 3838 3806
3019 0 64
2939 225 578
2457 1028 1237
1943 1365 1542
1911 1445 1670
1959 1493 1815
1959 1510 1927
2023 1574 2088
2104 1638 2248
3019 482 80
3019 434 530
2585 1060 1220
2056 1413 1574
1959 1510 1702
1975 1542 1831
2007 1574 1975
2072 1654 2120
2104 1686 2264
2987 980 0
3003 947 482
2842 1108 1076
2329 1493 1638
2039 1654 1783
2056 1670 1927
2104 1718 2088
2168 1799 2216
2216 1847 2393
3019 1493 0
3003 1493 434
2971 1477 996
2778 1622 1622
2200 1895 1975
2232 1943 2104
2248 1943 2232
2296 1991 2377
2345 2072 2537
2987 1959 0
2971 1959 434
2971 1959 947
2971 1943 1445
2682 2056 2088
2409 2200 2280
2441 2232 2441
2457 2264 2553
2521 2329 2714
2955 2457 0
2955 2473 369
2971 2473 915
2939 2441 1413
2971 2457 1927
2826 2505 2521
2666 2569 2666
2666 2602 2810
2698 2634 2939
3003 2907 0
2971 2923 273
3003 2923 931
2955 2939 1429
2955 2955 1943
2987 2955 2457
2939 2939 2939
2939 2971 3051
2987 3003 3196
2971 3404 0
2971 3421 305
2971 3421 883
2955 3404 1397
2923 3437 1911
2971 3421 2409
2907 3453 2939
3164 3388 3372
3292 3388 3485
2939 3902 0
2987 3918 32
2907 3918 835
2955 3934 1381
2987 3918 1879
2939 3934 2377
2891 3934 2907
2923 3918 3437
3260 3870 3822
3501 0 48
3485 0 530
3099 964 1204
2553 1461 1702
2184 1654 1847
2216 1686 1975
2280 1734 2136
2312 1783 2264
2377 1847 2409
3485 401 0
3517 369 546
3180 1044 1188
2634 1477 1686
2264 1734 1879
2264 1750 2007
2296 1799 2168
2329 1847 2312
2393 1911 2457
3501 980 0
3501 964 514
3372 1108 1092
2891 1558 1734
2345 1831 1991
2361 1879 2104
2377 1911 2216
2409 1959 2377
2473 2007 2521
3501 1445 0
3469 1461 418
3485 1477 980
3244 1654 1622
2714 1959 2120
2473 2088 2248
2505 2104 2361
2553 2152 2537
2585 2184 2666
3469 1943 0
3469 1943 385
3469 1927 915
3453 1927 1493
3196 2104 2120
2634 2329 2409
2682 2377 2553
2730 2409 2714
2778 2457 2842
3453 2441 0
3421 2425 257
3453 2441 915
3469 2441 1461
3437 2409 1895
3196 2537 2569
2907 2682 2778
2923 2714 2891
2939 2746 3051
3469 2939 0
3469 2939 337
3437 2939 931
3421 2939 1429
3437 2907 1895
3453 2923 2441
3308 2955 2955
3148 3051 3131
3180 3115 3292
3453 3453 0
3485 3421 321
3437 3437 899
3485 3421 1381
3469 3437 1911
3469 3437 2441
3469 3437 2923
3437 3437 3437
3421 3453 3533
3469 3934 0
3453 3934 0
3421 3934 835
3469 3934 1365
3469 3918 1879
3453 3934 2409
3453 3918 2907
3421 3918 3404
3661 3886 3854
3999 0 0
3999 0 498
3661 915 1188
3164 1510 1783
2634 1831 2088
2537 1927 2168
2553 1943 2296
2585 2007 2441
2650 2056 2585
3999 273 48
3967 273 514
3742 980 1156
3212 1526 1750
2746 1863 2104
2585 1975 2200
2585 2007 2329
2618 2023 2457
2650 2088 2618
3983 899 80
3999 915 482
3950 1012 1028
3453 1558 1734
2891 1911 2136
2618 2072 2264
2650 2088 2409
2682 2152 2537
2746 2200 2698
3983 1429 0
3983 1429 401
3983 1461 980
3758 1638 1606
3260 2007 2184
2746 2264 2393
2762 2264 2537
2794 2329 2666
2858 2377 2810
3967 1943 0
3983 1943 434
3967 1927 931
3983 1943 1510
3726 2120 2104
3099 2425 2585
2907 2505 2682
2971 2553 2826
3003 2585 2971
3967 2425 0
3918 2425 321
3934 2425 867
3967 2425 1429
3934 2425 1927
3677 2585 2602
3131 2826 2907
3148 2842 3051
3212 2875 3196
3950 2923 0
3934 2923 177
3950 2923 851
3950 2923 1413
3967 2939 1943
3918 2939 2409
3726 3035 3035
3372 3180 3260
3404 3196 3372
3934 3404 0
3934 3404 0
3934 3421 867
3918 3437 1413
3934 3421 1895
3950 3437 2409
3967 3453 2939
3806 3501 3517
3677 3581 3661
3967 3902 0
3967 3918 145
3999 3934 883
3950 3918 1365
3967 3918 1895
3950 3918 2393
3967 3918 2939
4015 3918 3421
3934 3934 3934
