doc/3DLUTs/DropBlues.3DL
#Created by: Adobe Photoshop CS6
#Copyright: Copyright 2012 Adobe Systems Inc.
0 64 128 192 256 320 384 448 512 575 639 703 767 831 895 959 1023
241 241 241
225 241 257
225 257 337
257 273 418
337 321 514
369 337 578
450 369 658
514 434 771
562 482 819
658 562 964
755 626 1060
819 707 1156
899 755 1269
996 835 1381
1060 883 1493
1108 947 1590
1204 1012 1686
177 385 193
273 369 353
353 369 418
337 385 498
369 401 546
434 450 626
498 466 723
578 546 819
642 578 915
707 626 1012
771 707 1108
851 739 1204
915 819 1317
1012 883 1413
1044 931 1493
1124 980 1590
1204 1044 1686
64 594 145
80 594 337
241 562 514
466 530 578
514 562 658
530 610 755
594 610 803
658 658 899
691 674 980
771 755 1092
819 771 1156
915 851 1285
980 899 1365
1060 947 1461
1108 1012 1542
1156 1060 1654
1253 1108 1750
48 803 64
16 819 321
16 819 578
434 771 739
658 739 803
691 771 867
723 803 964
755 819 1028
819 851 1108
867 883 1188
931 931 1285
980 964 1365
1028 996 1445
1092 1044 1510
1188 1108 1606
1253 1172 1734
1333 1220 1831
80 1060 16
64 1060 289
64 1076 562
16 1044 803
514 1028 964
835 964 1012
851 980 1076
915 996 1156
931 1012 1204
964 1044 1285
1028 1092 1397
1060 1108 1445
1124 1140 1542
1188 1188 1622
1253 1237 1718
1301 1269 1815
1381 1317 1895
32 1301 0
0 1285 257
0 1301 514
0 1285 787
0 1269 1012
610 1237 1188
1028 1156 1188
1060 1188 1285
1076 1188 1349
1140 1220 1413
1156 1269 1510
1188 1285 1590
1237 1317 1654
1285 1349 1750
1365 1413 1847
1413 1445 1943
1445 1461 1991
48 1510 0
0 1510 225
0 1510 498
0 1493 739
0 1510 1012
0 1510 1253
755 1461 1429
1237 1397 1413
1253 1413 1510
1285 1429 1590
1317 1461 1670
1349 1461 1718
1349 1493 1799
1413 1526 1863
1461 1558 1959
1526 1590 2039
1590 1622 2120
64 1734 0
16 1750 161
0 1750 450
0 1750 739
48 1750 980
0 1750 1237
16 1766 1510
867 1702 1654
1381 1606 1638
1413 1622 1718
1461 1654 1799
1493 1670 1847
1526 1686 1927
1558 1686 2007
1574 1734 2072
1638 1783 2184
1718 1799 2248
0 1975 0
0 1975 161
0 1991 466
0 1975 723
0 1959 931
0 1975 1237
0 1975 1477
0 1975 1718
947 1927 1879
1606 1815 1831
1622 1815 1911
1622 1863 2007
1654 1863 2072
1750 1895 2152
1783 1911 2232
1783 1943 2280
1847 1991 2393
0 2232 0
0 2216 112
0 2232 466
0 2248 723
0 2216 964
0 2232 1253
0 2232 1493
0 2216 1718
369 2200 1959
1124 2168 2136
1718 2072 2104
1815 2072 2152
1831 2072 2216
1879 2088 2312
1895 2104 2345
1959 2136 2457
2007 2168 2521
0 2473 0
0 2473 161
0 2489 401
0 2473 691
0 2473 964
0 2457 1237
0 2473 1461
0 2473 1718
0 2473 1943
385 2457 2184
1285 2377 2345
1831 2296 2345
1975 2280 2361
2007 2280 2425
2056 2312 2521
2088 2329 2569
2136 2361 2666
0 2698 0
0 2714 32
0 2698 401
0 2698 642
0 2714 947
0 2714 1204
0 2698 1461
0 2698 1670
0 2698 1959
0 2714 2216
530 2682 2393
1445 2602 2553
1991 2553 2602
2232 2505 2569
2232 2521 2666
2280 2553 2762
2312 2553 2794
112 2955 0
0 2939 32
0 2955 369
0 2939 626
0 2955 964
0 2955 1156
0 2971 1477
0 2955 1702
0 2971 1927
0 2971 2216
0 2971 2473
739 2907 2634
1510 2842 2810
2104 2762 2794
2377 2714 2794
2457 2746 2891
2441 2762 2971
0 3180 0
193 3180 0
0 3196 305
0 3180 642
0 3196 915
0 3196 1156
0 3212 1429
0 3196 1686
0 3212 1911
0 3196 2168
0 3180 2425
0 3196 2650
835 3164 2891
1654 3099 3035
2248 3019 3067
2602 2955 3035
2650 2987 3131
0 3453 0
0 3453 0
0 3469 337
0 3437 626
0 3453 867
0 3453 1140
0 3469 1429
0 3453 1702
0 3453 1911
0 3437 2168
0 3437 2425
0 3437 2682
0 3437 2939
1092 3388 3131
1783 3324 3276
2441 3228 3276
2778 3180 3244
0 3677 0
32 3677 0
0 3677 96
0 3677 562
0 3677 819
0 3710 1204
0 3710 1413
0 3694 1670
0 3694 1911
0 3694 2184
0 3677 2409
0 3694 2666
0 3694 2939
0 3677 3164
1044 3645 3372
1975 3565 3517
2537 3485 3533
128 3934 0
0 3934 0
337 3934 128
0 3950 514
0 3934 867
0 3950 1140
0 3967 1413
0 3934 1638
0 3934 1895
0 3934 2136
0 3918 2409
0 3934 2650
0 3934 2907
0 3934 3180
0 3918 3437
1349 3918 3645
2039 3822 3774
337 225 257
289 257 305
289 273 353
353 321 450
369 321 514
434 369 594
482 401 691
562 466 787
610 514 867
674 578 980
755 626 1060
819 707 1172
915 771 1285
996 867 1397
1060 899 1477
1124 964 1606
1220 1028 1702
401 369 161
369 369 369
369 385 434
369 418 498
434 434 578
482 466 658
530 498 755
594 546 835
674 594 915
723 642 1028
803 707 1108
851 755 1188
931 819 1317
1012 883 1413
1092 931 1510
1156 1012 1622
1220 1060 1702
353 578 112
305 578 305
401 562 530
514 546 610
530 578 691
594 610 755
626 642 835
658 658 899
739 723 996
787 755 1092
851 787 1172
915 867 1301
980 899 1365
1060 947 1445
1108 1012 1542
1204 1044 1654
1253 1124 1766
321 803 48
289 819 289
289 819 578
546 787 755
674 755 819
739 787 899
739 819 980
771 819 1012
835 867 1108
867 883 1188
931 931 1269
1012 964 1381
1044 1012 1445
1108 1060 1526
1172 1108 1638
1253 1172 1734
1333 1220 1831
337 1044 32
289 1060 305
289 1060 562
305 1060 803
626 1012 980
851 980 1028
867 980 1092
947 1012 1156
947 1028 1220
996 1060 1317
1028 1092 1397
1076 1124 1461
1140 1140 1542
1204 1220 1654
1269 1253 1718
1317 1285 1815
1381 1333 1911
305 1285 0
257 1285 241
209 1285 514
273 1285 771
225 1285 1044
707 1237 1204
1044 1156 1188
1076 1204 1317
1108 1204 1381
1156 1237 1429
1156 1253 1510
1188 1285 1590
1253 1333 1670
1301 1365 1766
1365 1397 1847
1445 1429 1943
1493 1461 2007
337 1510 16
193 1493 225
209 1510 482
209 1493 723
289 1526 996
193 1493 1253
723 1445 1397
1237 1397 1413
1253 1413 1510
1269 1429 1590
1333 1461 1654
1365 1477 1734
1349 1493 1799
1413 1526 1863
1461 1558 1959
1558 1590 2039
1590 1622 2136
337 1750 0
128 1750 225
145 1734 450
112 1750 707
209 1750 980
80 1750 1253
209 1750 1510
899 1702 1654
1397 1606 1622
1429 1638 1734
1445 1638 1799
1510 1670 1863
1526 1686 1927
1558 1702 2023
1622 1734 2088
1670 1766 2184
1718 1799 2248
225 1959 0
305 1975 193
16 1975 450
0 1975 691
177 1975 996
96 1975 1220
145 1959 1445
273 1975 1734
1012 1911 1847
1606 1815 1831
1638 1847 1943
1670 1863 2007
1686 1863 2088
1750 1911 2152
1783 1911 2232
1799 1943 2296
1831 1975 2393
321 2232 0
257 2216 145
128 2232 418
96 2216 674
0 2248 980
161 2232 1220
96 2232 1477
32 2232 1734
305 2216 1943
1092 2168 2104
1766 2072 2088
1799 2056 2136
1847 2072 2232
1863 2088 2312
1927 2120 2377
1959 2136 2457
2007 2168 2521
161 2473 0
273 2473 177
0 2473 401
0 2473 691
32 2473 964
0 2473 1204
0 2473 1461
0 2473 1702
0 2473 1975
434 2473 2200
1301 2393 2361
1831 2296 2345
2007 2264 2361
2039 2280 2425
2039 2312 2521
2104 2345 2585
2136 2377 2682
80 2698 0
257 2682 32
0 2714 337
0 2714 658
0 2714 947
0 2698 1188
0 2714 1429
16 2714 1702
0 2714 1943
0 2698 2216
691 2698 2409
1349 2618 2553
2023 2537 2569
2200 2505 2585
2248 2537 2682
2264 2521 2746
2312 2553 2794
401 2955 0
0 2939 32
0 2955 369
0 2955 642
0 2971 931
0 2955 1188
0 2939 1429
0 2955 1702
0 2939 1911
0 2955 2200
0 2955 2457
739 2923 2650
1510 2842 2794
2104 2762 2794
2441 2730 2794
2409 2746 2875
2441 2762 2971
273 3180 0
225 3180 0
0 3196 273
0 3196 610
0 3196 867
0 3196 1172
0 3196 1429
0 3196 1670
0 3196 1943
0 3196 2184
0 3180 2441
0 3180 2650
851 3180 2907
1638 3083 3035
2329 3003 3035
2618 2971 3035
2650 2987 3131
0 3453 0
466 3437 0
0 3469 209
0 3453 658
0 3453 867
0 3469 1172
0 3453 1429
0 3453 1670
0 3437 1911
0 3437 2168
0 3437 2425
0 3437 2682
0 3421 2939
947 3404 3115
1847 3308 3276
2361 3260 3324
2778 3164 3228
0 3677 0
289 3710 0
0 3710 353
0 3726 626
0 3710 915
0 3710 1156
0 3710 1445
0 3710 1702
0 3694 1911
0 3710 2152
0 3677 2409
0 3677 2666
0 3694 2939
0 3694 3164
1092 3645 3404
1975 3565 3517
2585 3485 3549
128 3934 0
48 3934 0
337 3934 128
0 3934 514
0 3950 883
0 3950 1092
0 3950 1397
0 3934 1670
0 3934 1895
0 3918 2136
0 3934 2409
0 3918 2634
0 3934 2907
0 3934 3180
0 3934 3421
1285 3870 3613
2088 3822 3774
514 273 289
401 305 337
401 305 401
418 353 482
450 369 546
466 401 626
546 466 723
594 482 803
658 562 899
739 626 996
787 691 1092
867 723 1188
931 803 1301
1028 867 1413
1108 915 1510
1156 980 1590
1220 1028 1702
594 369 193
514 369 385
466 418 450
466 434 546
498 466 610
546 498 707
610 530 771
674 594 883
691 626 947
755 674 1044
851 739 1156
899 771 1220
980 851 1333
1028 883 1429
1108 947 1526
1204 1028 1638
1253 1076 1718
594 578 96
594 578 321
562 562 562
594 610 642
594 626 723
642 642 787
691 658 867
723 691 947
787 739 1028
835 771 1124
883 835 1220
947 883 1285
1012 915 1397
1076 964 1477
1156 1028 1574
1204 1060 1670
1285 1156 1799
594 819 96
578 803 289
562 819 562
642 787 787
755 803 835
755 787 883
771 835 964
819 867 1060
851 883 1140
915 931 1204
964 964 1301
996 980 1365
1108 1044 1477
1140 1076 1558
1204 1124 1638
1269 1172 1750
1317 1204 1815
562 1044 32
578 1060 305
514 1060 562
578 1060 803
755 1012 980
899 996 1044
915 1012 1124
947 1012 1156
947 1044 1237
1012 1076 1333
1060 1124 1397
1124 1124 1477
1156 1172 1542
1237 1204 1654
1269 1253 1718
1349 1301 1815
1381 1333 1911
530 1269 0
562 1285 289
546 1285 514
514 1269 755
546 1285 1012
787 1220 1188
1060 1188 1237
1076 1204 1301
1124 1220 1365
1172 1253 1445
1188 1301 1542
1204 1301 1606
1285 1333 1686
1349 1365 1750
1413 1413 1863
1445 1413 1911
1510 1461 2023
498 1510 0
514 1493 209
482 1510 466
482 1510 723
450 1526 1012
514 1510 1253
867 1445 1413
1269 1397 1429
1253 1413 1526
1317 1445 1574
1397 1477 1686
1365 1477 1734
1413 1526 1831
1461 1526 1879
1493 1590 1959
1558 1590 2039
1606 1622 2104
498 1734 0
530 1734 193
466 1734 466
450 1750 723
450 1750 964
369 1750 1253
482 1766 1493
964 1702 1670
1445 1606 1622
1461 1638 1734
1510 1654 1815
1542 1670 1863
1558 1670 1927
1574 1718 2023
1638 1750 2088
1686 1783 2200
1718 1799 2248
466 1959 0
514 1959 128
321 1959 466
434 1975 707
466 1991 980
450 1975 1220
466 1975 1477
418 1975 1734
1076 1927 1863
1622 1831 1863
1638 1847 1943
1670 1863 2023
1686 1863 2088
1750 1911 2168
1783 1927 2248
1799 1959 2296
1863 2007 2409
530 2216 0
482 2216 161
305 2216 418
418 2216 691
353 2232 980
482 2216 1204
450 2248 1493
482 2232 1734
578 2232 1959
1220 2136 2104
1815 2072 2104
1847 2072 2168
1847 2088 2232
1879 2104 2312
1911 2104 2361
1959 2136 2457
2007 2168 2521
482 2473 0
530 2457 80
385 2489 434
369 2473 723
289 2457 915
353 2473 1220
305 2457 1461
401 2457 1702
434 2457 1943
562 2473 2200
1285 2393 2361
1911 2280 2312
2023 2280 2377
2056 2296 2457
2056 2312 2521
2136 2329 2585
2120 2345 2650
466 2698 0
450 2698 80
209 2714 369
257 2714 658
209 2714 915
241 2698 1188
80 2714 1429
305 2714 1702
353 2714 1943
369 2698 2184
707 2666 2409
1461 2602 2569
2023 2537 2569
2232 2521 2602
2232 2521 2666
2264 2537 2746
2329 2569 2810
530 2955 0
321 2971 96
209 2955 401
289 2955 658
321 2971 947
450 2971 1172
273 2971 1461
321 2955 1686
257 2971 1943
305 2955 2184
273 2955 2425
739 2907 2634
1638 2842 2778
2168 2746 2810
2441 2730 2794
2457 2746 2891
2441 2762 2971
353 3196 0
466 3180 48
0 3212 337
273 3196 626
0 3180 867
0 3180 1156
32 3196 1429
177 3212 1686
48 3196 1927
0 3196 2184
48 3180 2409
418 3196 2682
947 3180 2907
1718 3115 3067
2345 3003 3051
2618 2955 3035
2650 2987 3131
546 3453 0
498 3437 0
610 3437 225
0 3453 594
96 3453 883
32 3453 1156
0 3453 1429
0 3453 1670
0 3437 1911
257 3437 2184
0 3437 2441
225 3437 2666
0 3421 2923
1060 3404 3115
1863 3324 3292
2457 3244 3292
2778 3180 3244
562 3694 0
289 3710 0
0 3677 273
0 3710 626
0 3710 931
0 3710 1156
289 3677 1397
0 3694 1654
0 3710 1927
80 3677 2184
0 3677 2409
0 3694 2682
369 3677 2907
0 3694 3180
1140 3645 3372
1975 3565 3501
2634 3485 3549
450 3918 0
48 3934 0
610 3950 209
0 3934 514
0 3934 867
0 3934 1092
0 3934 1365
0 3934 1638
0 3918 1895
0 3918 2136
0 3934 2393
209 3934 2666
0 3918 2907
16 3918 3148
0 3934 3421
1349 3918 3645
2104 3838 3790
739 257 289
562 337 401
514 385 466
546 401 546
578 434 594
578 482 691
626 530 771
691 578 867
739 610 947
803 658 1044
867 723 1156
915 755 1220
996 851 1333
1060 883 1445
1124 931 1526
1204 1028 1638
1285 1076 1734
851 337 193
787 385 401
594 482 530
594 498 594
594 514 658
642 546 739
691 594 835
723 626 899
771 674 996
803 707 1060
867 755 1140
964 835 1285
1028 883 1365
1060 915 1429
1140 980 1526
1220 1044 1654
