doc/3DLUTs/DropBlues.3DL
#Created by: Adobe Photoshop CS6
#Copyright: Copyright 2012 Adobe Systems Inc.
0 256 512 767 1023
241 241 241
337 321 514
562 482 819
899 755 1269
1204 1012 1686
80 1060 16
514 1028 964
931 1012 1204
1124 1140 1542
1381 1317 1895
0 1975 0
0 1959 931
947 1927 1879
1654 1863 2072
1847 1991 2393
112 2955 0
0 2955 964
0 2971 1927
1510 2842 2810
2441 2762 2971
128 3934 0
0 3934 867
0 3934 1895
0 3934 2907
2039 3822 3774
996 225 257
707 530 707
819 658 980
1076 883 1381
1301 1092 1766
1060 1044 48
1028 1028 1028
1108 1124 1301
1253 1220 1606
1493 1381 1943
1028 1975 0
931 1959 931
1333 1927 1879
1799 1927 2120
1927 2007 2409
1108 2955 0
851 2971 931
899 2939 1943
1750 2842 2810
2505 2778 3003
947 3934 0
755 3934 851
787 3934 1895
658 3934 2907
2248 3838 3774
2056 0 64
1253 915 1012
1317 1012 1285
1429 1156 1622
1638 1333 1959
1991 996 0
1831 1108 1092
1526 1317 1510
1574 1413 1799
1750 1574 2104
1975 1959 0
2007 1975 964
1975 1975 1975
2007 2039 2232
2136 2136 2521
1975 2939 0
1975 2923 883
1927 2955 1911
2296 2875 2842
2682 2858 3067
1927 3902 0
1975 3918 867
1879 3934 1863
1911 3950 2907
2602 3838 3774
3019 0 64
2457 1028 1237
1911 1445 1670
1959 1510 1927
2104 1638 2248
2987 980 0
2842 1108 1076
2039 1654 1783
2104 1718 2088
2216 1847 2393
2987 1959 0
2971 1959 947
2682 2056 2088
2441 2232 2441
2521 2329 2714
3003 2907 0
3003 2923 931
2955 2955 1943
2939 2939 2939
2987 3003 3196
2939 3902 0
2907 3918 835
2987 3918 1879
2891 3934 2907
3260 3870 3822
3999 0 0
3661 915 1188
2634 1831 2088
2553 1943 2296
2650 2056 2585
3983 899 80
3950 1012 1028
2891 1911 2136
2650 2088 2409
2746 2200 2698
3967 1943 0
3967 1927 931
3726 2120 2104
2907 2505 2682
3003 2585 2971
3950 2923 0
3950 2923 851
3967 2939 1943
3726 3035 3035
3404 3196 3372
3967 3902 0
3999 3934 883
3967 3918 1895
3967 3918 2939
3934 3934 3934
