doc/3DLUTs/EdgyAmber.3DL
#Created by: Adobe Photoshop CS6
#Copyright: Copyright 2012 Adobe Systems Inc.
0 256 512 767 1023
112 112 112
369 128 161
867 64 321
1253 0 418
1606 0 546
723 610 0
835 578 0
1076 530 177
1397 466 353
1734 353 514
1285 1156 0
1365 1124 0
1542 1124 0
1783 1076 209
2104 1108 514
2296 2088 0
2393 2072 0
2553 2088 0
2762 2088 401
3083 2136 755
3950 3549 0
3967 3549 305
4095 3533 835
4095 3565 1156
4095 3565 1429
771 145 161
931 80 225
1108 48 289
1413 0 418
1734 0 530
1028 562 0
1092 562 0
1269 530 145
1510 466 369
1815 401 514
1477 1124 0
1526 1124 0
1702 1092 0
1927 1092 257
2200 1092 514
2473 2104 0
2521 2088 0
2618 2088 0
2858 2120 418
3212 2152 819
3999 3565 0
4095 3565 321
4095 3549 867
4095 3581 1188
4095 3581 1413
1477 0 0
1461 48 0
1558 0 209
1766 0 385
2023 0 546
1558 514 0
1574 482 0
1670 466 64
1847 450 337
2120 401 514
1927 1124 0
1991 1140 0
2104 1140 0
2264 1140 273
2553 1172 578
2907 2152 0
2907 2152 0
3035 2152 16
3228 2184 546
3533 2216 915
4095 3581 0
4095 3597 225
4095 3597 835
4095 3581 1204
4095 3581 1461
2120 0 0
2104 0 0
2184 0 145
2312 0 369
2553 0 562
2216 401 0
2216 418 0
2280 434 80
2457 418 353
2682 434 594
2618 1188 0
2634 1204 0
2730 1220 0
2875 1188 385
3115 1253 674
3565 2280 0
3581 2264 0
3726 2329 241
3854 2361 723
4095 2457 1076
4095 3613 0
4095 3613 450
4095 3613 835
4095 3597 1188
4095 3597 1461
2923 0 0
2923 0 0
2971 64 161
3067 32 401
3308 241 691
3035 482 0
3067 546 0
3051 610 128
3244 626 450
3485 691 739
3501 1365 0
3549 1365 0
3613 1397 225
3710 1445 562
3934 1493 867
4095 2569 0
4095 2585 0
4095 2585 610
4095 2618 996
4095 2698 1317
4095 3581 0
4095 3549 321
4095 3533 771
4095 3517 1076
4095 3485 1381
