doc/3DLUTs/EdgyAmber.3DL
#Created by: Adobe Photoshop CS6
#Copyright: Copyright 2012 Adobe Systems Inc.
0 128 256 384 512 639 767 895 1023
112 112 112
177 128 145
369 128 161
578 177 225
867 64 321
1076 0 353
1253 0 418
1445 0 482
1606 0 546
434 353 177
498 369 177
610 337 209
787 321 241
931 273 257
1108 225 321
1301 193 401
1477 64 482
1670 0 530
723 610 0
755 594 0
835 578 0
947 546 64
1076 530 177
1204 514 273
1397 466 353
1558 401 434
1734 353 514
947 851 0
1012 851 0
1076 819 0
1156 819 0
1237 787 16
1397 771 177
1526 771 289
1702 739 385
1863 723 482
1285 1156 0
1333 1140 0
1365 1124 0
1445 1124 0
1542 1124 0
1654 1092 48
1783 1076 209
1959 1076 369
2104 1108 514
1718 1542 0
1766 1542 0
1783 1526 0
1863 1542 0
1959 1526 0
2072 1526 0
2216 1526 225
2377 1526 401
2521 1542 594
2296 2088 0
2361 2072 0
2393 2072 0
2473 2056 0
2553 2088 0
2618 2088 161
2762 2088 401
2907 2104 578
3083 2136 755
3099 2794 0
3131 2794 0
3164 2762 0
3244 2778 32
3308 2810 369
3421 2810 626
3517 2810 787
3645 2842 947
3806 2858 1092
3950 3549 0
3967 3549 128
3967 3549 305
4031 3549 626
4095 3533 835
4095 3517 996
4095 3565 1156
4095 3549 1317
4095 3565 1429
353 145 128
434 161 193
514 193 209
771 161 273
947 80 305
1140 32 353
1301 0 418
1477 0 482
1654 0 530
594 337 177
642 337 161
723 337 177
867 289 209
1012 273 289
1188 241 337
1365 161 418
1526 48 466
1686 0 514
819 578 0
851 578 0
915 562 0
1012 546 32
1124 530 161
1269 514 273
1413 450 337
1590 434 450
1734 369 498
1028 851 0
1076 835 0
1108 819 0
1204 819 0
1317 803 16
1445 787 161
1590 755 289
1734 755 401
1895 723 498
1333 1140 0
1349 1124 0
1429 1124 0
1510 1124 0
1590 1124 0
1702 1092 80
1831 1076 225
2007 1076 385
2152 1108 498
1750 1542 0
1831 1542 0
1815 1510 0
1895 1526 0
2007 1526 0
2088 1542 16
2280 1526 257
2377 1526 401
2521 1542 594
2345 2088 0
2393 2072 0
2425 2072 0
2505 2072 0
2602 2088 0
2682 2104 225
2762 2088 401
2955 2120 610
3099 2120 755
3099 2794 0
3164 2778 0
3244 2794 0
3244 2778 32
3340 2794 369
3437 2794 626
3549 2794 787
3710 2858 980
3838 2842 1108
3950 3549 0
3999 3565 0
3999 3533 321
4063 3533 562
4095 3565 883
4095 3549 1012
4095 3549 1156
4095 3565 1301
4095 3581 1445
771 145 161
819 128 209
931 80 225
1012 80 257
1108 48 289
1253 0 321
1413 0 418
1542 0 482
1734 0 530
899 305 80
899 305 80
980 289 128
1044 289 177
1156 241 241
1285 225 321
1445 128 401
1590 64 466
1766 0 530
1028 562 0
1044 562 0
1092 562 0
1140 530 16
1269 530 145
1381 498 257
1510 466 369
1670 385 418
1815 401 514
1204 819 0
1237 819 0
1253 803 0
1333 803 0
1445 771 32
1510 787 161
1654 755 273
1815 739 385
1959 707 498
1477 1124 0
1477 1140 0
1526 1124 0
1606 1108 0
1702 1092 0
1783 1108 80
1927 1092 257
2056 1092 385
2200 1092 514
1895 1558 0
1911 1558 0
1943 1574 0
2023 1526 0
2088 1526 0
2216 1558 32
2312 1558 305
2473 1542 450
2634 1574 626
2473 2104 0
2409 2088 0
2521 2088 0
2618 2088 0
2618 2088 0
2762 2088 273
2858 2120 418
3019 2136 610
3212 2152 819
3212 2794 0
3212 2794 0
3292 2810 0
3308 2794 0
3437 2794 450
3501 2826 674
3629 2842 803
3742 2858 996
3902 2875 1108
3999 3565 0
3999 3565 0
4095 3565 321
4095 3549 642
4095 3549 867
4095 3565 1060
4095 3581 1188
4095 3533 1301
4095 3581 1413
1156 64 80
1140 96 96
1172 80 112
1253 32 161
1365 0 257
1429 0 321
1574 0 401
1702 0 466
1847 0 530
1188 257 0
1204 273 16
1220 257 32
1269 225 96
1365 241 209
1493 177 321
1606 80 385
1718 16 450
1863 0 514
1269 514 0
1285 530 0
1333 498 0
1365 514 0
1429 498 112
1526 466 241
1670 450 353
1799 418 434
1959 385 514
1445 787 0
1461 803 0
1477 787 0
1542 787 0
1574 803 0
1686 787 177
1815 739 289
1959 739 385
2120 739 530
1702 1124 0
1686 1092 0
1718 1108 0
1766 1124 0
1863 1108 0
1959 1108 80
2088 1108 241
2200 1124 401
2329 1108 546
2104 1526 0
2088 1542 0
2120 1558 0
2168 1558 0
2248 1558 0
2345 1558 64
2489 1558 289
2634 1590 482
2778 1606 658
2650 2120 0
2666 2104 0
2698 2136 0
2714 2120 0
2842 2104 0
2939 2136 289
3035 2136 482
3180 2168 658
3356 2200 867
3372 2842 0
3404 2875 0
3437 2858 0
3533 2875 48
3581 2842 498
3694 2891 691
3758 2891 883
3902 2891 980
4079 2923 1156
4095 3581 0
4095 3581 0
4095 3565 257
4095 3581 642
4095 3565 851
4095 3565 1060
4095 3549 1156
4095 3581 1333
4095 3581 1445
1477 0 0
1477 0 0
1461 48 0
1526 0 80
1558 0 209
1654 0 289
1766 0 385
1879 0 450
2023 0 546
1461 225 0
1493 209 0
1510 225 0
1542 209 48
1606 177 161
1702 112 289
1783 96 385
1927 0 434
2056 0 530
1558 514 0
1574 482 0
1574 482 0
1638 466 0
1670 466 64
1750 466 225
1847 450 337
1991 418 418
2120 401 514
1670 771 0
1718 787 0
1750 787 0
1766 787 0
1815 755 0
1911 787 193
2023 755 305
2152 755 418
2296 739 514
1927 1124 0
1943 1124 0
1991 1140 0
2023 1140 0
2104 1140 0
2168 1140 112
2264 1140 273
2377 1140 401
2553 1172 578
2329 1574 0
2329 1574 0
2377 1558 0
2409 1606 0
2489 1574 0
2569 1590 112
2650 1606 353
2810 1622 498
2955 1654 691
2907 2152 0
2907 2152 0
2907 2152 0
2955 2184 0
3035 2152 16
3115 2184 369
3228 2184 546
3372 2184 707
3533 2216 915
3629 2907 0
3613 2858 0
3661 2891 0
3710 2923 48
3758 2907 498
3854 2907 739
3983 2923 915
4095 2971 1076
4095 2971 1237
4095 3581 0
4095 3597 16
4095 3597 225
4095 3597 562
4095 3597 835
4095 3581 1044
4095 3581 1204
4095 3597 1333
4095 3581 1461
1766 0 0
1783 0 0
1750 0 0
1799 0 16
1831 0 161
1927 0 273
2023 0 369
2120 0 450
2264 0 530
1766 96 0
1815 80 0
1831 112 0
1815 177 0
1879 145 145
1959 80 257
2056 0 353
2152 48 466
2280 0 546
1863 434 0
1863 450 0
1895 466 0
1895 434 0
1959 450 96
2039 450 225
2136 401 369
2232 401 450
2361 385 546
2007 787 0
2023 755 0
2056 755 0
2072 771 0
2104 771 0
2184 787 177
2296 771 353
2409 787 434
2521 787 546
2264 1140 0
2248 1140 0
2296 1140 0
2329 1140 0
2345 1140 0
2441 1156 145
2553 1188 321
2666 1188 466
2810 1204 610
2682 1606 0
2682 1606 0
2682 1606 0
2682 1622 0
2762 1622 0
2858 1654 225
2939 1654 401
3051 1702 562
3228 1718 771
3196 2216 0
3260 2232 0
3260 2248 0
3260 2232 0
3308 2232 0
3453 2264 450
3501 2248 626
3661 2296 803
3774 2296 980
3902 2939 0
3918 2955 0
3934 2955 0
3983 2939 96
4095 2987 562
4095 2987 835
4095 3019 1028
4095 3019 1124
4095 3051 1301
4095 3613 0
4095 3613 0
4095 3597 209
4095 3613 578
4095 3597 803
4095 3597 1012
4095 3597 1237
4095 3613 1333
4095 3581 1477
2120 0 0
2104 0 0
2104 0 0
2120 0 0
2184 0 145
2248 0 289
2312 0 369
2425 0 482
2553 0 562
2104 16 0
2136 0 0
2120 48 0
2120 161 0
2200 96 96
2264 128 257
2345 0 369
2457 0 450
2569 0 562
2216 401 0
2216 418 0
2216 418 0
2264 418 0
2280 434 80
2345 401 225
2457 418 353
2569 418 466
2682 434 594
2393 787 0
2393 787 0
2409 771 0
2409 787 0
2457 819 48
2521 803 225
2585 787 369
2730 787 482
2842 867 610
2618 1188 0
2618 1188 0
2634 1204 0
2682 1188 0
2730 1220 0
2778 1220 193
2875 1188 385
2987 1253 546
3115 1253 674
3019 1702 0
3019 1702 0
3067 1718 0
3035 1686 0
3131 1718 0
3212 1718 273
3276 1718 514
3404 1766 642
3501 1783 803
3565 2280 0
3581 2296 0
3581 2264 0
3629 2312 0
3726 2329 241
3774 2345 514
3854 2361 723
3934 2393 899
4095 2457 1076
4095 3003 0
4095 3019 0
4095 3035 16
4095 3019 321
4095 3035 626
4095 3051 851
4095 3083 1044
4095 3099 1204
4095 3115 1381
4095 3613 0
4095 3629 32
4095 3613 450
4095 3629 610
4095 3613 835
4095 3613 947
4095 3597 1188
4095 3597 1349
4095 3597 1461
2473 0 0
2457 0 0
2489 0 0
2489 0 0
2505 0 145
2585 0 289
2666 0 369
2762 0 498
2907 0 626
2473 0 0
2505 0 0
2521 16 0
2537 64 0
2553 225 112
2634 145 257
2714 96 401
2810 32 498
2955 80 642
2602 482 0
2602 434 0
2618 450 0
2634 482 0
2666 514 128
2746 498 257
2810 514 401
2891 498 514
3019 530 626
2762 803 0
2746 835 0
2794 835 0
2810 851 0
2842 883 80
2891 883 257
3019 883 418
3099 915 530
3244 915 691
3051 1269 0
3067 1253 0
3083 1220 0
3083 1237 0
3148 1269 48
3196 1301 305
3260 1333 482
3404 1349 626
3533 1349 771
3453 1783 0
3437 1766 0
3453 1783 0
3517 1799 0
3517 1766 96
3613 1815 418
3677 1847 610
3790 1879 755
3934 1927 947
3999 2425 0
3999 2425 0
4015 2441 0
4063 2457 161
4079 2441 369
4095 2473 707
4095 2489 883
4095 2489 1028
4095 2602 1204
4095 3131 0
4095 3115 0
4095 3099 193
4095 3131 578
4095 3131 739
4095 3148 947
4095 3148 1108
4095 3180 1285
4095 3212 1461
4095 3613 0
4095 3613 0
4095 3597 337
4095 3613 594
4095 3581 803
4095 3581 947
4095 3581 1108
4095 3565 1269
4095 3533 1429
2923 0 0
2923 0 0
2923 0 0
2939 0 16
2971 64 161
2987 161 305
3067 32 401
3180 209 562
3308 241 691
2939 0 0
2955 0 0
2939 145 0
2939 289 0
3003 289 161
3083 337 321
3131 321 418
3196 369 562
3340 289 674
3035 482 0
3051 530 0
3067 546 0
3083 562 0
3051 610 128
3180 610 337
3244 626 450
3340 691 610
3485 691 739
3260 899 0
3244 931 0
3260 947 0
3260 915 0
3308 996 177
3340 996 353
3421 1028 482
3533 1044 642
3661 1076 787
3501 1365 0
3533 1381 0
3549 1365 0
3565 1381 0
3613 1397 225
3629 1413 418
3710 1445 562
3838 1493 755
3934 1493 867
3967 1927 0
3950 1943 0
3967 1927 0
3999 1927 16
3999 1943 305
4095 1975 562
4095 2023 771
4095 2023 899
4095 2056 1076
4095 2569 0
4095 2569 0
4095 2585 0
4095 2585 369
4095 2585 610
4095 2618 819
4095 2618 996
4095 2682 1188
4095 2698 1317
4095 3212 80
4095 3212 257
4095 3228 418
4095 3212 674
4095 3228 883
4095 3244 1076
4095 3228 1188
4095 3260 1397
4095 3260 1510
4095 3581 0
4095 3581 80
4095 3549 321
4095 3549 530
4095 3533 771
4095 3533 899
4095 3517 1076
4095 3485 1188
4095 3485 1381
