doc/3DLUTs/EdgyAmber.3DL
#Created by: Adobe Photoshop CS6
#Copyright: Copyright 2012 Adobe Systems Inc.
0 64 128 192 256 320 384 448 512 575 639 703 767 831 895 959 1023
112 112 112
112 112 112
177 128 145
257 145 128
369 128 161
466 177 209
578 177 225
723 145 257
867 64 321
964 48 353
1076 0 353
1172 0 385
1253 0 418
1365 0 450
1445 0 482
1526 0 498
1606 0 546
289 225 128
305 241 145
337 241 161
369 241 177
450 241 209
530 241 225
674 225 257
819 177 289
915 145 305
996 112 321
1108 96 353
1188 80 385
1285 32 418
1397 0 450
1461 0 482
1542 0 498
1654 0 514
434 353 177
466 353 145
498 369 177
546 353 177
610 337 209
723 337 225
787 321 241
867 273 257
931 273 257
1028 257 289
1108 225 321
1220 209 369
1301 193 401
1381 145 434
1477 64 482
1558 32 514
1670 0 530
546 482 64
578 466 64
610 482 96
658 466 96
707 466 128
787 450 128
851 434 161
931 418 193
996 401 225
1076 385 257
1172 369 305
1253 353 353
1333 305 385
1429 273 418
1510 225 450
1606 209 498
1686 209 514
723 610 0
723 610 0
755 594 0
787 578 0
835 578 0
883 562 48
947 546 64
1028 546 112
1076 530 177
1140 514 209
1204 514 273
1301 482 305
1397 466 353
1461 450 385
1558 401 434
1638 401 482
1734 353 514
835 739 0
851 707 0
899 723 0
915 723 0
931 707 0
980 691 0
1044 674 0
1108 674 32
1172 658 80
1220 658 161
1317 658 241
1381 626 289
1445 594 337
1526 594 353
1606 578 401
1702 562 466
1799 546 498
947 851 0
980 851 0
1012 851 0
1028 835 0
1076 819 0
1108 835 0
1156 819 0
1220 819 0
1237 787 16
1349 787 112
1397 771 177
1461 771 225
1526 771 289
1622 755 337
1702 739 385
1783 723 450
1863 723 482
1108 996 0
1156 980 0
1172 980 0
1204 980 0
1220 980 0
1253 980 0
1317 980 0
1333 964 0
1381 947 0
1461 947 64
1526 964 145
1574 915 177
1686 931 273
1734 915 321
1815 915 385
1895 931 434
1991 899 498
1285 1156 0
1317 1140 0
1333 1140 0
1349 1124 0
1365 1124 0
1397 1124 0
1445 1124 0
1493 1108 0
1542 1124 0
1622 1108 0
1654 1092 48
1718 1108 145
1783 1076 209
1895 1092 305
1959 1076 369
2039 1076 466
2104 1108 514
1493 1317 0
1493 1317 0
1510 1333 0
1526 1317 0
1590 1317 0
1622 1317 0
1622 1301 0
1686 1301 0
1718 1301 0
1766 1301 0
1831 1301 16
1943 1301 128
1959 1301 241
2072 1301 305
2120 1285 353
2232 1301 450
2345 1301 546
1718 1542 0
1750 1526 0
1766 1542 0
1766 1526 0
1783 1526 0
1847 1510 0
1863 1542 0
1911 1542 0
1959 1526 0
2023 1526 0
2072 1526 0
2104 1526 80
2216 1526 225
2280 1526 353
2377 1526 401
2441 1526 466
2521 1542 594
1975 1799 0
2007 1799 0
2039 1783 0
2039 1799 0
2072 1799 0
2120 1783 0
2136 1766 0
2184 1783 0
2184 1799 0
2296 1799 0
2329 1766 64
2393 1766 193
2489 1799 273
2537 1815 369
2618 1799 498
2730 1831 594
2794 1799 658
2296 2088 0
2329 2072 0
2361 2072 0
2377 2056 0
2393 2072 0
2425 2072 0
2473 2056 0
2489 2056 0
2553 2088 0
2602 2088 48
2618 2088 161
2698 2088 321
2762 2088 401
2842 2088 498
2907 2104 578
3019 2136 691
3083 2136 755
2650 2393 0
2698 2377 0
2746 2409 0
2698 2377 0
2746 2393 0
2762 2409 0
2810 2425 0
2858 2409 0
2907 2425 80
2955 2393 209
3019 2425 353
3067 2441 482
3099 2441 594
3212 2441 658
3276 2473 755
3356 2457 819
3485 2505 931
3099 2794 0
3099 2794 0
3131 2794 0
3131 2762 0
3164 2762 0
3196 2762 0
3244 2778 32
3244 2778 177
3308 2810 369
3356 2778 514
3421 2810 626
3437 2810 691
3517 2810 787
3597 2842 883
3645 2842 947
3742 2842 1028
3806 2858 1092
3501 3180 0
3517 3164 0
3517 3164 0
3549 3164 0
3565 3164 0
3661 3180 241
3677 3164 353
3742 3196 594
3726 3180 642
3790 3212 755
3822 3196 819
3870 3196 931
3950 3212 1028
3967 3212 1076
4095 3228 1172
4095 3228 1237
4095 3244 1317
3950 3549 0
3950 3565 0
3967 3549 128
3967 3549 128
3967 3549 305
4015 3565 466
4031 3549 626
4095 3533 723
4095 3533 835
4095 3549 931
4095 3517 996
4095 3549 1060
4095 3565 1156
4095 3565 1269
4095 3549 1317
4095 3581 1381
4095 3565 1429
225 112 96
241 128 112
241 145 128
369 145 145
418 161 177
514 193 209
642 193 241
787 112 289
931 64 337
1028 32 353
1092 0 369
1172 0 385
1269 0 401
1365 0 466
1445 0 482
1542 0 514
1638 0 546
337 241 161
353 225 161
385 241 145
434 241 177
498 257 209
578 241 209
739 225 257
851 161 273
931 161 289
1028 128 321
1124 112 337
1188 80 401
1301 0 418
1381 0 418
1493 0 466
1542 0 498
1654 0 530
498 353 161
498 353 161
546 369 209
610 337 177
658 337 193
739 321 193
819 305 257
915 273 257
980 273 257
1060 241 305
1124 241 337
1220 209 369
1301 145 401
1397 145 450
1477 64 482
1574 0 498
1654 0 530
626 466 48
626 482 48
658 482 80
707 482 112
771 434 112
835 434 96
883 434 128
947 434 209
1012 418 241
1108 369 257
1188 353 305
1285 337 337
1349 321 385
1445 257 401
1542 257 466
1606 209 498
1702 145 514
723 594 0
755 594 0
787 578 0
835 594 0
867 578 0
899 562 16
980 546 48
1028 546 112
1076 546 145
1172 498 209
1237 514 289
1333 498 321
1381 450 353
1477 434 385
1574 418 434
1670 369 482
1734 369 498
883 723 0
899 707 0
915 723 0
964 723 0
964 707 0
996 691 0
1060 691 0
1140 691 48
1156 658 80
1237 642 161
1301 642 225
1381 626 289
1461 610 321
1526 610 369
1606 578 401
1718 546 466
1815 546 498
996 851 0
996 851 0
1028 851 0
1060 835 0
1108 819 0
1124 819 0
1140 803 0
1237 803 0
1285 803 0
1365 787 128
1413 787 177
1461 771 241
1542 755 289
1606 755 321
1702 739 385
1831 723 466
1895 723 498
1172 980 0
1188 980 0
1172 980 0
1204 980 0
1220 964 0
1285 964 0
1301 964 0
1349 964 0
1413 931 0
1461 947 32
1526 931 128
1606 915 193
1686 931 289
1734 915 321
1847 931 385
1911 915 434
1991 899 498
1317 1156 0
1317 1124 0
1349 1124 0
1349 1124 0
1397 1124 0
1413 1108 0
1445 1108 0
1493 1108 0
1558 1108 0
1622 1108 0
1702 1092 80
1734 1108 145
1815 1092 225
1895 1108 321
1991 1092 385
2056 1092 450
2104 1108 514
1526 1333 0
1526 1333 0
1542 1333 0
1558 1317 0
1590 1333 0
1622 1317 0
1686 1317 0
1686 1301 0
1734 1317 0
1766 1317 0
1863 1285 16
1943 1301 128
1991 1285 257
2072 1301 305
2168 1301 385
2232 1301 450
2345 1301 530
1734 1542 0
1766 1542 0
1766 1526 0
1799 1526 0
1831 1526 0
1879 1542 0
1879 1542 0
1943 1542 0
1991 1526 0
2023 1542 0
2088 1542 16
2136 1510 80
2248 1526 241
2280 1526 353
2377 1526 401
2473 1542 498
2553 1558 610
1991 1799 0
2039 1799 0
2023 1783 0
2072 1799 0
2088 1783 0
2136 1766 0
2184 1783 0
2200 1799 0
2232 1799 0
2296 1799 0
2345 1799 96
2393 1766 193
2489 1799 273
2569 1815 385
2650 1815 482
2698 1799 578
2794 1799 658
2329 2104 0
2345 2088 0
2345 2072 0
2393 2088 0
2393 2088 0
2409 2072 0
2473 2056 0
2489 2056 0
2521 2056 0
2585 2072 32
2618 2072 161
2698 2088 305
2762 2088 401
2842 2088 498
2955 2104 610
3019 2136 691
3083 2120 755
2666 2409 0
2682 2393 0
2698 2377 0
2762 2409 0
2762 2393 0
2762 2409 0
2842 2425 0
2858 2409 0
2923 2409 80
2955 2393 209
3003 2409 353
3067 2441 466
3099 2441 594
3180 2425 626
3276 2473 739
3356 2457 819
3485 2505 931
3099 2794 0
3083 2778 0
3115 2778 0
3148 2778 0
3180 2762 0
3228 2778 0
3260 2794 48
3244 2778 177
3308 2810 369
3356 2794 530
3453 2810 642
3437 2794 691
3533 2810 787
3581 2826 867
3677 2826 947
3774 2891 1060
3854 2858 1108
3485 3180 0
3565 3212 0
3581 3196 0
3597 3212 0
3629 3180 48
3645 3164 225
3677 3164 450
3677 3164 530
3742 3180 658
3790 3212 755
3806 3196 803
3870 3180 931
3950 3228 1028
3967 3212 1076
4063 3228 1172
4095 3228 1237
4095 3276 1301
3950 3549 0
3950 3549 0
3983 3549 145
3967 3549 128
4015 3549 353
4031 3533 466
4063 3533 626
4095 3517 771
4095 3517 835
4095 3549 947
4095 3549 1012
4095 3549 1060
4095 3565 1156
4095 3581 1269
4095 3565 1301
4095 3549 1349
4095 3565 1429
353 145 128
369 161 161
434 161 193
450 161 161
514 193 209
594 193 225
771 161 273
851 96 305
947 80 305
1060 0 321
1140 32 353
1220 0 385
1301 0 418
1365 0 434
1477 0 482
1574 0 498
1654 0 530
450 241 128
482 257 161
498 257 177
514 257 193
626 257 209
723 209 209
819 209 257
899 177 289
980 145 289
1060 128 305
1156 96 369
1237 32 353
1317 0 401
1413 0 434
1510 0 482
1590 0 514
1686 0 546
594 337 177
610 337 177
642 337 161
691 353 193
723 337 177
787 305 193
867 289 209
964 257 241
1012 273 289
1092 241 289
1188 241 337
1253 193 369
1365 161 418
1429 128 434
1526 48 466
1606 0 498
1686 0 514
707 466 64
723 466 64
739 466 64
803 450 96
835 466 80
867 450 128
947 418 128
980 418 193
1044 401 225
1124 385 257
1237 353 305
1285 337 337
1381 305 385
1461 273 401
1574 241 450
1622 225 482
1718 177 514
819 578 0
819 578 0
851 578 0
899 578 0
915 562 0
964 562 0
1012 546 32
1044 530 80
1124 530 161
1204 514 209
1269 514 273
1333 466 289
1413 450 337
1493 450 369
1590 434 450
1686 385 482
1734 369 498
915 707 0
964 723 0
964 723 0
980 691 0
1028 707 0
1044 674 0
1108 674 0
1156 674 0
1204 674 80
1269 658 145
1333 642 209
1413 626 273
1493 610 337
1574 578 353
1622 594 401
1718 578 434
1815 514 498
1028 851 0
1044 835 0
1076 835 0
1108 819 0
1108 819 0
1188 819 0
1204 819 0
1253 787 0
1317 803 16
1381 771 80
1445 787 161
1477 787 209
1590 755 289
1654 771 353
1734 755 401
1815 723 450
1895 723 498
1188 996 0
1204 980 0
1204 980 0
1253 996 0
1269 964 0
1301 964 0
1333 964 0
1381 964 0
1413 931 0
1493 947 32
1558 915 96
1654 931 177
1702 915 289
1783 915 321
1831 915 369
1927 899 434
2023 899 514
1333 1140 0
1333 1140 0
1349 1124 0
1397 1124 0
1429 1124 0
1461 1124 0
1510 1124 0
1558 1124 0
1590 1124 0
1638 1108 0
1702 1092 80
1750 1092 145
1831 1076 225
1911 1076 305
2007 1076 385
2056 1092 450
2152 1108 498
1510 1317 0
1526 1333 0
1558 1317 0
1574 1301 0
1622 1317 0
1654 1301 0
1718 1317 0
1718 1301 0
1766 1317 0
1799 1285 0
1879 1301 32
1975 1301 80
2023 1285 225
2104 1301 321
2168 1301 385
2264 1285 466
2345 1317 546
1750 1542 0
1750 1542 0
1831 1542 0
1847 1542 0
1815 1510 0
1863 1542 0
1895 1526 0
1959 1526 0
2007 1526 0
2056 1526 0
2088 1542 16
2168 1510 112
2280 1526 257
2329 1542 337
2377 1526 401
2473 1558 514
2521 1542 594
2039 1799 0
2039 1799 0
2072 1799 0
2072 1783 0
2120 1783 0
2136 1766 0
2184 1783 0
2216 1815 0
2248 1783 0
2312 1783 0
2345 1766 80
2457 1799 193
2489 1799 289
2618 1815 418
2634 1799 514
2730 1831 610
2842 1831 691
2345 2088 0
2345 2088 0
2393 2072 0
2393 2072 0
2425 2072 0
2457 2072 0
2505 2072 0
2569 2088 0
2602 2088 0
2585 2088 48
2682 2104 225
2730 2088 321
2762 2088 401
2858 2088 498
2955 2120 610
3019 2136 691
3099 2120 755
2682 2425 0
2730 2409 0
2778 2441 0
2762 2409 0
2762 2409 0
2778 2393 0
2842 2409 0
2891 2409 0
2923 2409 80
2987 2425 273
3051 2457 418
3115 2441 498
3131 2441 562
3260 2489 691
3276 2473 739
3372 2441 803
3469 2489 915
3099 2794 0
3099 2794 0
3164 2778 0
3180 2778 0
3244 2794 0
3260 2778 0
3244 2778 32
3324 2810 273
3340 2794 369
3421 2810 578
3437 2794 626
3501 2826 723
3549 2794 787
3629 2842 899
3710 2858 980
3774 2891 1060
3838 2842 1108
3565 3212 0
3565 3212 0
3533 3148 0
3613 3180 0
3629 3180 48
3661 3180 241
3710 3180 418
3726 3180 578
3790 3196 691
3822 3196 755
3838 3180 819
3870 3196 931
3967 3212 1044
4031 3244 1124
4095 3212 1172
4095 3228 1237
4095 3276 1301
3950 3549 0
3950 3549 0
3999 3565 0
3967 3533 128
3999 3533 321
4031 3533 466
4063 3533 562
4095 3533 723
4095 3565 883
4095 3533 947
4095 3549 1012
4095 3565 1108
4095 3549 1156
4095 3565 1220
4095 3565 1301
4095 3565 1381
4095 3581 1445
530 209 161
546 209 161
562 177 161
610 209 209
707 161 209
787 145 257
867 112 273
980 64 289
1028 64 305
1108 48 321
1188 32 353
1253 0 385
1333 0 401
1429 0 450
1526 0 482
1606 0 498
1686 0 530
658 257 193
658 257 209
642 241 193
739 209 177
755 241 225
835 209 225
915 177 257
980 161 273
1060 128 289
1124 112 321
1204 80 321
1301 80 385
1381 0 418
1429 0 434
1526 0 482
1622 0 482
