doc/3DLUTs/filmstock_50.3dl
#Tokens required by applications - do not edit
3DMESH
Mesh 4 12
0 64 128 192 256 320 384 448 512 576 640 704 768 832 896 960 1023
0 0 0
0 0 58
0 1 307
0 1 536
0 0 805
0 0 1106
0 0 1395
0 0 1665
0 0 1911
0 0 2127
0 0 2318
0 0 2491
0 0 2661
0 0 2844
0 0 3005
0 0 3130
0 0 3254
0 58 0
0 58 58
0 59 308
0 59 538
0 57 810
0 57 1113
0 57 1404
0 57 1676
0 57 1924
0 57 2141
0 57 2334
0 57 2509
0 57 2681
0 57 2863
0 57 3024
0 57 3149
0 57 3273
0 308 3
0 308 61
0 310 313
0 311 552
0 310 837
0 301 1150
0 300 1450
0 300 1730
0 300 1986
0 300 2210
0 300 2408
0 300 2589
0 300 2763
0 301 2940
0 333 3098
0 333 3223
0 333 3347
0 530 8
0 531 66
0 536 322
0 541 575
0 547 873
0 546 1200
0 537 1511
0 520 1800
0 501 2062
0 496 2289
0 496 2487
0 497 2665
0 525 2833
0 615 3001
0 663 3153
0 663 3278
0 663 3402
0 779 13
0 782 72
0 794 333
0 808 604
0 824 915
0 838 1256
0 845 1579
0 846 1878
0 841 2147
0 838 2376
0 841 2574
0 855 2749
0 887 2911
0 942 3071
0 976 3217
0 976 3342
0 976 3466
0 1067 12
0 1072 72
0 1091 339
0 1110 629
0 1134 955
0 1157 1310
0 1175 1646
0 1187 1954
0 1191 2228
0 1194 2461
0 1198 2659
0 1208 2830
0 1229 2987
0 1266 3139
0 1290 3280
0 1290 3405
0 1290 3529
0 1369 0
0 1375 57
0 1401 327
0 1425 640
0 1455 986
0 1485 1356
0 1508 1702
0 1525 2018
0 1534 2298
0 1540 2533
0 1544 2731
0 1551 2901
0 1563 3055
0 1585 3200
0 1601 3337
0 1601 3462
0 1601 3586
0 1652 0
0 1659 57
0 1692 302
0 1720 642
0 1755 1010
0 1789 1393
0 1816 1747
0 1836 2069
0 1849 2353
0 1856 2591
0 1860 2790
0 1864 2959
0 1870 3109
0 1883 3250
0 1891 3384
0 1891 3510
0 1891 3633
0 1902 0
0 1909 57
0 1942 300
0 1973 637
0 2010 1024
0 2046 1418
0 2076 1777
0 2098 2102
0 2112 2388
0 2121 2627
0 2126 2826
0 2129 2995
0 2133 3145
0 2139 3284
0 2143 3416
0 2143 3542
0 2143 3665
0 2110 0
0 2117 57
0 2149 300
0 2181 643
0 2218 1045
0 2255 1442
0 2285 1803
0 2308 2128
0 2323 2412
0 2333 2650
0 2338 2848
0 2342 3017
0 2344 3166
0 2347 3304
0 2350 3436
0 2350 3561
0 2350 3685
0 2283 0
0 2290 57
0 2320 300
0 2352 666
0 2389 1074
0 2425 1469
0 2454 1828
0 2476 2150
0 2492 2430
0 2503 2665
0 2509 2861
0 2512 3028
0 2515 3176
0 2518 3314
0 2520 3446
0 2520 3571
0 2520 3695
0 2443 0
0 2450 57
0 2481 300
0 2513 707
0 2550 1118
0 2584 1509
0 2612 1861
0 2633 2178
0 2648 2452
0 2658 2681
0 2663 2873
0 2667 3037
0 2670 3184
0 2673 3322
0 2675 3453
0 2675 3579
0 2675 3702
0 2600 0
0 2607 57
0 2641 326
0 2672 773
0 2708 1179
0 2740 1559
0 2766 1903
0 2786 2211
0 2800 2477
0 2809 2699
0 2814 2886
0 2818 3048
0 2820 3194
0 2824 3331
0 2826 3462
0 2826 3588
0 2826 3711
0 2769 0
0 2778 57
0 2813 452
0 2844 868
0 2877 1258
0 2906 1622
0 2930 1954
0 2948 2252
0 2961 2508
0 2970 2723
0 2975 2905
0 2979 3065
0 2982 3210
0 2988 3348
0 2991 3480
0 2991 3605
0 2991 3729
0 2921 0
0 2932 57
0 2969 512
0 2999 922
0 3030 1307
0 3057 1662
0 3080 1986
0 3097 2278
0 3109 2528
0 3118 2739
0 3123 2919
0 3127 3077
0 3131 3222
0 3138 3360
0 3142 3492
0 3142 3617
0 3142 3741
0 3047 0
0 3057 57
0 3094 512
0 3124 922
0 3156 1307
0 3183 1662
0 3205 1986
0 3223 2278
0 3235 2528
0 3243 2739
0 3248 2919
0 3252 3077
0 3257 3222
0 3263 3360
0 3268 3492
0 3268 3617
0 3268 3741
0 3171 0
0 3181 57
0 3218 512
0 3248 922
0 3279 1307
0 3306 1662
0 3329 1986
0 3347 2278
0 3359 2528
0 3367 2739
0 3372 2919
0 3376 3077
0 3380 3222
0 3387 3360
0 3391 3492
0 3391 3617
0 3391 3741
58 0 1
58 0 58
57 1 308
57 1 537
57 0 807
57 0 1108
57 0 1397
57 0 1668
57 0 1914
57 0 2129
57 0 2320
57 0 2494
57 0 2664
57 0 2848
57 0 3010
57 0 3135
57 0 3259
58 58 1
58 58 59
57 59 309
57 59 539
57 57 812
57 57 1115
57 57 1406
57 57 1678
57 57 1926
57 57 2144
57 57 2337
57 57 2513
57 57 2685
57 57 2868
57 57 3029
57 57 3155
57 57 3278
57 309 3
57 309 62
57 311 314
57 312 553
57 310 838
57 302 1152
57 300 1453
57 300 1733
57 300 1989
57 300 2213
57 300 2412
57 300 2593
57 300 2767
57 301 2946
57 337 3104
57 337 3229
57 337 3353
57 531 8
57 532 66
57 538 322
57 543 576
57 549 875
57 548 1202
57 538 1514
57 521 1803
57 502 2066
57 496 2292
57 496 2491
57 498 2669
57 528 2837
57 620 3006
57 668 3159
57 668 3284
57 668 3408
57 781 13
57 784 72
57 797 334
57 810 605
57 827 916
57 840 1258
57 847 1582
57 848 1882
57 843 2151
57 841 2381
57 843 2579
57 858 2754
57 890 2916
57 947 3077
57 982 3223
57 982 3349
57 982 3472
57 1071 12
57 1076 72
57 1095 339
57 1114 630
57 1138 957
57 1161 1313
57 1179 1650
57 1191 1958
57 1195 2233
57 1198 2466
57 1202 2664
57 1213 2836
57 1234 2993
57 1272 3146
57 1296 3287
57 1296 3412
57 1296 3536
57 1374 0
57 1381 57
57 1407 327
57 1431 641
57 1461 988
57 1491 1360
57 1514 1707
57 1531 2023
57 1540 2303
57 1546 2539
57 1550 2737
57 1557 2907
57 1569 3061
57 1593 3207
57 1609 3344
57 1609 3470
57 1609 3593
57 1659 0
57 1667 57
57 1700 301
57 1728 642
57 1763 1012
57 1797 1397
57 1824 1752
57 1844 2074
57 1857 2359
57 1864 2597
57 1868 2796
57 1872 2965
57 1879 3116
57 1892 3258
57 1902 3392
57 1902 3517
57 1902 3641
57 1912 0
57 1919 57
57 1953 300
57 1984 635
57 2021 1026
57 2057 1421
57 2086 1782
57 2108 2108
57 2123 2394
57 2132 2633
57 2136 2833
57 2140 3002
57 2144 3152
57 2151 3292
57 2156 3424
57 2156 3550
57 2156 3674
57 2121 0
57 2128 57
57 2161 300
57 2193 640
57 2231 1046
57 2267 1446
57 2297 1808
57 2320 2134
57 2336 2419
57 2346 2657
57 2351 2856
57 2355 3024
57 2358 3174
57 2362 3313
57 2365 3445
57 2365 3570
57 2365 3694
57 2298 0
57 2304 57
57 2335 300
57 2367 663
57 2404 1076
57 2440 1474
57 2469 1833
57 2491 2156
57 2507 2438
57 2518 2673
57 2524 2869
57 2527 3036
57 2531 3185
57 2535 3324
57 2538 3456
57 2538 3581
57 2538 3705
57 2461 0
57 2467 57
57 2499 300
57 2531 705
57 2568 1121
57 2602 1514
57 2629 1869
57 2651 2186
57 2666 2461
57 2676 2690
57 2681 2882
57 2685 3047
57 2688 3194
57 2692 3332
57 2695 3464
57 2695 3589
57 2695 3713
57 2622 0
57 2630 57
57 2664 316
57 2695 772
57 2731 1183
57 2762 1566
57 2788 1912
57 2808 2221
57 2822 2487
57 2831 2710
57 2836 2897
57 2839 3059
57 2842 3205
57 2847 3343
57 2850 3474
57 2850 3600
57 2850 3723
57 2797 0
57 2805 57
57 2842 444
57 2872 870
57 2905 1264
57 2934 1631
57 2958 1964
57 2976 2263
57 2989 2520
57 2997 2736
57 3002 2918
57 3005 3078
57 3009 3223
57 3015 3361
57 3019 3493
57 3019 3618
57 3019 3742
57 2953 0
57 2963 57
57 3001 506
57 3030 925
57 3061 1314
57 3089 1672
57 3111 1998
57 3129 2291
57 3141 2541
57 3148 2753
57 3153 2932
57 3157 3091
57 3161 3236
57 3168 3373
57 3172 3505
57 3172 3631
57 3172 3754
57 3078 0
57 3088 57
57 3126 506
57 3156 925
57 3187 1314
57 3214 1672
57 3237 1998
57 3254 2291
57 3266 2541
57 3274 2753
57 3279 2932
57 3283 3091
57 3287 3236
57 3293 3373
57 3298 3505
57 3298 3631
57 3298 3754
57 3202 0
57 3212 57
57 3250 506
57 3279 925
57 3310 1314
57 3338 1672
57 3360 1998
57 3378 2291
57 3390 2541
57 3398 2753
57 3402 2932
57 3406 3091
57 3411 3236
57 3417 3373
57 3422 3505
57 3422 3631
57 3422 3754
307 2 2
307 2 60
307 3 310
306 3 541
305 1 815
300 0 1121
300 0 1413
300 0 1685
300 0 1933
300 0 2149
300 0 2340
300 0 2514
300 0 2687
300 0 2874
300 0 3038
300 0 3164
300 0 3287
307 60 2
307 60 60
307 61 311
306 62 543
304 60 820
300 57 1128
300 57 1422
300 57 1696
300 57 1946
300 57 2164
300 57 2358
300 57 2534
300 57 2708
300 57 2895
300 57 3059
300 57 3184
300 57 3308
308 312 5
308 312 63
308 315 316
304 317 558
300 318 847
300 308 1167
300 300 1470
300 300 1753
300 300 2010
300 300 2236
300 300 2436
300 300 2618
300 300 2795
300 311 2977
300 368 3136
300 368 3261
300 368 3385
302 543 9
301 544 68
300 552 324
300 557 582
300 563 885
300 563 1219
300 553 1534
300 534 1826
300 510 2089
300 500 2318
300 498 2518
300 505 2697
300 551 2867
300 650 3039
300 699 3193
300 699 3318
300 699 3442
300 802 14
300 806 73
300 819 336
300 832 611
300 847 927
300 861 1276
300 869 1605
300 869 1907
300 865 2178
300 862 2410
300 866 2609
300 881 2784
300 917 2948
300 979 3111
300 1017 3260
300 1017 3385
300 1017 3509
300 1100 10
300 1105 70
300 1126 339
300 1144 634
300 1167 967
300 1191 1332
300 1209 1673
300 1221 1985
300 1225 2263
300 1229 2497
300 1233 2696
300 1244 2869
300 1267 3027
300 1310 3182
300 1339 3325
300 1339 3450
300 1339 3574
300 1413 0
300 1420 57
300 1449 320
300 1473 642
300 1502 998
300 1532 1380
300 1556 1732
300 1573 2052
300 1582 2334
300 1587 2572
300 1591 2771
300 1599 2942
300 1613 3097
300 1641 3245
300 1660 3383
300 1660 3508
300 1660 3632
300 1709 0
300 1717 57
300 1752 300
300 1782 638
300 1816 1021
300 1850 1417
300 1878 1779
300 1898 2105
300 1909 2392
300 1917 2631
300 1920 2831
300 1925 3001
300 1933 3153
300 1950 3297
300 1962 3432
300 1962 3557
300 1962 3681
300 1971 0
300 1979 57
300 2015 300
300 2048 621
300 2084 1033
300 2120 1441
300 2150 1809
300 2171 2139
300 2185 2428
300 2194 2669
300 2198 2870
300 2202 3039
300 2208 3191
300 2219 3332
300 2226 3466
300 2226 3591
300 2226 3715
300 2189 0
300 2197 57
300 2232 300
300 2265 620
300 2303 1052
300 2339 1465
300 2369 1835
300 2392 2167
300 2407 2455
300 2416 2695
300 2422 2895
300 2426 3064
300 2430 3214
300 2438 3355
300 2444 3488
300 2444 3613
300 2444 3737
300 2374 0
300 2381 57
300 2413 300
300 2447 644
300 2484 1084
300 2519 1495
300 2548 1862
300 2571 2191
300 2586 2476
300 2596 2713
300 2602 2910
300 2606 3078
300 2611 3227
300 2618 3367
300 2623 3501
300 2623 3626
300 2623 3750
300 2547 0
300 2554 57
300 2586 300
300 2620 689
300 2657 1133
300 2690 1539
300 2718 1902
300 2739 2224
300 2753 2502
300 2763 2734
300 2768 2926
300 2772 3091
300 2777 3240
300 2784 3379
300 2788 3512
300 2788 3637
300 2788 3761
300 2722 0
300 2729 57
300 2764 301
300 2796 764
300 2831 1199
300 2863 1596
300 2888 1949
300 2908 2264
300 2921 2533
300 2929 2757
300 2933 2945
300 2937 3107
300 2941 3254
300 2948 3393
300 2953 3525
300 2953 3650
300 2953 3774
300 2911 0
300 2920 57
300 2959 397
300 2989 873
300 3021 1287
300 3050 1665
300 3074 2006
300 3092 2310
300 3103 2570
300 3111 2787
300 3115 2970
300 3118 3130
300 3122 3275
300 3128 3413
300 3133 3545
300 3133 3670
300 3133 3794
300 3077 0
300 3087 57
300 3128 476
300 3157 933
300 3187 1340
300 3215 1709
300 3238 2042
300 3255 2340
300 3266 2594
300 3272 2807
300 3276 2986
300 3279 3145
300 3283 3289
300 3289 3427
300 3293 3558
300 3293 3684
300 3293 3808
300 3202 0
300 3213 57
300 3253 476
300 3282 933
300 3313 1340
300 3340 1709
300 3363 2042
300 3380 2340
300 3391 2594
300 3398 2807
300 3402 2986
300 3405 3145
300 3408 3289
300 3415 3427
300 3419 3558
300 3419 3684
300 3419 3808
300 3326 0
300 3336 57
300 3377 476
300 3406 933
300 3436 1340
300 3464 1709
300 3487 2042
300 3504 2340
300 3515 2594
300 3522 2807
300 3525 2986
300 3529 3145
300 3532 3289
300 3538 3427
300 3543 3558
300 3543 3684
300 3543 3808
538 6 1
539 6 59
543 7 310
543 7 546
543 4 828
534 0 1143
510 0 1440
495 0 1716
495 0 1967
495 0 2185
495 0 2378
495 0 2553
495 0 2727
495 0 2917
495 0 3083
495 0 3209
495 0 3332
541 64 2
542 65 60
546 66 311
546 66 548
546 63 833
540 57 1150
515 57 1450
495 57 1728
495 57 1980
495 57 2201
495 57 2396
495 57 2574
495 57 2749
495 57 2939
508 57 3104
508 57 3229
