doc/3DLUTs/FoggyNight.3DL
#Created by: Adobe Photoshop CS6
#Copyright: Copyright 2012 Adobe Systems Inc.
0 256 512 767 1023
434 578 835
321 546 1188
369 514 1510
401 530 1815
401 546 2120
385 755 707
369 755 980
128 723 1365
209 723 1718
257 739 2088
546 1060 771
594 1060 1012
562 1076 1285
514 1092 1622
466 1156 2104
1140 1847 1156
1237 1863 1413
1317 1879 1702
1397 1911 1975
1477 2023 2377
2730 3549 2248
2746 3533 2409
2891 3533 2762
3003 3629 3131
3131 3726 3453
739 530 787
658 546 1060
626 546 1429
578 530 1766
530 546 2088
674 723 626
594 707 964
466 723 1349
466 723 1718
514 723 2039
691 1092 707
707 1076 1012
723 1092 1301
642 1108 1702
594 1156 2104
1317 1911 1140
1333 1895 1429
1381 1879 1734
1493 1943 1991
1558 2056 2409
2778 3581 2232
2842 3613 2425
3019 3597 2842
3067 3677 3164
3276 3774 3485
1028 578 691
964 578 980
899 610 1253
883 594 1638
899 594 2007
996 707 691
931 739 996
883 755 1253
899 739 1670
899 787 2056
1108 1124 723
1108 1124 964
1044 1140 1365
1044 1188 1766
1124 1237 2168
1654 1991 1156
1622 2007 1333
1686 2007 1799
1783 2056 2104
1879 2184 2553
3067 3726 2216
3131 3742 2457
3228 3742 2858
3308 3758 3228
3469 3870 3565
1333 674 755
1269 674 964
1220 707 1269
1237 755 1542
1333 755 1959
1365 835 771
1333 835 1012
1269 851 1301
1285 899 1606
1381 915 2023
1590 1237 915
1558 1269 1124
1526 1301 1493
1558 1349 1799
1638 1397 2264
2264 2184 1301
2232 2168 1477
2280 2280 1911
2296 2296 2296
2409 2425 2794
3645 3902 2361
3613 3902 2505
3629 3950 2842
3694 3950 3388
3742 3950 3661
1799 899 835
1766 915 1092
1718 947 1413
1750 996 1686
1815 1124 2039
1847 1044 931
1879 1060 1140
1799 1092 1445
1847 1156 1734
1943 1285 2104
2184 1526 1156
2168 1558 1381
2168 1606 1686
2184 1670 1991
2296 1750 2377
3083 2585 1670
3083 2618 1847
3051 2666 2248
3067 2746 2682
3228 2891 3035
4095 3967 2393
4095 3983 2585
4095 3983 2875
4047 3967 3292
4015 3967 3677
