doc/3DLUTs/FoggyNight.3DL
#Created by: Adobe Photoshop CS6
#Copyright: Copyright 2012 Adobe Systems Inc.
0 128 256 384 512 639 767 895 1023
434 578 835
337 578 996
321 546 1188
385 514 1365
369 514 1510
369 530 1670
401 530 1815
434 530 1959
401 546 2120
337 642 771
337 642 883
257 626 1108
273 626 1269
209 610 1461
257 594 1622
289 594 1783
321 594 1927
289 610 2088
385 755 707
337 739 867
369 755 980
289 739 1156
128 723 1365
225 723 1542
209 723 1718
161 723 1895
257 739 2088
450 867 707
434 867 851
418 867 980
434 867 1092
466 867 1237
305 867 1461
145 899 1702
289 883 1847
321 899 2039
546 1060 771
546 1076 883
594 1060 1012
546 1076 1172
562 1076 1285
626 1076 1413
514 1092 1622
450 1108 1879
466 1156 2104
787 1381 931
787 1381 1012
835 1365 1172
835 1381 1301
851 1397 1445
899 1397 1542
947 1429 1686
915 1477 1943
883 1510 2184
1140 1847 1156
1188 1831 1237
1237 1863 1413
1285 1863 1590
1317 1879 1702
1301 1895 1847
1397 1911 1975
1397 1943 2152
1477 2023 2377
1815 2553 1606
1799 2569 1670
1831 2537 1783
1943 2553 1991
2007 2569 2136
1991 2585 2296
2039 2634 2441
2136 2698 2634
2216 2730 2762
2730 3549 2248
2746 3549 2280
2746 3533 2409
2842 3549 2650
2891 3533 2762
2923 3549 2923
3003 3629 3131
3067 3661 3292
3131 3726 3453
546 530 803
530 546 915
514 530 1124
498 530 1349
418 530 1493
434 530 1670
434 514 1783
482 530 1927
482 546 2120
530 610 707
482 626 883
418 626 1092
418 626 1269
385 610 1445
321 610 1622
369 594 1783
401 594 1927
385 610 2088
498 755 642
450 739 851
434 739 980
353 739 1172
273 707 1365
289 707 1526
289 723 1718
337 723 1879
321 739 2056
514 883 707
466 883 819
466 867 980
482 867 1108
450 867 1253
353 883 1510
289 883 1670
321 899 1863
321 899 2039
578 1076 739
594 1060 851
642 1060 1028
610 1076 1156
626 1076 1269
626 1092 1429
546 1108 1654
498 1124 1911
546 1172 2120
819 1397 915
835 1397 1012
835 1365 1172
867 1365 1285
883 1381 1445
915 1413 1558
947 1445 1734
915 1461 1943
931 1510 2184
1237 1863 1172
1237 1879 1253
1237 1863 1413
1333 1847 1590
1365 1879 1718
1365 1911 1847
1413 1927 1991
1461 1959 2168
1510 2007 2377
1815 2553 1606
1863 2537 1654
1895 2569 1815
1943 2553 1991
1991 2569 2136
2023 2569 2296
2088 2634 2441
2200 2698 2618
2264 2730 2778
2730 3549 2216
2810 3565 2312
2746 3533 2409
2842 3549 2569
2923 3565 2794
3019 3597 2971
3035 3629 3131
3099 3694 3324
3164 3758 3485
739 530 787
691 546 899
658 546 1060
642 546 1253
626 546 1429
578 546 1622
578 530 1766
578 530 1911
530 546 2088
691 610 723
642 626 867
626 610 1028
610 594 1237
562 594 1381
546 594 1558
498 610 1783
514 610 1911
578 610 2088
674 723 626
626 723 771
594 707 964
546 723 1172
466 723 1349
466 723 1542
466 723 1718
482 723 1879
514 723 2039
626 867 642
626 867 739
594 883 996
578 867 1076
546 867 1269
466 899 1493
482 883 1670
514 899 1863
546 899 2056
691 1092 707
691 1092 819
707 1076 1012
723 1092 1204
723 1092 1301
739 1108 1445
642 1108 1702
562 1140 1927
594 1156 2104
899 1413 867
931 1397 980
915 1413 1140
964 1381 1317
980 1413 1445
1012 1429 1590
1060 1461 1766
980 1493 1975
1028 1558 2248
1317 1911 1140
1301 1879 1204
1333 1895 1429
1365 1879 1590
1381 1879 1734
1429 1927 1863
1493 1943 1991
1574 1991 2168
1558 2056 2409
1911 2585 1574
1927 2585 1638
1975 2602 1815
1975 2585 1991
2056 2585 2168
2088 2634 2312
2136 2682 2505
2216 2714 2634
2296 2762 2810
2778 3581 2232
2842 3581 2296
2842 3613 2425
2891 3581 2585
3019 3597 2842
3051 3629 3003
3067 3677 3164
3148 3694 3340
3276 3774 3485
883 546 723
851 562 867
803 562 1012
771 578 1140
803 562 1317
755 562 1510
723 546 1702
755 562 1879
739 562 2072
867 610 707
819 610 835
787 626 996
739 626 1140
723 610 1317
755 610 1510
739 610 1686
707 610 1895
691 626 2072
867 707 658
835 723 803
755 723 980
755 723 1108
707 723 1317
691 707 1526
691 739 1686
674 739 1879
739 739 2039
851 883 642
851 867 771
803 867 915
755 867 1108
691 867 1269
707 883 1477
739 883 1654
691 915 1879
723 947 2056
883 1092 691
867 1092 803
851 1076 931
835 1108 1172
851 1124 1333
835 1124 1493
803 1156 1734
819 1172 1927
787 1188 2136
1060 1429 851
1028 1429 931
1060 1445 1108
1076 1429 1317
1108 1445 1477
1140 1445 1606
1188 1493 1783
1172 1558 2039
1156 1574 2296
1445 1943 1124
1429 1943 1220
1461 1943 1381
1477 1927 1590
1526 1927 1750
1558 1959 1895
1622 1991 2056
1702 2039 2232
1718 2120 2473
1991 2618 1558
2088 2682 1654
2072 2666 1783
2152 2682 2007
2184 2666 2216
2248 2714 2361
2296 2746 2537
2345 2762 2666
2489 2858 2891
2955 3661 2216
2939 3661 2280
2955 3645 2441
3035 3677 2634
3067 3645 2826
3196 3694 3051
3148 3694 3180
3228 3774 3388
3324 3822 3549
1028 578 691
996 578 835
964 578 980
915 594 1124
899 610 1253
915 610 1429
883 594 1638
915 610 1847
899 594 2007
1012 594 674
1012 626 819
931 626 996
915 642 1108
899 658 1237
915 642 1445
915 642 1654
883 658 1831
915 658 2007
996 707 691
980 739 835
931 739 996
915 755 1140
883 755 1253
899 755 1445
899 739 1670
883 771 1863
899 787 2056
1012 883 658
1028 883 771
980 899 947
931 899 1140
947 915 1269
915 899 1493
947 915 1670
931 947 1879
980 980 2104
1108 1124 723
1076 1124 787
1108 1124 964
1076 1124 1140
1044 1140 1365
1012 1156 1526
1044 1188 1766
1028 1204 1943
1124 1237 2168
1285 1461 867
1285 1493 964
1285 1493 1108
1269 1510 1317
1269 1493 1526
1285 1510 1654
1317 1558 1863
1333 1590 2104
1349 1638 2329
1654 1991 1156
1654 1991 1220
1622 2007 1333
1670 2007 1574
1686 2007 1799
1718 2023 1959
1783 2056 2104
1847 2104 2312
1879 2184 2553
2232 2762 1574
2232 2730 1606
2248 2746 1799
2296 2778 2007
2329 2746 2216
2409 2762 2425
2489 2826 2585
2585 2891 2762
2634 2907 2939
3067 3726 2216
3131 3742 2280
3131 3742 2457
3164 3726 2618
3228 3742 2858
3308 3758 3099
3308 3758 3228
3388 3838 3421
3469 3870 3565
1172 594 691
1156 594 803
1092 610 964
1076 642 1108
1060 642 1237
1044 658 1381
1092 642 1574
1060 658 1783
1108 674 1991
1172 658 723
1140 642 803
1124 674 980
1060 674 1108
1076 674 1237
1028 707 1365
1076 691 1574
1076 723 1799
1108 707 1991
1172 771 739
1156 771 835
1108 771 980
1092 755 1124
1060 771 1237
1060 803 1413
1108 803 1606
1108 787 1815
1124 835 2023
1220 899 739
1204 899 835
1188 931 996
1140 931 1172
1156 964 1301
1140 964 1445
1172 996 1686
1188 996 1879
1188 1012 2120
1349 1172 787
1333 1172 867
1301 1188 1028
1269 1172 1204
1253 1188 1397
1253 1204 1542
1301 1237 1783
1317 1269 2007
1365 1285 2200
1590 1558 947
1558 1558 1028
1542 1558 1140
1558 1558 1333
1542 1574 1510
1526 1590 1718
1526 1638 1943
1558 1670 2168
1654 1734 2409
1927 2072 1204
1943 2104 1285
1911 2104 1429
1911 2088 1574
1927 2136 1783
1991 2152 2056
2007 2184 2200
2072 2248 2441
2072 2264 2666
2505 2826 1654
2537 2858 1718
2553 2858 1847
2537 2858 1991
2634 2923 2248
2666 2939 2537
2730 2987 2730
2778 3035 2875
2923 3131 3115
3324 3822 2248
3308 3822 2312
3340 3806 2409
3356 3854 2618
3404 3838 2875
3421 3838 3083
3549 3870 3356
3597 3918 3501
3597 3918 3645
1333 674 755
1333 658 851
1269 674 964
1220 691 1124
1220 707 1269
1237 739 1413
1237 755 1542
1269 755 1750
1333 755 1959
1333 691 723
1317 707 835
1301 723 980
1269 739 1140
1253 755 1253
1237 755 1413
1237 787 1558
1301 803 1766
1317 803 1959
1365 835 771
1365 819 867
1333 835 1012
1285 851 1156
1269 851 1301
1285 883 1429
1285 899 1606
1349 899 1799
1381 915 2023
1461 996 851
1413 1012 915
1413 1012 1076
1365 996 1188
1349 1028 1365
1365 1044 1493
1381 1060 1670
1429 1076 1863
1477 1124 2088
1590 1237 915
1590 1253 964
1558 1269 1124
1542 1285 1301
1526 1301 1493
1510 1317 1622
1558 1349 1799
1574 1365 1991
1638 1397 2264
1879 1670 1044
1863 1654 1092
1863 1654 1237
1815 1654 1413
1831 1686 1638
1847 1734 1847
1831 1734 1991
1911 1783 2248
1943 1815 2457
2264 2184 1301
2264 2184 1365
2232 2168 1477
2232 2216 1654
2280 2280 1911
2312 2296 2120
2296 2296 2296
2329 2377 2569
2409 2425 2794
2875 2987 1750
2907 3019 1847
2891 3019 1943
2875 3019 2120
2907 3051 2329
2939 3099 2553
3051 3164 2875
3148 3212 3035
3180 3308 3308
3645 3902 2361
3661 3918 2377
3613 3902 2505
3645 3950 2650
3629 3950 2842
3645 3950 3115
3694 3950 3388
3758 3918 3517
3742 3950 3661
1558 755 787
1526 755 867
1493 755 1012
1493 787 1188
1445 819 1317
1461 835 1461
1461 851 1590
1493 883 1718
1542 899 1959
1542 803 787
1558 803 883
1510 819 1012
1493 835 1172
1477 867 1333
1477 883 1461
1477 899 1622
1526 931 1766
1558 931 1959
1606 915 819
1590 931 931
1558 931 1076
1542 947 1220
1526 964 1381
1542 980 1510
1542 996 1654
1542 1028 1815
1622 1044 2007
1686 1092 931
1654 1092 980
1638 1108 1140
1638 1140 1285
1622 1156 1461
1638 1172 1590
1654 1204 1718
1702 1253 1911
1766 1253 2152
1863 1365 1012
1847 1365 1092
1831 1381 1237
1815 1397 1445
1847 1445 1590
1831 1445 1702
1831 1477 1879
1879 1526 2056
1975 1542 2296
2184 1799 1172
2152 1766 1220
2152 1799 1365
2136 1815 1590
2120 1831 1766
2152 1863 1943
2168 1911 2088
2200 1927 2296
2296 2007 2569
2634 2377 1445
2634 2393 1510
2618 2393 1638
2650 2425 1815
2618 2409 2007
2666 2473 2280
2650 2505 2489
2698 2569 2666
2826 2650 2939
3324 3228 1927
3340 3212 1991
3292 3212 2088
3340 3260 2296
3388 3308 2489
3421 3340 2746
3453 3356 2971
3485 3453 3260
3517 3469 3485
3886 3967 2377
3886 3967 2441
3854 3967 2537
3886 3983 2698
3870 3967 2891
3870 3983 3099
3854 3983 3292
3870 3950 3533
3918 3950 3677
1799 899 835
1783 899 931
1766 915 1092
1766 947 1269
1718 947 1413
1734 980 1526
1750 996 1686
1783 1044 1863
1815 1124 2039
1831 915 867
1815 931 964
1766 947 1092
1766 980 1269
1750 996 1429
1783 1012 1526
1783 1044 1702
1783 1092 1863
1831 1124 2056
1847 1044 931
1863 1060 1028
1879 1060 1140
1863 1092 1317
1799 1092 1445
1815 1140 1606
1847 1156 1734
1879 1204 1911
1943 1285 2104
2007 1253 1028
1991 1253 1108
1975 1269 1253
1959 1269 1381
1975 1317 1542
1959 1349 1686
1975 1365 1863
2023 1413 2023
2056 1477 2216
2184 1526 1156
2184 1574 1269
2168 1558 1381
2168 1574 1558
2168 1606 1686
2152 1638 1879
2184 1670 1991
2232 1718 2184
2296 1750 2377
2569 1991 1397
2569 1991 1413
2521 1991 1558
2521 2039 1766
2473 2039 1927
2521 2088 2120
2585 2136 2296
2569 2168 2473
2682 2248 2666
3083 2585 1670
3083 2602 1718
3083 2618 1847
3051 2634 2039
3051 2666 2248
3067 2730 2473
3067 2746 2682
3164 2826 2858
3228 2891 3035
3806 3469 2120
3790 3469 2184
3790 3501 2329
3790 3501 2505
3822 3533 2698
3822 3565 2923
3822 3597 3164
3870 3661 3421
3934 3710 3613
4095 3967 2393
4095 3967 2457
4095 3983 2585
4079 3967 2698
4095 3983 2875
4095 3983 3083
4047 3967 3292
4063 3950 3485
4015 3967 3677
