doc/3DLUTs/FoggyNight.3DL
#Created by: Adobe Photoshop CS6
#Copyright: Copyright 2012 Adobe Systems Inc.
0 64 128 192 256 320 384 448 512 575 639 703 767 831 895 959 1023
434 578 835
369 562 899
337 578 996
305 546 1076
321 546 1188
385 530 1285
385 514 1365
353 530 1461
369 514 1510
353 514 1590
369 530 1670
401 514 1734
401 530 1815
418 514 1863
434 530 1959
321 530 2023
401 546 2120
401 594 819
385 610 851
321 594 964
241 578 1044
321 578 1156
321 562 1220
289 562 1333
337 562 1413
369 546 1477
385 546 1574
321 562 1670
353 546 1718
337 546 1783
385 546 1863
305 562 1943
353 562 2023
353 578 2104
337 642 771
337 642 819
337 642 883
305 626 996
257 626 1108
209 626 1188
273 626 1269
273 594 1365
209 610 1461
321 594 1510
257 594 1622
321 594 1702
289 594 1783
337 578 1847
321 594 1927
289 578 2007
289 610 2088
369 691 723
369 674 819
337 691 867
385 691 915
337 691 1012
289 691 1124
209 674 1220
128 658 1317
209 674 1397
209 658 1493
209 658 1590
337 658 1654
145 642 1750
241 658 1831
289 642 1895
353 658 1975
337 642 2072
385 755 707
385 755 771
337 739 867
385 723 899
369 755 980
353 739 1060
289 739 1156
273 739 1269
128 723 1365
48 723 1461
225 723 1542
289 723 1638
209 723 1718
289 723 1815
161 723 1895
257 739 1975
257 739 2088
385 803 707
369 787 755
418 803 851
401 803 915
321 787 980
418 803 1028
401 803 1108
337 803 1204
257 803 1301
241 819 1413
145 787 1510
80 803 1622
177 803 1718
145 803 1783
225 787 1863
257 803 1975
209 819 2056
450 867 707
418 883 755
434 867 851
418 867 931
418 867 980
434 867 1044
434 867 1092
418 867 1156
466 867 1237
321 867 1349
305 867 1461
257 867 1558
145 899 1702
209 867 1766
289 883 1847
305 883 1943
321 899 2039
482 964 723
466 980 771
482 964 867
466 947 931
514 947 980
466 947 1060
482 964 1124
482 947 1172
514 947 1220
546 964 1301
466 980 1413
385 980 1510
321 980 1654
225 996 1799
321 996 1879
337 1012 1975
401 1012 2056
546 1060 771
514 1060 819
546 1076 883
546 1076 964
594 1060 1012
546 1060 1092
546 1076 1172
546 1060 1220
562 1076 1285
578 1092 1349
626 1076 1413
530 1092 1526
514 1092 1622
498 1124 1783
450 1108 1879
369 1140 2023
466 1156 2104
658 1188 851
642 1204 867
691 1220 947
658 1204 1044
707 1188 1092
707 1204 1172
674 1204 1220
691 1188 1285
691 1188 1333
691 1237 1413
771 1237 1461
723 1253 1558
755 1253 1638
642 1269 1783
674 1269 1879
691 1301 2023
691 1317 2152
787 1381 931
787 1381 964
787 1381 1012
787 1365 1092
835 1365 1172
851 1365 1237
835 1381 1301
835 1381 1381
851 1397 1445
867 1397 1510
899 1397 1542
899 1413 1638
947 1429 1686
996 1445 1783
915 1477 1943
915 1477 2039
883 1510 2184
996 1590 1044
947 1606 1076
980 1590 1156
964 1590 1172
1012 1590 1269
1060 1590 1349
1028 1574 1397
1060 1590 1477
1012 1606 1558
1108 1622 1622
1092 1638 1686
1108 1638 1750
1140 1670 1831
1188 1654 1895
1204 1686 2007
1188 1718 2120
1188 1750 2264
1140 1847 1156
1204 1831 1204
1188 1831 1237
1172 1847 1301
1237 1863 1413
1269 1847 1493
1285 1863 1590
1301 1847 1654
1317 1879 1702
1333 1895 1799
1301 1895 1847
1381 1911 1911
1397 1911 1975
1429 1927 2056
1397 1943 2152
1510 1991 2264
1477 2023 2377
1477 2152 1317
1461 2152 1381
1461 2168 1413
1493 2136 1493
1493 2152 1574
1526 2152 1686
1590 2168 1783
1574 2168 1831
1606 2184 1911
1622 2184 1975
1638 2216 2023
1670 2232 2104
1702 2248 2184
1734 2264 2264
1783 2296 2361
1815 2312 2441
1879 2377 2553
1815 2553 1606
1815 2553 1638
1799 2569 1670
1815 2505 1686
1831 2537 1783
1863 2521 1863
1943 2553 1991
1959 2537 2039
2007 2569 2136
1975 2569 2184
1991 2585 2296
2007 2569 2345
2039 2634 2441
2104 2650 2489
2136 2698 2634
2168 2714 2698
2216 2730 2762
2232 3003 1879
2216 3003 1911
2216 3003 1943
2232 2987 1991
2248 2987 2056
2312 3003 2184
2329 3003 2280
2425 3019 2345
2377 3003 2425
2441 3051 2537
2457 3051 2602
2473 3083 2698
2537 3115 2762
2505 3115 2810
2569 3164 2891
2634 3212 3035
2682 3228 3099
2730 3549 2248
2730 3549 2248
2746 3549 2280
2730 3549 2361
2746 3533 2409
2826 3549 2537
2842 3549 2650
2858 3549 2714
2891 3533 2762
2907 3565 2858
2923 3549 2923
3003 3613 3051
3003 3629 3131
3035 3661 3228
3067 3661 3292
3164 3726 3404
3131 3726 3453
450 562 819
466 546 851
401 562 996
385 546 1076
418 546 1204
466 530 1285
434 514 1365
418 514 1429
385 530 1526
418 514 1590
401 530 1654
401 530 1750
385 530 1815
401 546 1895
434 530 1959
418 546 2023
385 530 2120
498 594 787
434 578 835
353 594 964
337 578 1060
353 578 1140
369 562 1237
385 546 1333
369 546 1397
385 562 1493
418 546 1558
418 546 1638
353 546 1718
353 562 1799
385 562 1863
418 546 1927
401 546 1991
337 562 2104
434 626 739
385 626 803
401 626 867
353 626 996
305 642 1092
257 626 1188
273 626 1285
369 594 1349
305 626 1477
321 594 1510
273 594 1638
321 594 1702
289 594 1783
337 578 1847
321 594 1927
385 610 2007
369 594 2088
418 691 707
418 691 787
385 691 867
385 691 931
385 674 1012
305 674 1140
209 674 1237
225 691 1317
257 658 1381
273 642 1493
337 658 1574
321 642 1654
257 658 1734
241 658 1831
321 674 1927
353 658 1991
353 658 2088
401 739 674
418 739 771
418 739 867
401 739 931
401 739 964
369 723 1028
337 739 1156
257 739 1269
128 723 1365
225 739 1461
289 723 1542
305 723 1638
289 723 1718
289 723 1815
257 723 1879
257 739 1975
337 723 2072
418 819 691
418 819 755
418 803 851
401 803 915
369 787 980
418 803 1028
385 787 1092
369 803 1172
321 803 1301
289 803 1413
161 803 1510
241 787 1590
257 787 1686
193 819 1799
241 787 1879
257 803 1975
305 803 2056
466 883 691
401 867 755
450 867 835
450 883 915
466 867 980
434 867 1044
434 867 1076
418 867 1156
482 883 1237
321 867 1349
305 883 1461
273 883 1574
289 883 1670
209 883 1783
305 883 1847
337 915 1959
385 883 2039
514 964 707
498 964 771
498 964 835
498 964 915
530 947 996
466 947 1060
530 947 1124
482 947 1172
530 947 1237
498 964 1301
498 964 1397
418 980 1542
321 980 1654
305 996 1783
337 1012 1879
337 1012 1975
401 1012 2039
546 1060 739
578 1076 819
562 1076 867
530 1060 964
578 1060 1044
578 1060 1092
578 1044 1140
562 1076 1237
626 1076 1269
610 1076 1349
626 1076 1413
530 1092 1526
546 1108 1654
546 1108 1766
482 1140 1895
482 1124 1991
466 1156 2104
691 1220 851
674 1220 899
642 1220 947
674 1204 1012
723 1220 1108
739 1204 1156
707 1204 1204
691 1204 1285
707 1204 1349
674 1220 1413
755 1220 1445
755 1237 1542
723 1237 1654
626 1253 1766
691 1285 1895
707 1301 2023
658 1317 2184
803 1381 899
819 1381 964
803 1381 1028
803 1381 1092
835 1365 1172
867 1381 1253
835 1381 1301
867 1381 1381
867 1397 1461
883 1413 1510
899 1413 1558
915 1397 1606
931 1429 1718
964 1429 1815
931 1477 1927
915 1493 2056
899 1526 2200
947 1606 1044
1012 1590 1076
947 1590 1124
980 1606 1188
1012 1590 1269
1060 1574 1349
1044 1590 1429
1092 1622 1510
1060 1622 1558
1108 1622 1622
1092 1638 1686
1108 1638 1750
1140 1670 1831
1188 1670 1927
1237 1702 2007
1172 1702 2104
1172 1750 2264
1204 1863 1188
1188 1831 1204
1188 1831 1237
1237 1863 1317
1237 1863 1413
1269 1847 1526
1301 1831 1574
1285 1847 1638
1269 1847 1686
1317 1879 1783
1349 1895 1863
1381 1895 1895
1397 1911 1975
1429 1927 2039
1477 1959 2152
1510 1991 2264
1477 2023 2377
1461 2136 1349
1461 2152 1381
1445 2152 1413
1477 2168 1510
1477 2152 1558
1510 2136 1670
1590 2168 1766
1574 2168 1831
1606 2184 1911
1622 2184 1959
1654 2200 2056
1670 2216 2104
1702 2248 2184
1702 2232 2232
1766 2296 2361
1815 2312 2441
1879 2377 2569
1815 2553 1590
1815 2521 1574
1799 2553 1654
1847 2537 1718
1863 2553 1815
1911 2569 1895
1943 2553 1991
1959 2553 2056
2007 2585 2136
1975 2569 2184
2007 2585 2280
2007 2585 2361
2072 2618 2425
2088 2650 2489
2184 2682 2602
2216 2746 2714
2264 2730 2778
2232 2987 1863
2264 3019 1911
2280 3035 2007
2280 3019 2007
2280 3003 2088
2296 3003 2152
2329 3003 2280
2377 2987 2345
2425 3019 2441
2457 3051 2505
2473 3051 2602
2441 3051 2650
2537 3115 2762
2505 3115 2826
2569 3148 2923
2634 3212 3051
2714 3276 3148
2730 3549 2264
2762 3549 2264
2746 3549 2280
2730 3549 2361
2778 3565 2441
2794 3565 2505
2842 3549 2602
2875 3533 2698
2907 3533 2762
2907 3565 2858
2971 3613 2971
2987 3597 3035
3003 3645 3131
3051 3677 3244
3099 3710 3340
3131 3694 3372
3131 3726 3453
546 530 803
530 546 851
530 546 915
498 530 1044
514 530 1124
482 514 1253
498 530 1349
466 514 1413
418 530 1493
450 514 1558
434 530 1670
450 530 1718
434 514 1783
498 530 1863
482 530 1927
418 546 2023
482 546 2120
546 578 787
514 578 867
498 578 931
482 578 1028
466 578 1124
434 562 1220
450 562 1301
466 562 1397
418 546 1461
434 562 1574
450 546 1622
401 546 1702
337 546 1783
401 562 1879
418 546 1927
482 546 2007
418 578 2088
530 610 707
514 626 771
482 626 883
418 626 980
418 626 1092
401 626 1188
418 626 1269
401 610 1365
385 610 1445
369 594 1526
321 610 1622
385 610 1686
369 594 1783
401 594 1831
401 594 1927
385 594 1991
385 610 2088
514 691 707
514 691 755
450 691 851
466 674 931
385 691 1028
337 674 1140
369 674 1220
337 658 1317
337 658 1397
337 658 1493
353 674 1590
321 642 1654
321 658 1750
385 658 1831
305 658 1911
369 658 1991
401 658 2056
498 755 642
450 755 739
450 739 851
466 723 915
434 739 980
466 739 1060
353 739 1172
305 723 1269
273 707 1365
289 723 1461
289 707 1526
289 723 1622
289 723 1718
273 707 1799
337 723 1879
401 723 1959
321 739 2056
450 803 658
466 803 739
466 787 819
498 803 931
450 803 980
450 787 1028
434 803 1108
401 803 1204
321 803 1317
289 787 1413
273 803 1526
273 803 1622
321 803 1670
273 803 1799
257 803 1879
305 803 1943
385 787 2056
514 883 707
482 883 755
466 883 819
498 867 883
466 867 980
482 867 1044
482 867 1108
498 883 1172
450 867 1253
385 867 1349
353 883 1510
273 883 1574
289 883 1670
241 899 1783
321 899 1863
385 883 1959
321 899 2039
546 964 707
514 964 739
514 964 819
530 947 915
514 947 996
514 964 1076
530 964 1124
530 964 1188
530 947 1237
530 947 1285
482 964 1429
418 980 1542
337 980 1670
305 996 1783
337 1012 1879
482 1012 1959
401 1012 2039
578 1076 739
594 1076 787
594 1060 851
594 1060 931
642 1060 1028
626 1060 1092
610 1076 1156
594 1076 1237
626 1076 1269
642 1092 1349
626 1092 1429
578 1092 1526
546 1108 1654
562 1124 1783
498 1124 1911
482 1124 1991
546 1172 2120
674 1204 835
674 1204 867
658 1220 915
691 1204 996
723 1220 1108
739 1204 1156
723 1204 1237
739 1204 1285
723 1220 1365
771 1204 1381
771 1237 1461
819 1253 1558
771 1269 1654
723 1269 1766
723 1269 1879
674 1301 2056
707 1317 2152
819 1397 915
803 1397 947
835 1397 1012
819 1381 1076
835 1365 1172
851 1381 1237
867 1365 1285
883 1381 1381
883 1381 1445
867 1397 1510
915 1413 1558
964 1413 1622
947 1445 1734
996 1445 1799
915 1461 1943
931 1510 2072
931 1510 2184
980 1590 1044
996 1606 1060
996 1606 1092
980 1590 1156
1028 1590 1237
1060 1574 1349
1076 1590 1413
1076 1622 1510
1092 1622 1558
1124 1638 1638
1124 1622 1670
1172 1638 1734
1140 1670 1847
1237 1702 1911
1237 1686 1991
1220 1718 2120
1156 1750 2296
1237 1863 1172
1220 1863 1237
1237 1879 1253
1220 1847 1317
1237 1863 1413
1301 1863 1477
1333 1847 1590
1349 1879 1654
1365 1879 1718
1317 1879 1783
1365 1911 1847
1381 1911 1911
1413 1927 1991
1429 1927 2039
1461 1959 2168
1510 2007 2280
1510 2007 2377
1493 2152 1333
1477 2168 1397
1493 2200 1493
1526 2168 1493
1477 2152 1558
1526 2136 1654
1606 2168 1783
1622 2184 1847
1654 2184 1911
1654 2216 1975
1702 2232 2056
1702 2264 2136
1702 2248 2184
1766 2296 2296
1783 2296 2361
1799 2312 2441
1879 2377 2569
1815 2553 1606
1863 2553 1606
1863 2537 1654
1847 2553 1718
1895 2569 1815
1911 2569 1895
1943 2553 1991
2023 2569 2088
1991 2569 2136
2023 2585 2200
2023 2569 2296
2072 2634 2393
2088 2634 2441
2136 2698 2537
2200 2698 2618
2216 2746 2714
2264 2730 2778
2280 3035 1879
2264 3035 1911
2232 2987 1959
2264 3019 1991
2312 3003 2088
2296 3019 2168
2361 3019 2280
2409 3003 2345
2473 3067 2489
2489 3051 2553
2473 3051 2602
2473 3099 2698
2537 3115 2762
2602 3164 2875
2585 3164 2891
2682 3196 3019
2714 3260 3131
2730 3549 2216
2714 3549 2248
2810 3565 2312
2730 3533 2312
2746 3533 2409
2826 3549 2505
2842 3549 2569
2875 3533 2698
2923 3565 2794
2939 3565 2858
3019 3597 2971
3035 3645 3083
3035 3629 3131
3083 3661 3228
3099 3694 3324
3148 3726 3388
3164 3758 3485
658 546 819
642 546 867
626 530 931
594 546 996
594 530 1092
578 514 1188
546 530 1301
594 530 1365
530 530 1477
514 546 1574
514 530 1638
546 514 1718
466 546 1799
498 530 1879
482 530 1927
482 546 2007
546 562 2104
658 578 787
626 562 819
594 578 899
562 562 980
546 562 1092
546 562 1156
546 562 1269
546 546 1349
514 562 1477
498 562 1526
466 546 1622
498 546 1702
514 546 1799
498 546 1847
482 562 1927
546 562 2007
