doc/3DLUTs/Fuji ETERNA 250D Kodak 2395 (by Adobe).cube
# Copyright 2012, Adobe Systems Inc.
# Created with ADBELUTBuilder Fri 30 Nov 2012 12:22:20
# Film Look FujiETERNA250D Kodak2395
# Copyright 2012 Adobe Systems
LUT_3D_SIZE 21
DOMAIN_MIN 0.0 0.0 0.0
DOMAIN_MAX 1.0 1.0 1.0
0.1481 0.12618 0.10543
0.16375 0.12778 0.1055
0.21514 0.13417 0.10573
0.2731 0.14127 0.10558
0.33057 0.14753 0.10481
0.40345 0.15407 0.10291
0.47204 0.15855 0.10012
0.53644 0.16116 0.0966
0.59677 0.16202 0.09257
0.65011 0.1617 0.08833
0.68556 0.16084 0.08531
0.72121 0.1602 0.08222
0.7551 0.15935 0.07897
0.78495 0.15826 0.0762
0.80701 0.15935 0.07451
0.82899 0.16151 0.0727
0.85016 0.16349 0.07109
0.87086 0.16548 0.07152
0.89144 0.16781 0.07185
0.90864 0.17073 0.07257
0.92251 0.17586 0.07376
0.15194 0.14891 0.11004
0.16367 0.14988 0.10998
0.20275 0.15398 0.10991
0.25429 0.16064 0.10977
0.3098 0.16773 0.10916
0.36334 0.17364 0.10806
0.43252 0.18047 0.10585
0.49987 0.18594 0.10278
0.56348 0.18999 0.09899
0.63048 0.19287 0.09399
0.68253 0.19447 0.08963
0.72193 0.19575 0.08601
0.76049 0.19675 0.08204
0.79657 0.19762 0.07829
0.82036 0.19907 0.07601
0.84266 0.20047 0.07421
0.86428 0.20196 0.07291
0.88505 0.20357 0.07296
0.90528 0.20523 0.07295
0.92311 0.20713 0.07321
0.93637 0.21097 0.07418
0.15522 0.19337 0.11728
0.16748 0.192 0.11668
0.20595 0.19343 0.11608
0.25658 0.19774 0.11538
0.31237 0.20332 0.11428
0.3632 0.20846 0.11286
0.43205 0.21533 0.11026
0.50181 0.22125 0.10667
0.56522 0.22555 0.10251
0.63092 0.22891 0.09746
0.68914 0.23087 0.09215
0.73076 0.23198 0.08786
0.76932 0.2329 0.08363
0.80662 0.23365 0.0795
0.83284 0.23471 0.07727
0.85553 0.23631 0.0754
0.87753 0.23815 0.07417
0.89869 0.24022 0.0738
0.91936 0.24248 0.07338
0.93861 0.24497 0.07309
0.95158 0.24804 0.07385
0.15297 0.24261 0.1235
0.16645 0.2392 0.12294
0.20681 0.2378 0.12165
0.25832 0.23987 0.1202
0.31504 0.24392 0.1185
0.36841 0.24831 0.1166
0.43549 0.25458 0.1136
0.50633 0.26052 0.10957
0.57072 0.265 0.10513
0.6356 0.26869 0.0997
0.6983 0.2713 0.09343
0.74235 0.27253 0.08868
0.78129 0.27375 0.08487
0.8195 0.27493 0.08071
0.84848 0.27618 0.07761
0.87127 0.2777 0.07534
0.89327 0.27952 0.07446
0.91463 0.28164 0.07363
0.93545 0.28407 0.07277
0.95565 0.28657 0.07189
0.96851 0.28949 0.07276
0.14024 0.30345 0.12875
0.15812 0.29809 0.12812
0.20413 0.29376 0.12657
0.25907 0.29334 0.12471
0.31837 0.29547 0.1224
0.3751 0.29874 0.12
0.44094 0.30439 0.11674
0.513 0.31103 0.11222
0.5797 0.31631 0.10708
0.64436 0.32067 0.10114
0.71143 0.32432 0.09425
0.75686 0.32572 0.08938
0.79704 0.32693 0.08474
0.83553 0.32804 0.07987
0.86743 0.32892 0.07568
0.88993 0.32975 0.07417
0.91175 0.33079 0.0729
0.93296 0.33206 0.07163
0.95349 0.33356 0.07038
0.97355 0.33529 0.06909
0.98718 0.33726 0.07065
0.112 0.36633 0.13145
0.13821 0.3613 0.1309
0.19435 0.35666 0.12959
0.25564 0.35568 0.12771
0.31938 0.35742 0.12522
0.38073 0.36075 0.12226
0.44681 0.36598 0.11837
0.52056 0.37207 0.113
0.58943 0.37708 0.10728
0.65459 0.38117 0.10107
0.72228 0.38484 0.09339
0.77105 0.38606 0.08733
0.81337 0.38688 0.08159
0.85214 0.38767 0.07601
0.88681 0.38822 0.07197
0.90947 0.38843 0.07016
0.93131 0.3889 0.06838
0.95257 0.38962 0.06659
0.97314 0.39063 0.0648
0.99304 0.39188 0.06406
1.00798 0.39326 0.06582
0.06352 0.4217 0.13217
0.10751 0.41609 0.13216
0.17854 0.41253 0.13076
0.24766 0.41252 0.12858
0.31652 0.41511 0.12563
0.38249 0.41941 0.12222
0.44946 0.42533 0.1181
0.52484 0.43251 0.11224
0.59648 0.43855 0.10552
0.66284 0.44309 0.09824
0.73058 0.44729 0.0894
0.784 0.4492 0.08162
0.82828 0.45008 0.07556
0.86725 0.45088 0.0702
0.90515 0.45165 0.06449
0.92854 0.45148 0.06192
0.95058 0.45158 0.05949
0.97198 0.45189 0.05705
0.99259 0.45242 0.05582
1.01237 0.45317 0.05606
1.02901 0.45402 0.05716
0 0.47601 0.13143
0.05197 0.47003 0.13144
0.15509 0.46659 0.13025
0.23556 0.46646 0.12815
0.31033 0.46885 0.12513
0.38092 0.47319 0.12127
0.44947 0.47908 0.11651
0.5262 0.48652 0.10976
0.60036 0.49332 0.10182
0.66789 0.49885 0.09335
0.73528 0.50395 0.08431
0.79304 0.50712 0.07565
0.83904 0.50861 0.06838
0.87912 0.50986 0.0616
0.91782 0.51103 0.05435
0.94455 0.51111 0.04997
0.9669 0.51113 0.04674
0.98833 0.51127 0.04577
1.00907 0.51156 0.04536
1.02904 0.51202 0.04514
1.04761 0.51259 0.04532
0 0.5204 0.13033
0 0.51581 0.13068
0.12448 0.51461 0.12918
0.22 0.51655 0.12655
0.30155 0.5207 0.12286
0.37708 0.52613 0.11817
0.44777 0.53198 0.11273
0.52572 0.53955 0.10572
0.60187 0.54673 0.0974
0.67012 0.5525 0.08867
0.73763 0.5579 0.07838
0.7998 0.56188 0.06736
0.84635 0.56348 0.05865
0.88833 0.56484 0.04992
0.92751 0.56607 0.04133
0.95734 0.5663 0.03687
0.97982 0.56607 0.03567
1.00145 0.56599 0.03467
1.02242 0.56604 0.03383
1.04266 0.56623 0.03316
1.0625 0.56671 0.03428
0 0.56524 0.12842
0 0.56075 0.12845
0.08183 0.55937 0.1268
0.20256 0.5615 0.12405
0.29164 0.56562 0.12052
0.37132 0.5716 0.11582
0.44358 0.57871 0.11021
0.52309 0.58771 0.10213
0.60142 0.59648 0.09225
0.67117 0.60365 0.08181
0.73969 0.61039 0.06941
0.80549 0.61614 0.05497
0.85282 0.61878 0.0439
0.89639 0.62071 0.03528
0.93559 0.62196 0.02836
0.96857 0.62249 0.02336
0.99176 0.62211 0.02162
1.01368 0.62187 0.02021
1.03513 0.6219 0.02056
1.05606 0.62216 0.02226
1.07628 0.62257 0.02428
0 0.60842 0.12557
0 0.60669 0.12581
0.00915 0.60521 0.12462
0.17852 0.60766 0.12168
0.27875 0.61182 0.11765
0.36375 0.6178 0.11231
0.43865 0.62492 0.10596
0.51994 0.63405 0.09681
0.60023 0.64314 0.08544
0.67123 0.65056 0.07333
0.7402 0.65754 0.05974
0.80868 0.664 0.04407
0.85607 0.66672 0.03439
0.90126 0.6692 0.02499
0.94106 0.6713 0.01704
0.97736 0.67297 0.01066
1.00165 0.67333 0.01046
1.02429 0.67377 0.01087
1.04625 0.67426 0.01159
1.06758 0.67483 0.01261
1.08806 0.67554 0.01631
0 0.64202 0.1251
0 0.64169 0.12463
0 0.6437 0.12246
0.1522 0.64891 0.11861
0.26444 0.65584 0.11343
0.35453 0.66375 0.10687
0.43282 0.67092 0.0996
0.51575 0.68012 0.09012
0.59758 0.68943 0.07844
0.66933 0.69701 0.06619
0.7388 0.70418 0.05145
0.80918 0.71116 0.03391
0.85862 0.71434 0.02428
0.90551 0.71717 0.01597
0.94596 0.71955 0.00966
0.9854 0.72181 0.00365
1.01031 0.72208 0.003
1.03319 0.72241 0.00306
1.05531 0.72286 0.00537
1.07676 0.72339 0.00906
1.09746 0.72399 0.01336
0 0.67306 0.12418
0 0.67369 0.12289
0 0.67624 0.12033
0.12938 0.68137 0.11663
0.25326 0.68847 0.11191
0.34624 0.69678 0.10585
0.42577 0.70596 0.0986
0.50982 0.71716 0.08822
0.59285 0.72869 0.07605
0.66627 0.7385 0.06314
0.73666 0.74769 0.04781
0.80738 0.75634 0.03055
0.86051 0.76022 0.0199
0.9079 0.76313 0.01103
0.94965 0.76562 0.00398
0.98949 0.76794 0
1.01719 0.76858 0
1.04034 0.7689 0.0009
1.06265 0.76926 0.00381
1.08429 0.76968 0.0073
1.10524 0.77015 0.01137
0 0.70349 0.12327
0 0.70482 0.12271
0 0.70818 0.12126
0.09839 0.71325 0.11853
0.24013 0.72058 0.1143
0.33698 0.72886 0.10898
0.41895 0.73818 0.10256
0.50433 0.74948 0.09309
0.58826 0.76104 0.08099
0.66276 0.77102 0.06803
0.73348 0.78031 0.05283
0.80398 0.78933 0.03482
0.86037 0.79539 0.02147
0.90802 0.79992 0.0132
0.95092 0.80392 0.00697
0.99098 0.80757 0.00188
1.0219 0.80978 0.00052
1.04576 0.81109 0.00194
1.06846 0.81237 0.00405
1.09049 0.81363 0.0067
1.11186 0.81489 0.0099
0 0.7322 0.12835
0 0.73626 0.12764
0 0.7403 0.12576
0.05453 0.74517 0.12308
0.22599 0.75264 0.11871
0.32719 0.76071 0.11347
0.41226 0.77006 0.10695
0.4991 0.78131 0.09749
0.58396 0.79288 0.08541
0.65937 0.80297 0.07261
0.73003 0.81239 0.05989
0.79993 0.82151 0.04438
0.85914 0.82826 0.03186
0.9069 0.83286 0.02355
0.95082 0.83699 0.01652
0.99105 0.84069 0.01087
1.02472 0.84333 0.00802
1.04901 0.84462 0.00929
1.07184 0.84587 0.01134
1.094 0.84709 0.01389
1.11555 0.84831 0.01695
0 0.75426 0.13551
0 0.75878 0.13439
0 0.76586 0.13153
0.01504 0.77278 0.12833
0.21255 0.78264 0.1232
0.31732 0.79119 0.11785
0.40549 0.80067 0.11216
0.49337 0.81192 0.10427
0.57871 0.82351 0.09421
0.6547 0.83375 0.08365
0.72568 0.84322 0.07197
0.7954 0.85238 0.05794
0.85755 0.85973 0.04409
0.90544 0.86437 0.03543
0.95027 0.86862 0.02771
0.99063 0.87238 0.02166
1.02692 0.87545 0.01736
1.0516 0.87673 0.01841
1.07455 0.87795 0.02036
1.09707 0.87942 0.02665
1.11901 0.88092 0.03436
0 0.77587 0.14212
0 0.781 0.14072
0 0.78793 0.13873
0 0.79498 0.13651
0.2047 0.80466 0.13274
0.30921 0.81431 0.12863
0.3991 0.82564 0.12301
0.48767 0.83859 0.11503
0.57344 0.85193 0.10491
0.65012 0.86354 0.09439
0.7214 0.87302 0.0836
0.79124 0.88222 0.07086
0.85575 0.89006 0.05737
0.90375 0.89473 0.04865
0.94939 0.89909 0.04033
0.98991 0.90297 0.03517
1.02887 0.90674 0.03344
1.05414 0.90831 0.03856
1.07742 0.90984 0.0462
1.10005 0.9114 0.05575
1.12207 0.91295 0.06543
0 0.79724 0.15142
0 0.80328 0.15061
0 0.80985 0.14898
0 0.81703 0.14683
0.19706 0.82635 0.14345
0.30219 0.83557 0.13988
0.39457 0.8469 0.13463
0.48369 0.85966 0.12735
0.5695 0.87283 0.1182
0.64626 0.88478 0.10854
0.7174 0.89584 0.09812
0.78721 0.90672 0.08707
0.85384 0.9168 0.07642
0.90212 0.92326 0.07107
0.94878 0.9294 0.06586
0.98954 0.93397 0.06435
1.02936 0.93798 0.06458
1.05637 0.93986 0.07056
1.07978 0.9414 0.07804
1.1025 0.94293 0.08577
1.12461 0.94444 0.0937
0 0.81823 0.1617
0 0.82514 0.16046
0 0.83134 0.15905
0 0.83869 0.15693
0.19075 0.84766 0.15388
0.29574 0.85644 0.15081
0.39085 0.86788 0.14622
0.48039 0.88068 0.14103
0.56618 0.8939 0.13443
0.64296 0.90598 0.1277
0.71402 0.9172 0.12075
0.78373 0.92816 0.11284
0.85189 0.93862 0.10503
0.9 0.94515 0.10242
0.94709 0.95143 0.09996
0.98787 0.95685 0.09946
1.02784 0.96207 0.09933
1.05728 0.96546 0.10286
1.08109 0.96805 0.10841
1.10402 0.97055 0.1144
1.12635 0.973 0.1207
0 0.84002 0.17177
0 0.84693 0.17154
0 0.85296 0.17122
0 0.86069 0.17007
0.18383 0.86952 0.16846
0.28847 0.87803 0.16717
0.3871 0.88974 0.16396
0.47746 0.90234 0.15957
0.56329 0.91539 0.15437
0.63983 0.92739 0.14967
0.71064 0.93858 0.14495
0.78006 0.94953 0.13962
0.84977 0.96031 0.13337
0.89781 0.9668 0.13165
0.94498 0.97308 0.13003
0.98609 0.97854 0.12993
1.02602 0.98376 0.13021
1.05755 0.9875 0.13288
1.08158 0.99008 0.13774
1.10453 0.99256 0.14303
1.12689 0.99498 0.14862
0 0.86052 0.18762
0 0.86871 0.18727
0 0.87532 0.18693
0 0.88291 0.18603
0.17691 0.89143 0.18508
0.28193 0.89967 0.18488
0.38336 0.91143 0.18283
0.47437 0.92392 0.17991
0.56022 0.93679 0.17612
0.63667 0.94862 0.17243
0.7074 0.9597 0.16873
0.77668 0.97057 0.16455
0.84775 0.98159 0.15931
0.89569 0.98805 0.15823
0.94277 0.99431 0.15724
0.98428 0.99981 0.15742
1.02418 1.00503 0.15802
1.05764 1.00909 0.16019
1.08187 1.01167 0.16461
1.10483 1.01413 0.16946
1.12721 1.01653 0.17458
0.14737 0.12716 0.11446
0.16049 0.12887 0.11812
0.20023 0.13381 0.12056
0.24871 0.1399 0.12254
0.29933 0.1458 0.12423
0.34951 0.15086 0.12444
0.41001 0.1559 0.12306
0.46961 0.15965 0.1213
0.52688 0.16196 0.11922
0.58526 0.16302 0.11672
0.64145 0.16281 0.11399
0.67752 0.16214 0.11236
0.7121 0.16124 0.11085
0.74554 0.16074 0.1096
0.77788 0.15969 0.10836
0.80343 0.15937 0.10799
0.82562 0.16143 0.10864
0.84759 0.16373 0.11082
0.8689 0.16584 0.11325
0.89014 0.16836 0.11595
0.91093 0.17076 0.11885
0.14977 0.13757 0.11233
0.15783 0.13861 0.11478
0.18691 0.14201 0.11587
0.22775 0.14735 0.11679
0.27388 0.15349 0.11753
0.3211 0.15964 0.11799
0.37553 0.1661 0.11797
0.43993 0.17262 0.11716
0.50247 0.17783 0.11618
0.56368 0.18171 0.11481
0.62718 0.18432 0.11268
0.67724 0.186 0.111
0.71547 0.18726 0.10996
0.75335 0.1891 0.10886
0.78863 0.19085 0.10785
0.81698 0.19285 0.10742
0.83971 0.19519 0.10753
0.86157 0.19751 0.10833
0.88301 0.19976 0.11113
0.90391 0.20203 0.11411
0.92432 0.2043 0.11726
0.15339 0.17067 0.11892
0.16249 0.17048 0.12049
0.19129 0.17188 0.12115
0.23182 0.17564 0.12165
0.27865 0.18118 0.12205
0.32841 0.18749 0.12222
0.38148 0.19388 0.12195
0.44672 0.20085 0.12082
0.51049 0.20664 0.11904
0.57093 0.21113 0.11716
0.63471 0.21465 0.11477
0.689 0.21682 0.11248
0.72721 0.21842 0.11125
0.76491 0.22024 0.10992
0.80086 0.22194 0.10861
0.8296 0.22381 0.10795
0.85207 0.22598 0.10794
0.87394 0.2283 0.10829
0.89558 0.23106 0.11078
0.91692 0.23426 0.11381
0.9378 0.23759 0.11702
0.15402 0.20822 0.12512
0.1648 0.20669 0.12633
0.19492 0.206 0.12663
0.2364 0.20888 0.12682
0.28442 0.21394 0.12689
0.33631 0.22003 0.12668
0.38866 0.22619 0.12611
0.4545 0.23349 0.1246
0.51957 0.23986 0.12241
0.58006 0.24496 0.12003
0.64372 0.24935 0.11731
0.70068 0.25248 0.11451
0.7406 0.25464 0.11287
0.77841 0.25661 0.11126
0.81523 0.25841 0.10958
0.84461 0.26021 0.10862
0.86702 0.26215 0.10845
0.88903 0.26426 0.10912
0.91047 0.26657 0.11126
0.93167 0.26964 0.11423
0.9527 0.27354 0.11736
0.14871 0.2623 0.13197
0.1622 0.25915 0.13319
0.19675 0.25799 0.13333
0.24143 0.2596 0.13313
0.29216 0.26322 0.1327
0.34701 0.26851 0.13194
0.39978 0.27404 0.13089
0.46685 0.28123 0.12878
0.53354 0.28779 0.12595
0.59452 0.29307 0.12321
0.65774 0.29775 0.11999
0.71688 0.30135 0.11648
0.7585 0.30357 0.11426
0.79644 0.3057 0.11225
0.83372 0.30774 0.11011
0.86431 0.30969 0.10867
0.88678 0.31167 0.10856
0.90893 0.31391 0.10957
0.93041 0.31637 0.11162
0.95134 0.31903 0.11449
0.97182 0.32187 0.11755
0.1295 0.32799 0.13752
0.14921 0.32358 0.13908
0.19212 0.31975 0.13897
0.24244 0.31899 0.1384
0.29725 0.3206 0.13749
0.35577 0.32455 0.13616
0.41002 0.32902 0.1346
0.47808 0.33554 0.13185
0.5464 0.34173 0.12855
0.60787 0.34667 0.12555
0.6708 0.35125 0.1218
0.73255 0.35504 0.11747
0.77575 0.35698 0.11465
0.81384 0.35892 0.1122
0.85124 0.36086 0.10963
0.88377 0.36272 0.10785
0.90643 0.3645 0.10852
0.92853 0.36651 0.10935
0.95 0.36875 0.11172
0.97078 0.37107 0.1145
0.99112 0.37361 0.11746
0.09236 0.38954 0.14126
0.12404 0.3851 0.14269
0.17941 0.38212 0.14252
0.23769 0.38204 0.14173
0.29822 0.38356 0.14045
0.3615 0.38733 0.13858
0.41816 0.39163 0.1365
0.48791 0.39825 0.1334
0.55822 0.40471 0.12983
0.62116 0.40987 0.12612
0.68434 0.41469 0.12168
0.74929 0.41907 0.11625
0.79359 0.4209 0.11278
0.83265 0.42266 0.10972
0.87045 0.4245 0.10737
0.90534 0.42624 0.10586
0.92793 0.42742 0.10635
0.94988 0.42882 0.10784
0.97126 0.43042 0.11032
0.99193 0.43223 0.11304
1.01214 0.43425 0.11596
0.02508 0.44675 0.14313
0.08192 0.44149 0.14444
0.15981 0.43846 0.14414
0.22851 0.43819 0.14311
0.29516 0.44016 0.14147
0.36315 0.44474 0.13913
0.42192 0.4496 0.13726
0.49348 0.457 0.13387
0.56585 0.46434 0.1295
0.63079 0.47033 0.12496
0.69465 0.47588 0.11973
0.76188 0.48124 0.11315
0.80796 0.48367 0.10939
0.84903 0.48585 0.10674
0.88737 0.48791 0.10435
0.92462 0.48986 0.102
0.94744 0.4908 0.10298
0.96945 0.4919 0.10519
0.99085 0.49309 0.10764
1.01157 0.49439 0.11035
1.03172 0.49587 0.11327
0 0.49808 0.14361
0.0119 0.49386 0.14472
0.13 0.493 0.14411
0.21435 0.49301 0.14284
0.28828 0.49479 0.14152
0.36102 0.49925 0.13937
0.4223 0.50399 0.13712
0.49588 0.51147 0.13311
0.57002 0.519 0.128
0.63686 0.52525 0.12267
0.70177 0.53112 0.1176
0.76926 0.53684 0.11133
0.81851 0.53967 0.10724
0.86117 0.54182 0.10393
0.89988 0.54382 0.10109
0.93769 0.54579 0.09931
0.96254 0.54661 0.10081
0.98466 0.54741 0.10298
1.00617 0.54834 0.10539
1.02704 0.54939 0.10804
1.04726 0.55059 0.11093
0 0.54353 0.1432
0 0.53945 0.14409
0.09248 0.53844 0.14411
0.19729 0.54023 0.14312
0.27882 0.54376 0.14142
0.35622 0.54974 0.13868
0.42034 0.55572 0.13599
0.49619 0.56464 0.13195
0.57243 0.57364 0.12674
0.6414 0.58054 0.1215
0.70739 0.58659 0.11577
0.77516 0.5925 0.10878
0.8275 0.59573 0.10366
0.87169 0.59788 0.09995
0.91058 0.59987 0.09835
0.94866 0.6018 0.09685
0.97617 0.60264 0.09773
0.99846 0.60318 0.09989
1.02014 0.60391 0.10227
1.04122 0.60476 0.10488
1.06157 0.60576 0.10775
0 0.59055 0.14216
0 0.58682 0.14385
0.02559 0.58566 0.14399
0.17427 0.58785 0.14324
0.26681 0.59152 0.14185
0.34953 0.59756 0.1394
0.41695 0.60367 0.13694
0.49504 0.61268 0.1324
0.5731 0.62185 0.1266
0.64395 0.6298 0.12051
0.71106 0.63702 0.1139
0.77923 0.64407 0.10612
0.83444 0.64871 0.10125
0.88015 0.6518 0.09795
0.91965 0.6545 0.09579
0.95829 0.6571 0.09372
0.98857 0.65866 0.09369
1.01121 0.65955 0.09566
1.03319 0.6605 0.09789
1.05456 0.66152 0.10038
1.0752 0.66262 0.10315
0 0.62956 0.14393
0 0.62943 0.14577
0 0.63123 0.14577
0.14197 0.63571 0.14439
0.2512 0.63949 0.14271
0.34057 0.64545 0.13994
0.41186 0.65161 0.1371
0.49256 0.66069 0.13204
0.57261 0.67001 0.12559
0.64513 0.67819 0.11929
0.71288 0.68559 0.11345
0.78102 0.6928 0.1065
0.83928 0.69795 0.10069
0.88552 0.70108 0.09704
0.92628 0.70383 0.09437
0.96527 0.70643 0.09198
0.99802 0.70819 0.09116
1.02095 0.70892 0.09306
1.04311 0.70971 0.09525
1.06464 0.71057 0.09771
1.0855 0.7115 0.10043
0 0.66329 0.1477
0 0.66409 0.14881
0 0.66641 0.14855
0.11324 0.67149 0.14691
0.23737 0.67798 0.14456
0.33155 0.68622 0.1411
0.40592 0.69441 0.13757
0.48851 0.70546 0.13268
0.5701 0.71678 0.12648
0.64426 0.72531 0.12045
0.71303 0.73284 0.1142
0.78152 0.74017 0.10688
0.84276 0.74583 0.1001
0.88945 0.74895 0.09614
0.93148 0.75175 0.09297
0.97082 0.75434 0.09027
1.00585 0.75632 0.08866
1.02927 0.75689 0.09046
1.05161 0.75751 0.09264
1.07332 0.75819 0.09516
1.09468 0.75922 0.10105
0 0.69542 0.15132
0 0.69687 0.15192
0 0.69983 0.15129
0.07865 0.70472 0.1496
0.22435 0.71144 0.14779
0.32268 0.71961 0.1453
0.39963 0.72789 0.14271
0.48389 0.73892 0.13788
0.56664 0.75027 0.13165
0.64198 0.76052 0.12505
0.71141 0.76975 0.11818
0.78012 0.77869 0.11025
0.84426 0.78638 0.10212
0.89148 0.79097 0.09735
0.93486 0.7951 0.09316
0.97469 0.79884 0.08965
1.01221 0.8022 0.08664
1.03628 0.80303 0.08971
1.05907 0.80381 0.0949
1.08122 0.80471 0.10169
1.10277 0.80568 0.10885
0 0.72743 0.15467
0 0.729 0.15584
0 0.73277 0.15575
0.02835 0.73756 0.15494
0.20878 0.74447 0.15323
0.3124 0.75242 0.1508
0.39295 0.76077 0.14812
0.47907 0.77175 0.14328
0.563 0.78311 0.13705
0.63938 0.79346 0.1304
0.70928 0.80274 0.12356
0.77795 0.81172 0.11574
0.84446 0.81989 0.10716
0.89186 0.82451 0.1024
0.93625 0.82887 0.09915
0.97644 0.8329 0.09826
1.0158 0.83679 0.09779
1.04097 0.83862 0.10287
1.06404 0.84033 0.10874
1.08647 0.84203 0.11491
1.1083 0.84373 0.12137
0 0.75171 0.16218
0 0.7561 0.16279
0 0.76295 0.16186
0 0.76935 0.1607
0.19208 0.77649 0.15886
0.30143 0.78422 0.15652
0.38608 0.79268 0.15375
0.47415 0.80362 0.14892
0.55924 0.81497 0.14272
0.63654 0.82538 0.13609
0.70689 0.83471 0.12936
0.77593 0.844 0.12352
0.84446 0.85283 0.11686
0.89219 0.85772 0.11452
0.9375 0.86235 0.11329
0.97777 0.86647 0.11383
1.01721 0.87044 0.1147
1.04478 0.87256 0.11892
1.06795 0.87421 0.12445
1.09048 0.87585 0.13027
1.11241 0.87748 0.13637
0 0.774 0.17015
0 0.77887 0.17048
0 0.78561 0.16951
0 0.7921 0.16841
0.18143 0.80151 0.16605
0.29231 0.81096 0.16344
0.37996 0.82134 0.16027
0.4692 0.83421 0.15639
0.55536 0.84586 0.15179
0.63352 0.85651 0.147
0.70439 0.86609 0.14232
0.77372 0.87544 0.13739
0.844 0.8847 0.13206
0.89181 0.88968 0.13118
0.93789 0.8944 0.13059
0.9783 0.89855 0.13131
1.01788 0.90253 0.13231
1.04777 0.90495 0.1358
1.07105 0.90656 0.14104
1.09368 0.90815 0.14655
1.1157 0.90973 0.15233
0 0.79564 0.17827
0 0.80136 0.17822
0 0.80791 0.17826
0 0.81476 0.17803
0.17324 0.82405 0.17694
0.28519 0.83329 0.17586
0.376 0.84397 0.17406
0.4662 0.85668 0.17068
0.55239 0.86986 0.16651
0.63056 0.88221 0.16262
0.70144 0.89343 0.15892
0.77088 0.90436 0.15471
0.8424 0.9154 0.14938
0.89105 0.92109 0.14848
0.93787 0.92588 0.14807
0.97842 0.93003 0.14896
1.01813 0.93404 0.15009
1.05009 0.93676 0.15305
1.07364 0.93833 0.15802
1.09636 0.93988 0.16327
1.11848 0.94141 0.16878
0 0.81758 0.19055
0 0.8244 0.1911
0 0.8306 0.1913
0 0.83766 0.19109
0.16485 0.84662 0.19027
0.27776 0.85548 0.19004
0.37209 0.86634 0.18911
0.46304 0.87894 0.18693
0.54943 0.892 0.18387
0.62772 0.90422 0.18067
0.69862 0.91535 0.17765
0.76801 0.92623 0.1742
0.83923 0.93722 0.1698
0.88954 0.94411 0.1687
0.93668 0.95034 0.16807
0.97769 0.95576 0.16864
1.01757 0.96094 0.16949
1.05156 0.96508 0.17163
1.07552 0.96766 0.17596
1.09845 0.97015 0.18065
1.12078 0.97259 0.1856
0 0.84034 0.20369
0 0.84712 0.20458
0 0.85305 0.20541
0 0.86043 0.20572
0.15526 0.86914 0.20573
0.26947 0.87755 0.20609
0.36817 0.88855 0.20537
0.46021 0.90098 0.20365
0.54687 0.91384 0.20117
0.62514 0.92591 0.19859
0.69603 0.93695 0.19618
0.76535 0.94776 0.19338
0.83629 0.95869 0.18976
0.88796 0.96583 0.18884
0.93505 0.97205 0.18857
0.97649 0.97751 0.18928
1.01635 0.98269 0.19031
1.05204 0.98712 0.19218
1.07621 0.98969 0.19631
1.09916 0.99216 0.20079
1.12152 0.99457 0.20551
0 0.86303 0.21886
0 0.86969 0.21998
0 0.8755 0.22091
0 0.88298 0.22127
0.14613 0.89136 0.22153
0.26122 0.8993 0.22226
0.36477 0.91048 0.22172
0.45788 0.92274 0.2204
0.54474 0.93541 0.21844
0.62284 0.94729 0.21642
0.69368 0.95823 0.21454
0.76291 0.96897 0.21231
0.8336 0.97984 0.20936
0.88641 0.98717 0.20864
0.93342 0.99338 0.20869
0.97523 0.99888 0.20955
1.01505 1.00406 0.21077
1.05234 1.00876 0.21245
1.07681 1.01157 0.21829
1.09997 1.01417 0.22344
1.12256 1.0167 0.22868
0.14558 0.13007 0.14077
0.15844 0.13237 0.15204
0.1949 0.1368 0.15703
0.23901 0.14223 0.16154
0.28471 0.14756 0.16601
0.33046 0.15214 0.16647
0.38277 0.15656 0.16478
0.43957 0.16052 0.16313
0.4966 0.16328 0.16135
0.55262 0.16495 0.15956
0.60829 0.16532 0.15768
0.65769 0.16482 0.1561
0.69136 0.16393 0.15521
0.72469 0.16344 0.15483
0.75694 0.1628 0.15477
0.78845 0.16163 0.15488
0.8149 0.16157 0.15578
0.83691 0.1638 0.15738
