doc/3DLUTs/Fuji ETERNA 250D Kodak 2395 (by Adobe).cube
# Copyright 2012, Adobe Systems Inc.
# Created with ADBELUTBuilder Fri 30 Nov 2012 12:22:20
# Film Look FujiETERNA250D Kodak2395
# Copyright 2012 Adobe Systems
LUT_3D_SIZE 6
DOMAIN_MIN 0.0 0.0 0.0
DOMAIN_MAX 1.0 1.0 1.0
0.1481 0.12618 0.10543
0.33057 0.14753 0.10481
0.59677 0.16202 0.09257
0.7551 0.15935 0.07897
0.85016 0.16349 0.07109
0.92251 0.17586 0.07376
0.14024 0.30345 0.12875
0.31837 0.29547 0.1224
0.5797 0.31631 0.10708
0.79704 0.32693 0.08474
0.91175 0.33079 0.0729
0.98718 0.33726 0.07065
0 0.5204 0.13033
0.30155 0.5207 0.12286
0.60187 0.54673 0.0974
0.84635 0.56348 0.05865
0.97982 0.56607 0.03567
1.0625 0.56671 0.03428
0 0.67306 0.12418
0.25326 0.68847 0.11191
0.59285 0.72869 0.07605
0.86051 0.76022 0.0199
1.01719 0.76858 0
1.10524 0.77015 0.01137
0 0.77587 0.14212
0.2047 0.80466 0.13274
0.57344 0.85193 0.10491
0.85575 0.89006 0.05737
1.02887 0.90674 0.03344
1.12207 0.91295 0.06543
0 0.86052 0.18762
0.17691 0.89143 0.18508
0.56022 0.93679 0.17612
0.84775 0.98159 0.15931
1.02418 1.00503 0.15802
1.12721 1.01653 0.17458
0.13979 0.13791 0.23674
0.27096 0.15183 0.28184
0.46116 0.16575 0.26946
0.66749 0.16805 0.26198
0.79498 0.16457 0.26157
0.88966 0.16983 0.27057
0.14358 0.23379 0.18742
0.26342 0.23623 0.21007
0.46051 0.25616 0.22666
0.69658 0.27557 0.23909
0.84518 0.28694 0.24909
0.94121 0.2993 0.26104
0 0.46456 0.21351
0.26009 0.45926 0.23145
0.50568 0.47943 0.24382
0.75942 0.5037 0.2514
0.92173 0.51512 0.26086
1.0184 0.52269 0.27167
0 0.64936 0.23644
0.18707 0.65955 0.25102
0.51377 0.68643 0.26061
0.78977 0.71722 0.26502
0.96793 0.73199 0.27122
1.07253 0.73961 0.28793
0 0.77604 0.26793
0.07869 0.79891 0.27869
0.5049 0.83392 0.28804
0.79673 0.87237 0.29309
0.98697 0.89323 0.30213
1.09902 0.90314 0.31868
0 0.86771 0.31601
0 0.89358 0.32612
0.50119 0.9345 0.3357
0.79645 0.97817 0.34204
0.99175 1.00458 0.35166
1.10947 1.01853 0.36778
0.13643 0.13516 0.47924
0.26455 0.14202 0.50957
0.42718 0.15458 0.50173
0.62124 0.15915 0.49773
0.76371 0.15575 0.4961
0.87222 0.15495 0.50087
0.12701 0.22232 0.36927
0.24955 0.22699 0.39906
0.41707 0.24241 0.42677
0.63671 0.25953 0.45232
0.80283 0.26864 0.47159
0.91555 0.27652 0.48821
0 0.44209 0.39977
0.23129 0.43796 0.42531
0.45044 0.45044 0.45044
0.69134 0.47005 0.47338
0.87179 0.48231 0.49114
0.98713 0.49154 0.5068
0 0.63854 0.42688
0.11574 0.64155 0.44956
0.45203 0.66196 0.47305
0.72354 0.68972 0.49368
0.92005 0.70689 0.5107
1.04197 0.71627 0.52658
0 0.78227 0.45505
0 0.7966 0.47423
0.43835 0.82525 0.49492
0.73492 0.86015 0.5137
0.94306 0.88258 0.52977
1.07108 0.89414 0.54555
0 0.87917 0.48683
0 0.90078 0.50246
0.43324 0.93613 0.52136
0.73929 0.97661 0.53898
0.95153 1.00417 0.55459
1.08353 1.0192 0.56912
0.17791 0.11207 0.64488
0.27488 0.11852 0.65186
0.41647 0.12795 0.65774
0.59482 0.13152 0.66418
0.74014 0.12707 0.66812
0.8501 0.12248 0.67393
0.142 0.21034 0.54032
0.25767 0.21351 0.56638
0.40256 0.22354 0.59594
0.60387 0.23627 0.6266
0.77252 0.24418 0.64962
0.89025 0.25119 0.66715
0 0.41942 0.57503
0.23396 0.41499 0.59986
0.42667 0.42255 0.62569
0.6504 0.43807 0.65279
0.83355 0.44929 0.674
0.95631 0.458 0.69082
0 0.62202 0.60482
0.10233 0.62555 0.62779
0.41897 0.64122 0.65573
0.679 0.66467 0.6808
0.88061 0.67955 0.70024
1.01167 0.68804 0.71574
0 0.77947 0.62984
0 0.79173 0.65075
0.39374 0.81523 0.67676
0.6881 0.84573 0.69979
0.90426 0.86777 0.71821
1.04249 0.87988 0.73325
0 0.88797 0.65358
0 0.90578 0.67187
0.37933 0.93628 0.69404
0.69193 0.97253 0.71498
0.91391 0.99574 0.73209
1.05562 1.00779 0.7465
0.22324 0.09223 0.72446
0.29942 0.09591 0.73431
0.42239 0.1015 0.74705
0.58407 0.10195 0.76067
0.72614 0.09439 0.77064
0.82944 0.08826 0.77901
0.1906 0.19205 0.66725
0.27686 0.19399 0.68905
0.40772 0.20155 0.7151
0.59121 0.21134 0.74443
0.75362 0.21711 0.76738
0.8645 0.224 0.78422
0.09841 0.39141 0.70494
0.26014 0.39 0.72498
0.42716 0.39578 0.75206
0.63056 0.40794 0.7823
0.80806 0.41776 0.8045
0.92394 0.42548 0.81976
0 0.60369 0.74274
0.15332 0.60772 0.76181
0.41632 0.61762 0.78726
0.65537 0.63462 0.8152
0.85222 0.64812 0.83829
0.97676 0.65574 0.85563
0 0.77319 0.76904
0 0.78295 0.78686
0.38284 0.80288 0.81156
0.66127 0.82774 0.83792
0.87515 0.84477 0.85958
1.00849 0.85323 0.87615
0 0.89109 0.78746
0 0.90594 0.80413
0.3597 0.93015 0.82718
0.663 0.95764 0.85138
0.88445 0.97928 0.87196
1.02357 0.99072 0.88818
0.26375 0.07103 0.78311
0.3295 0.07261 0.79455
0.44009 0.0742 0.81113
0.58417 0.06951 0.82902
0.71965 0.0562 0.84386
0.8168 0.04661 0.85503
0.2428 0.17456 0.74735
0.30978 0.17693 0.76396
0.42596 0.18304 0.78905
0.59234 0.18962 0.81819
0.74378 0.19308 0.84188
0.84784 0.19921 0.85941
0.20289 0.36708 0.79374
0.30037 0.36716 0.80795
0.44491 0.37216 0.83025
0.62774 0.3819 0.8565
0.7937 0.3904 0.87867
0.90241 0.39739 0.89454
0 0.58395 0.84136
0.22639 0.58602 0.8549
0.43757 0.59445 0.87604
0.65146 0.60845 0.90025
0.8362 0.62025 0.92064
0.95327 0.62666 0.93484
0 0.76491 0.87397
0 0.77222 0.88714
0.40563 0.78579 0.90749
0.6564 0.80441 0.9301
0.85851 0.81985 0.94923
0.98475 0.82739 0.96272
0 0.88971 0.89363
0 0.8981 0.90562
0.37966 0.91823 0.92545
0.65597 0.9421 0.94666
0.86727 0.96188 0.9648
1. 0.97218 0.97794
