doc/3DLUTs/Fuji F125 Kodak 2393 (by Adobe).cube
# Copyright 2012, Adobe Systems Inc.
# Created with ADBELUTBuilder Fri 30 Nov 2012 12:21:39
# Film Look FujiF125 Kodak2393
# Copyright 2012 Adobe Systems
LUT_3D_SIZE 6
DOMAIN_MIN 0.0 0.0 0.0
DOMAIN_MAX 1.0 1.0 1.0
0.00207 0.0012 0.00122
0.24785 0 0
0.49563 0 0
0.60839 0 0
0.6701 0 0
0.717 0 0
0 0.05187 0.00225
0.04586 0.06485 0.00219
0.3331 0.11151 0
0.61701 0.12083 0
0.7657 0.10744 0
0.85618 0.09693 0
0 0.1868 0
0 0.20811 0
0.28544 0.2883 0
0.61575 0.35133 0
0.8176 0.376 0
0.93636 0.3881 0
0 0.30162 0
0 0.33267 0
0.17366 0.43654 0
0.58262 0.53431 0
0.82762 0.5831 0
0.97205 0.60778 0
0 0.38337 0
0 0.42446 0
0 0.54611 0
0.51441 0.66524 0
0.8169 0.73801 0
0.97683 0.77245 0
0 0.44145 0
0 0.49052 0
0 0.62169 0
0.42434 0.75348 0
0.76829 0.84146 0
0.9534 0.88671 0
0.00063 0 0.11181
0.3137 0 0.22612
0.56305 0 0.24929
0.66893 0 0.25816
0.71781 0 0.26917
0.75207 0 0.28698
0 0.0506 0.02421
0.05931 0.08241 0.0801
0.3915 0.12258 0.13678
0.6688 0.11795 0.17567
0.81216 0.09598 0.21465
0.89289 0.08128 0.25805
0 0.18983 0.01882
0 0.23651 0.06166
0.31804 0.31852 0.10543
0.66317 0.3763 0.14071
0.86017 0.39704 0.17321
0.96919 0.40686 0.21491
0 0.31349 0.00574
0 0.36927 0.04098
0.16456 0.47561 0.07469
0.60723 0.56798 0.09728
0.85224 0.61298 0.12801
0.992 0.63492 0.16975
0 0.40293 0
0 0.46475 0.02724
0 0.58678 0.05633
0.53102 0.70378 0.0698
0.82846 0.76975 0.09155
0.99323 0.80236 0.13507
0 0.46432 0
0 0.53002 0.03073
0 0.6601 0.06527
0.42347 0.78948 0.08213
0.77929 0.87262 0.09324
0.96141 0.91402 0.13677
0.04953 0 0.27946
0.35217 0 0.38172
0.58271 0 0.41446
0.68451 0 0.42651
0.73106 0 0.43606
0.76395 0 0.45116
0 0.0731 0.17834
0.09578 0.0981 0.28525
0.45032 0.11636 0.38286
0.70134 0.08897 0.44594
0.83386 0.04609 0.48085
0.90674 0.01929 0.51111
0 0.22352 0.15955
0 0.28167 0.25907
0.35158 0.35158 0.35158
0.70119 0.39612 0.41747
0.88604 0.40961 0.46613
0.98538 0.41564 0.51035
0 0.35221 0.14579
0 0.42459 0.22613
0.16437 0.52427 0.31665
0.63141 0.60312 0.38193
0.86903 0.64013 0.42791
1.00235 0.65782 0.47033
0 0.44429 0.13541
0 0.52392 0.20487
0 0.63944 0.28445
0.54695 0.74633 0.35384
0.83666 0.80257 0.39658
0.99799 0.83088 0.4369
0 0.50586 0.13178
0 0.58865 0.195
0 0.71188 0.26845
0.4318 0.83392 0.33579
0.79347 0.90924 0.37806
0.96885 0.94514 0.41696
0.16067 0 0.39335
0.4064 0 0.45975
0.60116 0 0.49021
0.69389 0 0.50541
0.74048 0 0.51765
0.77298 0 0.5357
0 0.08312 0.36533
0.19559 0.09221 0.46613
0.51055 0.08462 0.55656
0.73273 0.02821 0.60515
0.85136 0 0.63459
0.91652 0 0.65872
0 0.2681 0.35499
0 0.31552 0.46125
0.4195 0.37012 0.55722
0.73767 0.40068 0.62314
0.90208 0.40848 0.66615
0.99796 0.41195 0.70151
0 0.40719 0.32722
0 0.47716 0.42562
0.23281 0.56233 0.53425
0.67002 0.62658 0.60291
0.88773 0.65525 0.64743
1.01134 0.66871 0.68271
0 0.50422 0.30692
0 0.5864 0.39342
0 0.68924 0.49093
0.57314 0.77912 0.5764
0.84873 0.82618 0.62172
1.00247 0.84966 0.65683
0 0.56829 0.29424
0 0.65466 0.37115
0 0.76549 0.45976
0.47173 0.87457 0.54102
0.80449 0.93818 0.59918
0.97906 0.96804 0.63378
0.28998 0 0.471
0.47947 0 0.51172
0.62083 0 0.53771
0.70284 0 0.55306
0.75233 0 0.57143
0.78315 0 0.5902
0.08396 0.07706 0.52074
0.3167 0.07502 0.59464
0.58613 0.0403 0.66224
0.76822 0 0.70504
0.86973 0 0.72927
0.92621 0 0.74865
0 0.30623 0.53518
0.08671 0.34107 0.62195
0.51251 0.3807 0.70069
0.76966 0.39939 0.75251
0.91714 0.4042 0.78638
1.0061 0.40657 0.81298
0 0.46773 0.5139
0 0.51999 0.59308
0.35395 0.58942 0.68627
0.72313 0.64097 0.75714
0.91215 0.6624 0.79312
1.0225 0.67267 0.82029
0 0.57741 0.49166
0 0.64088 0.56459
0 0.72828 0.65303
0.62574 0.80145 0.72596
0.86899 0.8403 0.77724
1.0105 0.85998 0.80942
0 0.64705 0.47317
0 0.71641 0.54078
0 0.81467 0.62411
0.5199 0.90275 0.69501
0.82183 0.9541 0.74574
0.98983 0.98141 0.78585
0.41341 0 0.52774
0.53564 0 0.54992
0.64245 0 0.57029
0.71823 0 0.58972
0.76435 0 0.60679
0.7986 0 0.63281
0.27425 0.06306 0.64369
0.45354 0.04805 0.6916
0.65801 0 0.7355
0.79903 0 0.76535
0.88879 0 0.7883
0.93658 0 0.80696
0 0.33569 0.67713
0.31552 0.36115 0.73749
0.6001 0.38711 0.80157
0.80785 0.39834 0.84257
0.93461 0.40122 0.86806
1.01446 0.4032 0.88787
0 0.517 0.67061
0 0.56048 0.73281
0.49232 0.61341 0.80251
0.77594 0.64972 0.85504
0.94241 0.66678 0.89094
1.03611 0.67459 0.917
0 0.64066 0.65133
0 0.69257 0.7134
0.27961 0.7623 0.78357
0.69559 0.82009 0.84061
0.89759 0.84941 0.87798
1.02284 0.86559 0.90672
0 0.71656 0.62145
0 0.77335 0.68341
0 0.85525 0.76188
0.59177 0.92576 0.81963
0.84757 0.96624 0.8587
1. 0.9888 0.8882
