doc/3DLUTs/Fuji REALA 500D Kodak 2393 (by Adobe).cube
# Copyright 2012, Adobe Systems Inc.
# Created with ADBELUTBuilder Fri 30 Nov 2012 12:21:46
# Film Look FujiREALA500D Kodak2393
# Copyright 2012 Adobe Systems
LUT_3D_SIZE 6
DOMAIN_MIN 0.0 0.0 0.0
DOMAIN_MAX 1.0 1.0 1.0
0.00498 0.00332 0.00382
0.18959 0.00744 0.00505
0.51906 0 0
0.63587 0 0
0.70812 0 0
0.75551 0 0
0 0.09285 0.00549
0.11932 0.12817 0.00353
0.45198 0.18063 0
0.69829 0.19436 0
0.82666 0.19545 0
0.90359 0.20114 0
0 0.23532 0
0.04862 0.29524 0
0.43046 0.37396 0
0.72481 0.42479 0
0.88421 0.44362 0
0.97271 0.45289 0
0 0.37639 0
0 0.44673 0
0.42158 0.53166 0
0.71917 0.59816 0
0.90269 0.63127 0
1.01123 0.6484 0
0 0.50386 0
0 0.5685 0
0.43457 0.64953 0
0.71953 0.71934 0
0.90939 0.76077 0
1.02908 0.78483 0
0 0.62794 0
0.04945 0.67632 0
0.47324 0.75036 0
0.72982 0.81311 0
0.91333 0.85472 0
1.03661 0.88115 0
0 0.00331 0.09932
0.15839 0 0.17755
0.46381 0 0.21131
0.64221 0 0.22171
0.7228 0 0.23002
0.77849 0 0.243
0 0.08148 0.05655
0.07502 0.11161 0.09875
0.39794 0.15671 0.1415
0.67877 0.1703 0.16559
0.82548 0.17099 0.18927
0.90801 0.17906 0.21761
0 0.23446 0.05965
0 0.28792 0.08773
0.39097 0.35949 0.1121
0.69962 0.41077 0.12744
0.87781 0.4328 0.14724
0.97575 0.44576 0.17428
0 0.39071 0.06073
0 0.45726 0.07607
0.38344 0.53852 0.08349
0.70092 0.60542 0.08396
0.8977 0.64038 0.09994
1.01301 0.65894 0.128
0 0.52968 0.07353
0 0.59281 0.07979
0.3942 0.67113 0.07968
0.70196 0.74102 0.07604
0.90296 0.78223 0.08175
1.02764 0.80558 0.10605
0 0.65296 0.10735
0 0.70034 0.11337
0.43806 0.77162 0.11231
0.71229 0.83243 0.10336
0.90446 0.87285 0.10524
1.03173 0.89766 0.12395
0 0 0.23653
0.15746 0 0.3344
0.44044 0 0.39697
0.63298 0 0.42386
0.72845 0 0.44165
0.79228 0 0.45969
0 0.10012 0.22941
0.05411 0.12339 0.31082
0.39527 0.15343 0.39322
0.67623 0.15755 0.44765
0.82635 0.15183 0.48128
0.90746 0.15752 0.50344
0 0.26323 0.23679
0 0.31115 0.30605
0.37065 0.37065 0.37065
0.68665 0.41425 0.4194
0.86957 0.43296 0.4542
0.97058 0.44408 0.48462
0 0.42587 0.24703
0 0.48745 0.2983
0.34241 0.56046 0.35426
0.68187 0.62091 0.39302
0.88619 0.65282 0.42346
1.00531 0.66982 0.45182
0 0.56826 0.26743
0 0.6266 0.30213
0.34317 0.69929 0.34354
0.6791 0.76469 0.37816
0.88923 0.80385 0.40445
1.01842 0.82605 0.43068
0 0.68452 0.29675
0 0.72872 0.32001
0.39364 0.79608 0.35352
0.689 0.85427 0.37984
0.88954 0.89343 0.40346
1.02107 0.91744 0.42803
0.01488 0 0.33857
0.18473 0 0.43198
0.43754 0 0.49715
0.63246 0 0.53239
0.73698 0 0.55733
0.80656 0 0.57974
0 0.11184 0.38595
0.09606 0.12778 0.47543
0.41487 0.14624 0.55889
0.68029 0.14371 0.61412
0.82902 0.13436 0.64648
0.90821 0.1395 0.66622
0 0.28937 0.42368
0 0.32921 0.49695
0.37819 0.37686 0.56947
0.68532 0.41258 0.62314
0.86449 0.42788 0.65594
0.9654 0.43717 0.67982
0 0.46349 0.4453
0 0.51601 0.50823
0.33022 0.57705 0.56954
0.67383 0.6295 0.61605
0.87751 0.65753 0.64684
0.99733 0.67233 0.66981
0 0.60954 0.46669
0 0.65964 0.50969
0.31258 0.72426 0.56175
0.66477 0.78265 0.60555
0.87751 0.818 0.63269
1.0086 0.83789 0.65417
0 0.71931 0.48803
0 0.75792 0.51583
0.36642 0.81869 0.55705
0.67244 0.87171 0.59557
0.87609 0.90764 0.62206
1.00994 0.92933 0.64174
0.05717 0 0.43896
0.22791 0 0.51801
0.45577 0 0.5783
0.64547 0 0.61601
0.7524 0 0.64139
0.82857 0 0.66899
0 0.12601 0.51367
0.17099 0.13845 0.59263
0.45325 0.15133 0.66403
0.69215 0.1478 0.71156
0.83636 0.13959 0.74037
0.91321 0.14452 0.76103
0 0.31168 0.5619
0 0.3452 0.63597
0.41361 0.38352 0.70165
0.69685 0.41218 0.75044
0.86562 0.42533 0.77886
0.96393 0.43401 0.79811
0 0.49309 0.59159
0 0.53621 0.64868
0.36209 0.58827 0.7113
0.68114 0.63353 0.76468
0.87566 0.65808 0.79351
0.99305 0.67137 0.81235
0 0.64225 0.61537
0 0.68366 0.65555
0.33648 0.74088 0.70645
0.66827 0.79038 0.75093
0.87311 0.82144 0.7839
1.00203 0.83928 0.80895
0 0.74563 0.63284
0 0.77926 0.66029
0.38103 0.83464 0.70219
0.67315 0.88097 0.73809
0.87057 0.91375 0.7672
1.00281 0.93428 0.79048
0.13492 0 0.54233
0.27749 0 0.59696
0.49083 0 0.65292
0.6706 0 0.69177
0.77912 0 0.71948
0.85482 0 0.74438
0 0.14923 0.62532
0.24755 0.15952 0.68839
0.49617 0.17005 0.74746
0.71091 0.1685 0.78799
0.84817 0.1639 0.81328
0.92233 0.16998 0.83111
0 0.33648 0.6702
0.13114 0.36275 0.72647
0.47 0.39543 0.78842
0.71942 0.41892 0.83542
0.87245 0.42986 0.86456
0.966 0.43764 0.88184
0 0.52108 0.70695
0 0.55472 0.75173
0.42421 0.59998 0.80608
0.70228 0.63732 0.84978
0.88031 0.6587 0.87884
0.99241 0.67096 0.89916
0 0.67173 0.73404
0 0.70371 0.76634
0.39945 0.75356 0.81224
0.68654 0.79477 0.84955
0.87607 0.82169 0.87661
1.00014 0.8378 0.89622
0 0.76983 0.7508
0 0.79929 0.77558
0.42661 0.84849 0.81301
0.68791 0.88809 0.84379
0.87191 0.9168 0.868
1. 0.93549 0.88649
