doc/3DLUTs/Fuji ETERNA 250D Fuji 3510 (by Adobe).cube
# Copyright 2012, Adobe Systems Inc.
# Created with ADBELUTBuilder Fri 30 Nov 2012 12:17:40
# Film Look FujiETERNA250 Fuji3510
# Copyright 2012 Adobe Systems
LUT_3D_SIZE 21
DOMAIN_MIN 0.0 0.0 0.0
DOMAIN_MAX 1.0 1.0 1.0
0.02089 0.01098 0.01093
0.02678 0.01119 0.01088
0.06986 0.01342 0.01087
0.1531 0.01642 0.00992
0.25998 0.01554 0.00672
0.35667 0.00723 0.00196
0.42489 0 0
0.49243 0 0
0.56073 0 0
0.59952 0 0
0.62686 0 0
0.65302 0 0
0.67678 0 0
0.69981 0 0
0.72231 0 0
0.73778 0 0
0.749 0 0
0.75976 0 0
0.771 0 0
0.78452 0 0
0.79786 0 0
0.02267 0.01662 0.01207
0.02416 0.0161 0.01193
0.03633 0.01685 0.01189
0.07175 0.01929 0.01181
0.13354 0.02302 0.01113
0.20565 0.02577 0.00937
0.29127 0.02518 0.00591
0.37804 0.01874 0.001
0.44596 0.00887 0
0.51587 0 0
0.58774 0 0
0.62202 0 0
0.65164 0 0
0.67979 0 0
0.70602 0 0
0.73157 0 0
0.75693 0 0
0.77069 0 0
0.78412 0 0
0.79732 0 0
0.81097 0 0
0.02522 0.04582 0.01476
0.0269 0.04231 0.01451
0.03912 0.042 0.01433
0.06629 0.04354 0.01398
0.12677 0.05042 0.01304
0.1923 0.05732 0.01112
0.26852 0.06296 0.00772
0.35816 0.06509 0.00222
0.43091 0.0619 0
0.49797 0.05443 0
0.56637 0.04182 0
0.63047 0.02548 0
0.66031 0.01746 0
0.68939 0.00957 0
0.71693 0.00241 0
0.74289 0 0
0.76817 0 0
0.79145 0 0
0.80464 0 0
0.81755 0 0
0.83039 0 0
0.02234 0.08432 0.01616
0.02514 0.08043 0.01572
0.0389 0.07977 0.01545
0.06368 0.08009 0.01497
0.1272 0.08859 0.01356
0.19118 0.09688 0.01116
0.26372 0.10504 0.00732
0.34739 0.11173 0.00153
0.43082 0.11467 0
0.49498 0.11348 0
0.56134 0.10969 0
0.62949 0.10255 0
0.67393 0.09533 0
0.7022 0.08984 0
0.7299 0.08404 0
0.75537 0.07868 0
0.78028 0.07323 0
0.80483 0.06766 0
0.82365 0.064 0
0.83616 0.06338 0
0.84845 0.06348 0
0.01269 0.12565 0.01593
0.0177 0.12119 0.01552
0.03437 0.11994 0.01498
0.06189 0.11962 0.01439
0.12697 0.12785 0.01245
0.19102 0.13677 0.0095
0.26177 0.14623 0.00511
0.34146 0.15524 0
0.43243 0.16278 0
0.49532 0.16458 0
0.56016 0.16475 0
0.62599 0.16308 0
0.68871 0.15927 0
0.7168 0.15607 0
0.74413 0.15284 0
0.77022 0.14975 0
0.79481 0.14698 0
0.81897 0.14428 0
0.84333 0.14148 0
0.85682 0.14052 0
0.86865 0.14022 0
0 0.1656 0.01401
0.00348 0.16202 0.01373
0.02427 0.16151 0.01269
0.05554 0.16237 0.01191
0.12538 0.17213 0.00921
0.19273 0.18302 0.00532
0.26325 0.19321 0.00025
0.34079 0.20355 0
0.42825 0.21337 0
0.50021 0.21844 0
0.56335 0.22081 0
0.6279 0.222 0
0.69437 0.22176 0
0.7342 0.21983 0
0.76127 0.21783 0
0.78787 0.21592 0
0.81243 0.21439 0
0.83643 0.21303 0
0.86005 0.21184 0
0.88072 0.21083 0
0.89249 0.2108 0
0 0.20774 0.01076
0 0.20435 0.01045
0.00808 0.2036 0.00892
0.04411 0.20402 0.00756
0.12185 0.21406 0.00417
0.1928 0.2258 0
0.26419 0.23809 0
0.341 0.25073 0
0.42657 0.26327 0
0.5065 0.2725 0
0.56875 0.27724 0
0.63282 0.28109 0
0.69808 0.28391 0
0.75325 0.28482 0
0.78032 0.28388 0
0.80687 0.28296 0
0.83214 0.28216 0
0.85602 0.28152 0
0.87949 0.28097 0
0.90309 0.28054 0
0.91776 0.28019 0
0 0.24979 0.0066
0 0.24834 0.00596
0 0.24915 0.00412
0.02442 0.249 0.00198
0.11646 0.25925 0
0.19252 0.27151 0
0.26548 0.28433 0
0.34218 0.29775 0
0.4261 0.31132 0
0.5122 0.32329 0
0.57329 0.32888 0
0.63654 0.33386 0
0.70037 0.33799 0
0.76638 0.34123 0
0.79533 0.34059 0
0.82165 0.3399 0
0.84742 0.33926 0
0.87112 0.33889 0
0.89441 0.33863 0
0.91732 0.33847 0
0.93853 0.33844 0
0 0.28552 0.00267
0 0.28521 0.00143
0 0.28621 0
0.00011 0.28791 0
0.10872 0.3013 0
0.19102 0.31536 0
0.26652 0.33005 0
0.34403 0.34573 0
0.42751 0.36172 0
0.51827 0.37621 0
0.57936 0.38257 0
0.64173 0.38831 0
0.70473 0.39337 0
0.76948 0.39774 0
0.81082 0.39869 0
0.83695 0.39815 0
0.86263 0.39768 0
0.88697 0.39757 0
0.9106 0.39778 0
0.9339 0.3981 0
0.95748 0.39846 0
0 0.32158 0
0 0.32186 0
0 0.32308 0
0 0.32553 0
0.09975 0.33973 0
0.18819 0.35388 0
0.26592 0.36879 0
0.34404 0.38454 0
0.42676 0.40073 0
0.51624 0.41703 0
0.58271 0.42644 0
0.64453 0.43404 0
0.70736 0.44128 0
0.77151 0.4479 0
0.82444 0.45212 0
0.85104 0.45281 0
0.87723 0.45352 0
0.90247 0.45426 0
0.92616 0.45506 0
0.9495 0.4559 0
0.97255 0.45678 0
0 0.35853 0
0 0.35901 0
0 0.36041 0
0 0.3649 0
0.08981 0.37914 0
0.18535 0.39327 0
0.26579 0.40836 0
0.34471 0.42463 0
0.42715 0.44143 0
0.51559 0.45849 0
0.58625 0.46972 0
0.6474 0.47784 0
0.70973 0.48552 0
0.77291 0.49262 0
0.83521 0.49876 0
0.8619 0.49942 0
0.88791 0.5001 0
0.9135 0.50082 0
0.93704 0.5016 0
0.96042 0.50272 0
0.98352 0.50393 0
0 0.38692 0
0 0.38968 0
0 0.39293 0
0 0.40204 0
0.07537 0.41826 0
0.1807 0.43268 0
0.26447 0.44812 0
0.34494 0.46458 0
0.42772 0.48163 0
0.51561 0.49906 0
0.58971 0.51161 0
0.65026 0.51999 0
0.71218 0.52802 0
0.77452 0.53551 0
0.83868 0.54255 0
0.87181 0.54418 0
0.89777 0.54506 0
0.9234 0.54606 0
0.94747 0.54711 0
0.9707 0.5482 0
0.99362 0.54934 0
0 0.41543 0
0 0.41862 0
0 0.42174 0
0 0.43384 0
0.06389 0.44944 0
0.17743 0.46532 0
0.26368 0.48243 0
0.34537 0.50058 0
0.42865 0.51941 0
0.51647 0.53871 0
0.59332 0.55289 0
0.65337 0.5614 0
0.71493 0.56981 0
0.77657 0.57784 0
0.83998 0.58549 0
0.88147 0.58887 0
0.90731 0.58976 0
0.93279 0.59069 0
0.95719 0.59167 0
0.98028 0.5927 0
1.00306 0.59378 0
0 0.44417 0
0 0.44736 0
0 0.45243 0
0 0.46598 0
0.0539 0.48087 0
0.17568 0.49645 0
0.26397 0.51342 0
0.34619 0.5316 0
0.42934 0.55056 0
0.51643 0.57006 0
0.59509 0.58618 0
0.65495 0.5966 0
0.71645 0.6068 0
0.77789 0.61644 0
0.84099 0.62572 0
0.89015 0.63182 0
0.91622 0.63378 0
0.94192 0.63568 0
0.96662 0.63659 0
0.9896 0.63755 0
1.01227 0.63857 0
0 0.47372 0
0 0.47684 0
0 0.48633 0
0 0.49958 0
0.04016 0.51384 0
0.17237 0.52926 0
0.26348 0.54614 0
0.34696 0.56413 0
0.43051 0.58295 0
0.51731 0.60238 0
0.59705 0.61895 0
0.65637 0.62936 0
0.71725 0.6396 0
0.77817 0.64936 0
0.84049 0.65879 0
0.89593 0.66625 0
0.92181 0.66816 0
0.94737 0.67007 0
0.97258 0.67197 0
0.9958 0.67382 0
1.01867 0.67578 0
0 0.504 0
0 0.50889 0
0 0.5212 0
0 0.53387 0
0.02618 0.54746 0
0.16963 0.56256 0
0.26382 0.57922 0
0.34857 0.59699 0
0.43263 0.61568 0
0.51928 0.63502 0
0.59943 0.6518 0
0.65829 0.66219 0
0.71862 0.67245 0
0.77907 0.68229 0
0.84068 0.69182 0
0.90142 0.70053 0
0.92728 0.7025 0
0.9527 0.70448 0
0.9778 0.70646 0
1.00129 0.70838 0
1.02403 0.7103 0
0 0.53056 0.00092
0 0.54329 0
0 0.55645 0
0 0.56819 0
0.01407 0.58141 0
0.16779 0.59614 0
0.2651 0.61262 0
0.35107 0.63016 0
0.4357 0.64869 0
0.52227 0.66791 0
0.60218 0.68469 0
0.6606 0.69512 0
0.72043 0.70548 0
0.78043 0.71547 0
0.84142 0.72518 0
0.90395 0.73461 0
0.93262 0.7371 0
0.95789 0.73903 0
0.98286 0.74096 0
1.00656 0.74285 0
1.0292 0.74472 0
0 0.55475 0.00972
0 0.56899 0
0 0.58216 0
0 0.59498 0
0.01377 0.61 0
0.16912 0.62686 0
0.26727 0.64551 0
0.35408 0.66431 0
0.43937 0.68273 0
0.52597 0.70187 0
0.60508 0.71848 0
0.66319 0.72884 0
0.72262 0.73917 0
0.78223 0.74919 0
0.84268 0.75894 0
0.90461 0.76846 0
0.93779 0.77184 0
0.96292 0.77371 0
0.98777 0.77559 0
1.01166 0.77744 0
1.03422 0.77933 0
0 0.5826 0.02653
0 0.59599 0.0152
0 0.60772 0.00515
0 0.61987 0
0.02096 0.63421 0
0.17469 0.65047 0
0.27223 0.66847 0
0.35854 0.68778 0
0.44353 0.70836 0
0.52987 0.72977 0
0.60759 0.74846 0
0.66571 0.76135 0
0.72511 0.77355 0
0.78439 0.78358 0
0.84439 0.79339 0
0.90582 0.80301 0
0.94282 0.80726 0
0.96786 0.80915 0
0.99262 0.81106 0
1.01672 0.81298 0
1.0392 0.81487 0
0 0.61055 0.049
0 0.62266 0.03819
0 0.63359 0.02815
0 0.64518 0.01711
0.03007 0.65891 0.00369
0.18113 0.67468 0
0.27788 0.6921 0
0.36396 0.7109 0
0.44847 0.73096 0
0.53416 0.7519 0
0.60923 0.76968 0
0.66672 0.78232 0
0.72558 0.79498 0
0.7847 0.80735 0
0.84457 0.81948 0
0.90592 0.83142 0
0.94654 0.83851 0
0.97192 0.84236 0
0.99705 0.84616 0
1.02146 0.84866 0
1.04388 0.85051 0
0 0.63812 0.074
0 0.64907 0.0657
0 0.65945 0.05675
0 0.67052 0.0458
0.04417 0.68369 0.03213
0.18978 0.69897 0.01579
0.28513 0.71583 0
0.37075 0.73414 0
0.45464 0.75369 0
0.53966 0.77415 0
0.61142 0.79084 0
0.66829 0.80322 0
0.7265 0.81566 0
0.78494 0.82785 0
0.84413 0.83983 0
0.90477 0.85167 0
0.94774 0.8593 0
0.97291 0.86309 0
0.99784 0.86684 0
1.02252 0.87055 0
1.0453 0.87404 0
0.02015 0.01179 0.018
0.02667 0.01207 0.01883
0.06663 0.01397 0.01809
0.14429 0.01677 0.01719
0.22844 0.01708 0.01438
0.32127 0.01165 0.00952
0.39576 0.00175 0.00432
0.46329 0 0
0.53094 0 0
0.58908 0 0
0.61705 0 0
0.64407 0 0
0.66898 0 0
0.69278 0 0
0.71588 0 0
0.73694 0 0
0.74884 0 0
0.76061 0 0
0.77218 0 0
0.78557 0 0
0.80008 0 0
0.02153 0.01521 0.01591
0.02309 0.01501 0.01601
0.03409 0.01564 0.01541
0.06337 0.01749 0.01467
0.12204 0.02081 0.01364
0.18959 0.0233 0.01178
0.26978 0.02299 0.00852
0.36022 0.01676 0.00345
0.4257 0.0074 0
0.49388 0 0
0.56449 0 0
0.61098 0 0
0.64122 0 0
0.67056 0 0
0.6976 0 0
0.724 0 0
0.75023 0 0
0.76815 0 0
0.7827 0 0
0.79707 0 0
0.81176 0 0
0.02369 0.03428 0.01906
0.02519 0.03258 0.019
0.03586 0.03259 0.0183
0.05782 0.03363 0.0172
0.11469 0.03909 0.01592
0.17636 0.04472 0.01394
0.24845 0.0497 0.0108
0.33354 0.05162 0.00582
0.41063 0.04831 0.00018
0.47622 0.04127 0
0.54385 0.02979 0
0.61405 0.01295 0
0.6477 0.00465 0
0.67754 0 0
0.70629 0 0
0.73343 0 0
0.76014 0 0
0.78685 0 0
0.8023 0 0
0.81652 0 0
0.83053 0 0
0.02137 0.07266 0.02231
0.02389 0.07001 0.02224
0.0365 0.0696 0.02142
0.0587 0.06981 0.01998
0.11804 0.07715 0.01807
0.17867 0.08472 0.01549
0.24805 0.09244 0.01174
0.32799 0.09894 0.00624
0.41424 0.10226 0
0.47709 0.10136 0
0.54265 0.09785 0
0.60993 0.09095 0
0.66321 0.0825 0
0.6921 0.07718 0
0.72051 0.07149 0
0.74713 0.06607 0
0.77291 0.06064 0
0.79829 0.05503 0
0.82134 0.05005 0
0.83509 0.04985 0
0.84864 0.05049 0
0.01233 0.11347 0.02433
0.01675 0.11018 0.02421
0.03226 0.10923 0.02324
0.05785 0.10883 0.02157
0.11899 0.11601 0.01903
0.18083 0.12438 0.01578
0.24876 0.13333 0.01133
0.3254 0.14201 0.00524
0.41319 0.14951 0
0.48 0.15214 0
0.54392 0.15265 0
0.60914 0.15133 0
0.67692 0.14764 0
0.70777 0.14475 0
0.73572 0.14202 0
0.76283 0.13935 0
0.78821 0.13703 0
0.81321 0.13477 0
0.83843 0.13257 0
0.85628 0.13175 0
0.86939 0.1322 0
0 0.15589 0.02503
0.00122 0.15313 0.02489
0.02137 0.15286 0.02366
0.05135 0.15317 0.02171
0.11836 0.16008 0.01844
0.18359 0.16896 0.01432
0.25164 0.17869 0.00935
0.32659 0.18875 0.0029
0.4114 0.1984 0
0.48635 0.20426 0
0.54861 0.20694 0
0.61269 0.2085 0
0.67862 0.20866 0
0.72558 0.20733 0
0.75323 0.20596 0
0.78048 0.20466 0
0.80604 0.2037 0
0.83094 0.20303 0
0.85571 0.20263 0
0.88027 0.20225 0
0.89319 0.20304 0
0 0.19898 0.02426
0 0.1963 0.024
0.00356 0.19585 0.02247
0.03827 0.1962 0.0206
0.11464 0.20524 0.01678
0.18488 0.21628 0.01191
0.25479 0.22795 0.00584
0.32993 0.24016 0
0.41353 0.25238 0
0.496 0.26221 0
0.55756 0.26714 0
0.62125 0.27127 0
0.68609 0.2744 0
0.74734 0.27604 0
0.77492 0.27563 0
0.80201 0.27527 0
0.82822 0.2751 0
0.85296 0.2751 0
0.8774 0.27525 0
0.90185 0.27554 0
0.92025 0.27595 0
0 0.24512 0.02245
0 0.24288 0.02234
0 0.2424 0.02094
0.01529 0.24249 0.01888
0.10705 0.25225 0.01402
0.18404 0.26375 0.00806
0.25645 0.27592 0.00099
0.33219 0.28883 0
0.41478 0.302 0
0.50323 0.31441 0
0.56386 0.32009 0
0.62688 0.32523 0
0.69047 0.3296 0
0.75632 0.33314 0
0.79125 0.33347 0
0.81824 0.3335 0
0.84488 0.33364 0
0.86954 0.33401 0
0.89375 0.3345 0
0.91765 0.33509 0
0.94176 0.33567 0
0 0.28285 0.02189
0 0.28303 0.02096
0 0.28417 0.01893
0 0.28591 0.0163
0.09533 0.29885 0.00982
0.18107 0.31251 0.0024
0.25732 0.32681 0
0.33475 0.34084 0
0.41733 0.35477 0
0.50722 0.36872 0
0.57134 0.37575 0
0.63356 0.38157 0
0.69663 0.38682 0
0.76145 0.39162 0
0.80835 0.39373 0
0.83513 0.39384 0
0.86153 0.39405 0
0.8866 0.39444 0
0.91059 0.39499 0
0.93426 0.39566 0
0.95807 0.39641 0
0 0.32086 0.02075
0 0.32135 0.01922
0 0.32265 0.01665
0 0.32517 0.01346
0.08219 0.33895 0.00582
0.17686 0.35275 0
0.25626 0.3673 0
0.33502 0.38278 0
0.41783 0.39872 0
0.50714 0.41483 0
0.5766 0.42509 0
0.63861 0.4329 0
0.70172 0.44018 0
0.76604 0.44685 0
0.82385 0.4518 0
0.85076 0.45271 0
0.87728 0.45366 0
0.90301 0.45465 0
0.92697 0.45556 0
0.95043 0.45616 0
0.97359 0.45687 0
0 0.35938 0.01867
0 0.36003 0.01665
0 0.36144 0.01354
0 0.366 0.00923
0.0653 0.37987 0.00073
0.17172 0.39371 0
0.25487 0.40863 0
0.33516 0.42456 0
0.4182 0.44105 0
0.50685 0.45783 0
0.58036 0.46958 0
0.64174 0.4777 0
0.7044 0.48542 0
0.76781 0.49259 0
0.83314 0.49924 0
0.86157 0.5003 0
0.8879 0.50123 0
0.91386 0.50219 0
0.93784 0.50323 0
0.96134 0.50434 0
0.98452 0.50549 0
0 0.39172 0.01843
0 0.39455 0.01567
0 0.39772 0.01237
0 0.40685 0.00635
0.04127 0.42101 0
0.16428 0.43501 0
0.25247 0.45011 0
0.33494 0.46628 0
0.41876 0.48308 0
0.5072 0.50028 0
0.58404 0.51331 0
0.64494 0.52169 0
0.70726 0.52976 0
0.7699 0.53731 0
0.83436 0.54443 0
0.87168 0.54686 0
0.89785 0.54772 0
0.92363 0.54863 0
0.94795 0.54959 0
0.97131 0.55064 0
0.99439 0.55183 0
0 0.42108 0.02235
0 0.42432 0.01859
0 0.42741 0.01505
0 0.43954 0.0072
0.02173 0.45482 0
0.15782 0.47043 0
0.25019 0.48726 0
0.33467 0.50517 0
0.4195 0.52378 0
0.50805 0.54179 0
0.5875 0.55582 0
0.64801 0.56434 0
0.71004 0.57264 0
0.77202 0.58045 0
0.83571 0.58791 0
0.88088 0.59173 0
0.90689 0.59252 0
0.93257 0.59347 0
0.95726 0.59448 0
0.98052 0.59556 0
1.00347 0.5967 0
0 0.45089 0.02649
0 0.45402 0.02249
0 0.45935 0.01754
0 0.47267 0.0085
0.00377 0.48729 0
0.15287 0.50266 0
0.24893 0.51934 0
0.33475 0.53713 0
0.41991 0.55569 0
0.50825 0.57481 0
0.5896 0.59111 0
0.64998 0.60129 0
0.71192 0.61126 0
0.77376 0.62074 0
0.83716 0.62993 0
0.88968 0.63653 0
0.91581 0.63804 0
0.94138 0.63893 0
0.96638 0.63987 0
0.98953 0.64089 0
1.01237 0.64196 0
0 0.48088 0.03144
0 0.48386 0.02731
0 0.49346 0.01984
0 0.50639 0.01025
0 0.52028 0
0.1486 0.53536 0
0.24842 0.55186 0
0.33565 0.56949 0
0.42128 0.58798 0
0.50933 0.60714 0
0.59152 0.62393 0
0.65136 0.63422 0
0.71268 0.64435 0
0.77403 0.65402 0
0.83666 0.66336 0
0.89519 0.67129 0
0.92127 0.67321 0
0.94702 0.67513 0
0.97241 0.67704 0
0.99589 0.6789 0
1.01888 0.68076 0
0 0.51096 0.03851
0 0.51608 0.03254
0 0.5281 0.02325
0 0.54049 0.01352
0 0.55385 0.00275
0.14447 0.5687 0
0.24821 0.5851 0
0.33694 0.60262 0
0.42321 0.62106 0
0.51124 0.64017 0
0.59375 0.65715 0
0.65316 0.66743 0
0.71397 0.67759 0
0.77486 0.68735 0
0.83682 0.6968 0
0.90032 0.70595 0
0.92647 0.70783 0
0.95205 0.7097 0
0.97731 0.71157 0
1.00104 0.7135 0
1.02394 0.71544 0
0 0.54043 0.05387
0 0.55282 0.04389
0 0.56437 0.03396
0 0.5758 0.02385
0 0.58874 0.01199
0.13828 0.60317 0
0.24769 0.61939 0
0.33839 0.63666 0
0.42564 0.65494 0
0.51386 0.67392 0
0.59615 0.69086 0
0.65525 0.7011 0
0.71564 0.71127 0
0.77615 0.72112 0
0.83754 0.7307 0
0.90042 0.74002 0
0.93159 0.74291 0
0.95706 0.74482 0
0.98221 0.74674 0
1.00617 0.74865 0
1.02897 0.75054 0
0 0.56599 0.07174
0 0.57995 0.06238
0 0.59278 0.05236
0 0.60535 0.04146
0 0.6201 0.02796
0.13376 0.63665 0.01211
0.24717 0.65473 0
0.34005 0.67175 0
0.42849 0.68986 0
0.5171 0.7087 0
0.59864 0.72537 0
0.65752 0.73555 0
0.7176 0.7457 0
0.7778 0.75557 0
0.83871 0.76518 0
0.90105 0.77459 0
0.93653 0.77834 0
0.96188 0.78018 0
0.98693 0.78205 0
1.01108 0.78393 0
1.03379 0.78579 0
0 0.59343 0.08939
0 0.60662 0.0815
0 0.61812 0.07392
0 0.63011 0.06497
0 0.64426 0.05255
0.13951 0.6603 0.03653
0.25182 0.67809 0.01778
0.34402 0.69718 0
0.43238 0.71754 0
0.5209 0.73872 0
0.60101 0.75747 0
0.65999 0.77019 0
0.71985 0.78054 0
0.77976 0.7904 0
0.84026 0.80004 0
0.90213 0.80952 0
0.94126 0.81404 0
0.96649 0.81583 0
0.99144 0.81766 0
1.01577 0.81949 0
1.03841 0.82131 0
0 0.62081 0.10764
0 0.63269 0.10138
0 0.64347 0.09518
0 0.65492 0.08788
0 0.66846 0.07809
0.1479 0.68406 0.06521
0.25825 0.7013 0.04744
0.34993 0.7199 0.02539
0.43765 0.73977 0.00051
0.52544 0.76051 0
0.60268 0.77834 0
0.661 0.79084 0
0.72055 0.80337 0
0.78028 0.81561 0
0.84066 0.82761 0
0.90245 0.83943 0
0.94502 0.84678 0
0.9706 0.85054 0
0.99569 0.85334 0
1.02017 0.85513 0
1.04275 0.85689 0
0 0.6478 0.12682
0 0.65862 0.12179
0 0.66888 0.11659
0 0.67983 0.11053
0 0.69286 0.10267
0.15859 0.70799 0.09245
0.26624 0.72469 0.07907
0.35715 0.74283 0.06089
0.4441 0.76221 0.03565
0.53115 0.78249 0.00659
0.60488 0.79923 0
0.66255 0.81148 0
0.72145 0.8238 0
0.78049 0.83587 0
0.84017 0.84773 0
0.90125 0.85944 0
0.946 0.86728 0
0.97136 0.87098 0
0.99646 0.87465 0
1.02131 0.87826 0
1.04427 0.88168 0
0.01788 0.01346 0.0492
0.02597 0.01371 0.05266
0.07063 0.01556 0.05213
0.14081 0.01783 0.05036
0.21858 0.01831 0.04689
0.3094 0.01371 0.04161
0.39078 0.00353 0.035
0.45843 0 0.02815
0.52646 0 0.02073
0.59401 0 0.01278
0.62263 0 0.00861
0.64996 0 0.00483
0.67549 0 0.00151
0.69952 0 0
0.72285 0 0
0.74632 0 0
0.75916 0 0
0.77071 0 0
