doc/3DLUTs/Fuji ETERNA 250D Fuji 3510 (by Adobe).cube
# Copyright 2012, Adobe Systems Inc.
# Created with ADBELUTBuilder Fri 30 Nov 2012 12:17:40
# Film Look FujiETERNA250 Fuji3510
# Copyright 2012 Adobe Systems
LUT_3D_SIZE 6
DOMAIN_MIN 0.0 0.0 0.0
DOMAIN_MAX 1.0 1.0 1.0
0.02089 0.01098 0.01093
0.25998 0.01554 0.00672
0.56073 0 0
0.67678 0 0
0.749 0 0
0.79786 0 0
0.01269 0.12565 0.01593
0.12697 0.12785 0.01245
0.43243 0.16278 0
0.68871 0.15927 0
0.79481 0.14698 0
0.86865 0.14022 0
0 0.28552 0.00267
0.10872 0.3013 0
0.42751 0.36172 0
0.70473 0.39337 0
0.86263 0.39768 0
0.95748 0.39846 0
0 0.41543 0
0.06389 0.44944 0
0.42865 0.51941 0
0.71493 0.56981 0
0.90731 0.58976 0
1.00306 0.59378 0
0 0.53056 0.00092
0.01407 0.58141 0
0.4357 0.64869 0
0.72043 0.70548 0
0.93262 0.7371 0
1.0292 0.74472 0
0 0.63812 0.074
0.04417 0.68369 0.03213
0.45464 0.75369 0
0.7265 0.81566 0
0.94774 0.8593 0
1.0453 0.87404 0
0.01214 0.01208 0.17138
0.20799 0.01551 0.16292
0.52072 0 0.14157
0.68627 0 0.11773
0.77594 0 0.10308
0.82409 0 0.09899
0 0.12159 0.12609
0.1045 0.12395 0.12373
0.40246 0.15161 0.12069
0.67205 0.14733 0.1049
0.79766 0.13439 0.09668
0.88523 0.12788 0.09567
0 0.30129 0.14961
0.01727 0.31579 0.14349
0.39819 0.36193 0.13203
0.68693 0.39208 0.10669
0.86363 0.3991 0.08542
0.96185 0.40139 0.08001
0 0.44988 0.17419
0 0.48189 0.16399
0.39174 0.5431 0.14459
0.69769 0.589 0.10853
0.90581 0.60863 0.07103
1.00459 0.61203 0.0619
0 0.57186 0.20962
0 0.61697 0.19946
0.39081 0.6798 0.179
0.70033 0.73394 0.14314
0.92707 0.7647 0.10269
1.02675 0.77114 0.09252
0 0.67827 0.26237
0 0.72172 0.25459
0.40898 0.78901 0.23726
0.70481 0.84907 0.20816
0.93899 0.89191 0.17437
1.03946 0.90528 0.16424
0.01991 0 0.33149
0.21026 0 0.35399
0.50699 0 0.36171
0.69205 0 0.34701
0.78959 0 0.33377
0.84242 0 0.32819
0 0.13465 0.33186
0.10065 0.13721 0.33709
0.40876 0.15728 0.35378
0.67397 0.14896 0.35584
0.80627 0.13353 0.35402
0.89885 0.12485 0.35463
0 0.33187 0.36645
0 0.34365 0.37026
0.38267 0.38267 0.38267
0.67807 0.40788 0.38423
0.86287 0.41322 0.38081
0.9622 0.41421 0.37982
0 0.49027 0.38736
0 0.5233 0.39289
0.35358 0.57506 0.40082
0.67961 0.61634 0.39986
0.89846 0.63426 0.39437
0.99965 0.63606 0.39214
0 0.61583 0.40889
0 0.65636 0.41416
0.33936 0.71488 0.41863
0.67639 0.76519 0.41527
0.91484 0.79448 0.40785
1.01732 0.7994 0.40484
0 0.71988 0.43811
0 0.76106 0.44153
0.35815 0.82548 0.44375
0.67934 0.88274 0.43874
0.92458 0.92458 0.4299
1.02772 0.93671 0.42597
0.05643 0 0.43779
0.24055 0 0.46919
0.50439 0 0.48762
0.69096 0 0.48679
0.78939 0 0.48329
0.85147 0 0.48575
0 0.13311 0.47712
0.14336 0.13828 0.4978
0.43857 0.15168 0.52617
0.68369 0.13853 0.53594
0.81126 0.1215 0.53745
0.90524 0.11129 0.5396
0 0.34341 0.53245
0 0.36052 0.55082
0.39692 0.39424 0.57585
0.6798 0.41423 0.58725
0.86093 0.41816 0.58911
0.95937 0.41866 0.58886
0 0.51849 0.56398
0 0.55094 0.58255
0.34811 0.59762 0.60371
0.6724 0.63321 0.61445
0.89086 0.64925 0.61652
0.99234 0.65032 0.61507
0 0.65397 0.58834
0 0.68897 0.60192
0.31615 0.74326 0.61924
0.66228 0.7882 0.62826
0.90285 0.81541 0.63009
1.00641 0.81954 0.62838
0 0.76062 0.60981
0 0.79889 0.62048
0.32588 0.8597 0.6343
0.66056 0.91224 0.64089
0.90986 0.95212 0.64213
1.01365 0.95724 0.64006
0.13432 0 0.51956
0.29139 0 0.5513
0.51837 0 0.5773
0.69571 0 0.58906
0.79359 0 0.59754
0.85994 0 0.6073
0 0.13257 0.59233
0.21145 0.13843 0.62188
0.47292 0.14427 0.65521
0.70439 0.12589 0.67251
0.81904 0.10877 0.67442
0.91178 0.09763 0.67699
0 0.35546 0.66502
0.02577 0.37333 0.68764
0.44156 0.40258 0.71609
0.69533 0.41672 0.72884
0.86318 0.41907 0.7322
0.95901 0.41938 0.73244
0 0.54482 0.70195
0 0.57118 0.72088
0.38763 0.613 0.74584
0.68222 0.64153 0.75898
0.8888 0.65504 0.76356
0.98836 0.6558 0.76265
0 0.68309 0.72369
0 0.71398 0.73913
0.34919 0.76319 0.7602
0.66715 0.80074 0.77194
0.89763 0.82496 0.77706
0.99985 0.82865 0.77607
0 0.79456 0.74195
0 0.82963 0.75484
0.34901 0.88599 0.77258
0.6607 0.93135 0.78217
0.90185 0.96325 0.78685
1.00467 0.96665 0.78549
0.21406 0 0.59162
0.3602 0 0.61838
0.547 0 0.64034
0.70746 0 0.65583
0.80107 0 0.6658
0.86873 0 0.67628
0.13125 0.14201 0.67215
0.29544 0.1474 0.69723
0.5162 0.14812 0.7243
0.73184 0.12863 0.74159
0.82897 0.11357 0.74659
0.91867 0.10259 0.75262
0 0.37043 0.74519
0.20145 0.38634 0.76846
0.49947 0.41024 0.79835
0.72291 0.42017 0.8144
0.86989 0.42105 0.82105
0.96212 0.42136 0.8242
0 0.56525 0.79315
0 0.5885 0.81387
0.46062 0.62605 0.84269
0.70653 0.64696 0.85834
0.89218 0.65788 0.86685
0.9884 0.65891 0.86879
0 0.70795 0.82174
0 0.73592 0.83969
0.42259 0.78091 0.86517
0.6876 0.8102 0.88004
0.89827 0.83098 0.88962
0.99755 0.83456 0.89144
0 0.82593 0.84433
0 0.85789 0.8596
0.41408 0.90983 0.88176
0.67668 0.94572 0.89474
0.89966 0.96983 0.90363
1. 0.97318 0.90501
