doc/3DLUTs/Fuji REALA 500D Kodak 2393 (by Adobe).cube
# Copyright 2012, Adobe Systems Inc.
# Created with ADBELUTBuilder Fri 30 Nov 2012 12:21:46
# Film Look FujiREALA500D Kodak2393
# Copyright 2012 Adobe Systems
LUT_3D_SIZE 21
DOMAIN_MIN 0.0 0.0 0.0
DOMAIN_MAX 1.0 1.0 1.0
0.00498 0.00332 0.00382
0.00824 0.00369 0.00418
0.03226 0.00536 0.00525
0.10153 0.0074 0.00579
0.18959 0.00744 0.00505
0.29424 0.00162 0.00247
0.38702 0 0
0.46979 0 0
0.51906 0 0
0.55396 0 0
0.58832 0 0
0.61715 0 0
0.63587 0 0
0.65426 0 0
0.67169 0 0
0.68907 0 0
0.70812 0 0
0.71958 0 0
0.73054 0 0
0.74179 0 0
0.75551 0 0
0.00476 0.00704 0.00454
0.0074 0.00716 0.00474
0.02146 0.00902 0.0055
0.06062 0.01222 0.00618
0.13482 0.01622 0.00613
0.20979 0.01863 0.00496
0.29453 0.01747 0.00244
0.37972 0.01103 0
0.44765 0.00153 0
0.51861 0 0
0.56273 0 0
0.60082 0 0
0.63834 0 0
0.6684 0 0
0.68973 0 0
0.71141 0 0
0.73299 0 0
0.75422 0 0
0.77305 0 0
0.78612 0 0
0.79961 0 0
0 0.02439 0.00571
0.00373 0.02352 0.00588
0.02037 0.0272 0.00648
0.05895 0.03361 0.00691
0.1282 0.04263 0.00658
0.20251 0.05173 0.00517
0.27918 0.05865 0.00261
0.37194 0.06233 0
0.4455 0.06097 0
0.51424 0.05559 0
0.58143 0.04548 0
0.62204 0.03794 0
0.66032 0.0299 0
0.69787 0.02112 0
0.72715 0.01481 0
0.74851 0.0118 0
0.76953 0.00942 0
0.79011 0.00774 0
0.81036 0.00679 0
0.82838 0.00769 0
0.84085 0.0125 0
0 0.05439 0.00602
0 0.05388 0.0062
0.01236 0.06055 0.00658
0.05325 0.07061 0.00669
0.12523 0.08358 0.00591
0.20151 0.09637 0.00383
0.27606 0.10696 0.0007
0.36457 0.11667 0
0.45113 0.12276 0
0.51818 0.12493 0
0.58819 0.12474 0
0.64285 0.12284 0
0.68084 0.12092 0
0.71842 0.11843 0
0.75475 0.11554 0
0.77906 0.11427 0
0.79962 0.11382 0
0.81945 0.11379 0
0.8389 0.11414 0
0.85837 0.11493 0
0.87392 0.11719 0
0 0.09285 0.00549
0 0.09392 0.00567
0 0.1022 0.00563
0.04068 0.11338 0.0051
0.11932 0.12817 0.00353
0.19978 0.14353 0.00065
0.27534 0.15675 0
0.35948 0.16945 0
0.45198 0.18063 0
0.52191 0.18682 0
0.59035 0.19114 0
0.65881 0.19365 0
0.69829 0.19436 0
0.73565 0.19469 0
0.77265 0.19481 0
0.80628 0.1948 0
0.82666 0.19545 0
0.8464 0.19635 0
0.86564 0.19754 0
0.88512 0.19915 0
0.90359 0.20114 0
0 0.12185 0.00434
0 0.12515 0.00438
0 0.13496 0.00394
0.02499 0.14744 0.00288
0.11014 0.16381 0.00065
0.19491 0.1813 0
0.27003 0.19628 0
0.35246 0.21123 0
0.44423 0.22551 0
0.5212 0.23526 0
0.58797 0.24205 0
0.65736 0.24755 0
0.70824 0.25052 0
0.74559 0.25224 0
0.78255 0.2536 0
0.81818 0.25459 0
0.84428 0.25529 0
0.86377 0.256 0
0.88302 0.25698 0
0.90192 0.25806 0
0.92043 0.25925 0
0 0.15712 0.0022
0 0.16162 0.00201
0 0.17159 0.00117
0.00281 0.18439 0
0.0988 0.20111 0
0.18878 0.21913 0
0.26554 0.23487 0
0.34693 0.25062 0
0.43672 0.26617 0
0.52004 0.27845 0
0.58522 0.28644 0
0.65303 0.29356 0
0.71514 0.29885 0
0.75243 0.30142 0
0.78902 0.30368 0
0.82475 0.3056 0
0.85821 0.30722 0
0.87816 0.30849 0
0.89754 0.30998 0
0.9164 0.3116 0
0.93489 0.31338 0
0 0.19792 0
0 0.2058 0
0 0.21755 0
0 0.23211 0
0.07742 0.25052 0
0.18094 0.27036 0
0.26192 0.28799 0
0.34501 0.30586 0
0.4342 0.32374 0
0.52419 0.33983 0
0.58955 0.3499 0
0.65644 0.35909 0
0.72572 0.36741 0
0.76651 0.37147 0
0.80298 0.37479 0
0.83935 0.37805 0
0.8746 0.38106 0
0.90031 0.38324 0
0.91973 0.38502 0
0.93845 0.38684 0
0.95679 0.38875 0
0 0.23532 0
0 0.24626 0
0 0.25957 0
0 0.27572 0
0.04862 0.29524 0
0.17101 0.31639 0
0.25645 0.33529 0
0.34163 0.35466 0
0.43046 0.37396 0
0.52046 0.3919 0
0.59082 0.40438 0
0.6567 0.41493 0
0.72481 0.42479 0
0.77593 0.43147 0
0.81259 0.43582 0
0.84896 0.43988 0
0.88421 0.44362 0
0.91635 0.44687 0
0.93575 0.44885 0
0.95445 0.45084 0
0.97271 0.45289 0
0 0.27347 0
0 0.28623 0
0 0.29972 0
0 0.31717 0
0.01704 0.33721 0
0.16069 0.35885 0
0.25075 0.37816 0
0.33824 0.39835 0
0.42698 0.41843 0
0.51695 0.43754 0
0.59119 0.45201 0
0.65637 0.46362 0
0.72368 0.47465 0
0.78295 0.48344 0
0.81931 0.48825 0
0.8554 0.49281 0
0.8907 0.49707 0
0.92516 0.50105 0
0.94773 0.50356 0
0.96676 0.5059 0
0.98538 0.50839 0
0 0.30746 0
0 0.32192 0
0 0.33667 0
0 0.35484 0
0 0.37552 0
0.15112 0.39789 0
0.24517 0.41791 0
0.33525 0.43944 0
0.42437 0.46083 0
0.51464 0.48152 0
0.59192 0.49797 0
0.65643 0.51066 0
0.7229 0.52284 0
0.78879 0.53397 0
0.82542 0.53958 0
0.86132 0.54486 0
0.89675 0.54985 0
0.93136 0.55474 0
0.95955 0.55872 0
0.97879 0.56152 0
0.99734 0.56426 0
0 0.34038 0
0 0.35565 0
0 0.37192 0
0 0.38985 0
0 0.4106 0
0.14219 0.43273 0
0.24065 0.45261 0
0.3331 0.47443 0
0.42227 0.49603 0
0.5122 0.51716 0
0.59136 0.53463 0
0.65493 0.54768 0
0.72034 0.5603 0
0.78771 0.5724 0
0.82823 0.57912 0
0.86408 0.585 0
0.89974 0.59064 0
0.93418 0.59591 0
0.96686 0.60076 0
0.98599 0.60365 0
1.00448 0.60647 0
0 0.37639 0
0 0.39145 0
0 0.40867 0
0 0.42624 0
0 0.44673 0
0.13243 0.46807 0
0.23694 0.48787 0
0.33212 0.50992 0
0.42158 0.53166 0
0.51115 0.55307 0
0.59161 0.57135 0
0.65447 0.58488 0
0.71917 0.59816 0
0.78582 0.61101 0
0.83185 0.6193 0
0.86736 0.6254 0
0.90269 0.63127 0
0.93705 0.63681 0
0.97092 0.64211 0
0.99277 0.6455 0
1.01123 0.6484 0
0 0.41214 0
0 0.42911 0
0 0.44585 0
0 0.4633 0
0 0.48351 0
0.12307 0.50401 0
0.23412 0.52376 0
0.33222 0.54625 0
0.42219 0.56833 0
0.51155 0.59018 0
0.59289 0.60932 0
0.6552 0.62318 0
0.7192 0.63675 0
0.78501 0.64996 0
0.83546 0.65946 0
0.87065 0.66575 0
0.90567 0.67184 0
0.93995 0.67762 0
0.97355 0.68313 0
0.9992 0.68725 0
1.01763 0.69023 0
0 0.44431 0
0 0.46233 0
0 0.47888 0
0 0.49646 0
0 0.51667 0
0.11795 0.53657 0
0.2335 0.55681 0
0.33405 0.57964 0
0.42441 0.6018 0
0.5132 0.62375 0
0.59447 0.64327 0
0.65616 0.65742 0
0.71945 0.67133 0
0.78446 0.68493 0
0.83838 0.6956 0
0.87326 0.70218 0
0.90798 0.70856 0
0.94217 0.71466 0
0.97559 0.72059 0
1.00479 0.72586 0
1.0234 0.72934 0
0 0.47409 0
0 0.49098 0
0 0.50692 0
0 0.52368 0
0 0.54301 0
0.12427 0.56125 0
0.23845 0.58091 0
0.33909 0.60377 0
0.42857 0.62602 0
0.51581 0.64803 0
0.59592 0.66781 0
0.65675 0.68235 0
0.71916 0.6967 0
0.78326 0.71078 0
0.83976 0.72263 0
0.87438 0.72984 0
0.90894 0.73697 0
0.94319 0.74387 0
0.97648 0.75042 0
1.00851 0.75659 0
1.02704 0.7604 0
0 0.50386 0
0 0.51992 0
0 0.53517 0
0 0.55109 0
0 0.5685 0
0.13454 0.5861 0
0.24576 0.60518 0
0.34615 0.62772 0
0.43457 0.64953 0
0.51989 0.67096 0
0.59812 0.6903 0
0.65802 0.70483 0
0.71953 0.71934 0
0.78276 0.73365 0
0.84103 0.74629 0
0.87525 0.75362 0
0.90939 0.76077 0
0.94338 0.76771 0
0.97631 0.77431 0
1.00908 0.78072 0
1.02908 0.78483 0
0 0.53383 0
0 0.54924 0
0 0.56368 0
0 0.57884 0
0 0.59425 0
0.14816 0.61123 0
0.25865 0.63059 0
0.3549 0.65231 0
0.44216 0.67387 0
0.52541 0.69488 0
0.60123 0.71382 0
0.66032 0.72827 0
0.72098 0.74265 0
0.78333 0.75686 0
0.84257 0.76983 0
0.87634 0.77714 0
0.91006 0.78428 0
0.94372 0.79127 0
0.97634 0.7979 0
1.00877 0.80436 0
1.03103 0.80891 0
0 0.56468 0
0 0.57939 0
0 0.59316 0
0 0.60665 0
0 0.62132 0
0.16187 0.63788 0
0.27587 0.65815 0
0.36489 0.67815 0
0.45118 0.69925 0
0.53223 0.71956 0
0.60508 0.7377 0
0.66336 0.75196 0
0.72321 0.76619 0
0.7847 0.78032 0
0.84433 0.79349 0
0.87766 0.80079 0
0.91096 0.80794 0
0.94424 0.81493 0
0.97661 0.8216 0
1.0087 0.82808 0
1.03294 0.83304 0
0 0.59636 0
0 0.61018 0
0 0.62279 0
0 0.63465 0
0.00956 0.64876 0
0.17821 0.66475 0
0.2893 0.6847 0
0.37665 0.70419 0
0.46181 0.72481 0
0.54035 0.74434 0
0.60964 0.76153 0
0.66712 0.77559 0
0.72616 0.78968 0
0.78683 0.80369 0
0.84626 0.81693 0
0.87916 0.8242 0
0.91205 0.83134 0
0.94494 0.83834 0
0.97704 0.84504 0
1.00884 0.85165 0
1.03482 0.85712 0
0 0.62794 0
0 0.64079 0
0 0.65141 0
0 0.66276 0
0.04945 0.67632 0
0.20195 0.69251 0
0.30474 0.71141 0
0.39015 0.7304 0
0.47324 0.75036 0
0.54974 0.76924 0
0.61488 0.78535 0
0.67157 0.7992 0
0.72982 0.81311 0
0.78968 0.82699 0
0.84835 0.84015 0
0.88083 0.84748 0
0.91333 0.85472 0
0.94587 0.86184 0
0.97773 0.86869 0
1.00922 0.87536 0
1.03661 0.88115 0
0.00452 0.00359 0.00625
0.00741 0.00402 0.00781
0.02607 0.00543 0.01048
0.08247 0.00736 0.01332
0.16688 0.00802 0.01569
0.25532 0.00479 0.01714
0.35316 0 0.01641
0.42003 0 0.01404
0.48965 0 0.01077
0.53326 0 0.00878
0.56978 0 0.00719
0.60587 0 0.00564
0.63329 0 0.0049
0.65313 0 0.00506
0.67227 0 0.0055
0.69054 0 0.00625
0.7098 0 0.00722
0.72673 0 0.00881
0.73831 0 0.01134
0.74953 0 0.0144
0.76224 0 0.01934
0.00457 0.00594 0.00566
0.00655 0.00607 0.00627
0.01629 0.0073 0.00741
0.04248 0.0095 0.00897
0.10201 0.01247 0.01042
0.17384 0.0148 0.01106
0.24658 0.01493 0.01077
0.33891 0.01015 0.00878
0.40915 0.00226 0.00651
0.47869 0 0.00347
0.54036 0 0.0004
0.58167 0 0
0.62077 0 0
0.65938 0 0
0.68381 0 0
0.70603 0 0
0.72812 0 0
0.75078 0 0
0.77311 0 0
0.78868 0 0.00064
0.80252 0 0.00352
0.0012 0.01696 0.00692
0.00427 0.01688 0.0075
0.01523 0.01924 0.00853
0.04156 0.02357 0.00977
0.09949 0.03019 0.01083
0.17075 0.0377 0.0112
0.24004 0.04375 0.01061
0.32501 0.04785 0.00847
0.41026 0.04702 0.00491
0.47746 0.04246 0.00154
0.54825 0.033 0
0.60095 0.02354 0
0.64038 0.01586 0
0.67959 0.00719 0
0.7173 0 0
0.74031 0 0
0.76299 0 0
0.78504 0 0
0.80679 0 0
0.82814 0 0
0.84218 0 0
0 0.04124 0.0079
0 0.04136 0.00854
0.00963 0.04619 0.00946
0.03958 0.0545 0.01045
0.10153 0.06615 0.01104
0.17535 0.07874 0.01079
0.24682 0.08932 0.00947
0.32589 0.0986 0.00675
0.41781 0.10572 0.0019
0.48668 0.10854 0
0.55568 0.10889 0
0.62201 0.10669 0
0.66293 0.10491 0
0.70171 0.10267 0
0.74002 0.09985 0
0.7715 0.09796 0
0.79355 0.09816 0
0.81499 0.0988 0
0.83595 0.0999 0
0.85652 0.10132 0
0.87552 0.10345 0
0 0.07895 0.00807
0 0.07989 0.00872
0 0.0865 0.00944
0.03074 0.09619 0.00998
0.0996 0.10974 0.00996
0.17651 0.12453 0.00893
0.24959 0.13765 0.00674
0.32767 0.14992 0.00316
0.41897 0.16156 0
0.49524 0.16897 0
0.56265 0.17377 0
0.63319 0.17689 0
0.68256 0.17829 0
0.72093 0.17923 0
0.75915 0.17984 0
0.79656 0.18029 0
0.82086 0.18155 0
0.84208 0.18322 0
0.86262 0.18517 0
0.88281 0.1874 0
0.90267 0.18993 0
0 0.1129 0.00741
0 0.11596 0.00795
0 0.12482 0.00831
0.01525 0.13608 0.00839
0.09269 0.15157 0.00774
0.17489 0.16832 0.00577
0.2502 0.18353 0.00267
0.32812 0.19796 0
0.41716 0.21228 0
0.50128 0.22349 0
0.56727 0.23069 0
0.63613 0.23666 0
0.69693 0.24067 0
0.73524 0.24284 0
0.77304 0.24473 0
0.81022 0.24633 0
0.84178 0.24767 0
0.86243 0.24907 0
0.88241 0.25054 0
0.90187 0.25211 0
0.92095 0.25377 0
0 0.14367 0.0062
0 0.14874 0.00661
0 0.15854 0.00678
0 0.17071 0.00646
0.08318 0.18704 0.00508
0.17149 0.20475 0.00236
0.24866 0.22106 0
0.32638 0.23664 0
0.41344 0.25237 0
0.50333 0.26638 0
0.56791 0.27493 0
0.63516 0.28255 0
0.70423 0.28897 0
0.74368 0.29221 0
0.78116 0.29511 0
0.81829 0.29769 0
0.85425 0.29995 0
0.87687 0.30172 0
0.8968 0.30346 0
0.91607 0.30527 0
0.93495 0.30714 0
0 0.18803 0.00334
0 0.19571 0.00348
0 0.20678 0.00301
0 0.22034 0.00185
0.06033 0.238 0
0.16533 0.25717 0
0.24751 0.27491 0
0.32759 0.29211 0
0.41461 0.30952 0
0.50481 0.32552 0
0.57435 0.33633 0
0.64064 0.3455 0
0.70971 0.35406 0
0.75847 0.3595 0
0.79574 0.36346 0
0.83282 0.36722 0
0.86883 0.37074 0
0.89811 0.37372 0
0.91816 0.37621 0
0.93753 0.37881 0
0.95649 0.38152 0
0 0.22868 0.00003
0 0.2393 0
0 0.25204 0
0 0.2672 0
0.02902 0.28588 0
0.15551 0.30609 0
0.24344 0.32477 0
0.32647 0.34321 0
0.41385 0.36193 0
0.50436 0.37985 0
0.57838 0.39313 0
0.64415 0.40394 0
0.71232 0.41411 0
0.76986 0.42185 0
0.80689 0.42653 0
0.84369 0.431 0
0.87973 0.4352 0
0.91499 0.43917 0
0.93486 0.44173 0
0.95416 0.44434 0
0.97291 0.44699 0
0 0.26776 0
0 0.28001 0
0 0.29315 0
0 0.30977 0
0 0.32913 0
0.14478 0.35018 0
0.23857 0.36955 0
0.3246 0.38907 0
0.41273 0.40906 0
0.50372 0.42858 0
0.58114 0.44383 0
0.6462 0.4556 0
0.71347 0.46682 0
0.77778 0.47662 0
0.81505 0.4819 0
0.85157 0.48688 0
0.88762 0.49161 0
0.92262 0.49604 0
0.94785 0.4993 0
0.96712 0.50196 0
0.98579 0.50468 0
0 0.30534 0
0 0.31941 0
0 0.33361 0
0 0.35134 0
0 0.37153 0
0.13233 0.39363 0
0.23271 0.41383 0
0.32208 0.43465 0
0.41196 0.45597 0
0.50357 0.47687 0
0.58376 0.49397 0
0.64833 0.50665 0
0.71485 0.51863 0
0.78352 0.53008 0
0.82242 0.53605 0
0.85867 0.54142 0
0.89471 0.54658 0
0.92949 0.55142 0
0.95958 0.55553 0
0.97898 0.55849 0
0.9978 0.56153 0
0 0.33921 0
0 0.35421 0
0 0.36998 0
0 0.38758 0
0 0.40793 0
0.12295 0.42999 0
0.22806 0.44979 0
0.32074 0.471 0
0.41094 0.49253 0
0.50242 0.51387 0
0.58422 0.53191 0
0.64802 0.5451 0
0.71371 0.55789 0
0.7814 0.57019 0
0.82614 0.5778 0
0.86211 0.58368 0
0.89788 0.58934 0
0.93275 0.5948 0
0.96726 0.60018 0
0.98677 0.60345 0
1.00557 0.60665 0
0 0.37613 0
0 0.39083 0
0 0.40777 0
0 0.42505 0
0 0.44527 0
0.11063 0.4667 0
0.22376 0.48635 0
0.3204 0.50794 0
0.41098 0.52955 0
0.50235 0.55118 0
0.58525 0.56994 0
0.64838 0.58342 0
0.71325 0.59656 0
0.78 0.60929 0
0.82959 0.61816 0
0.86535 0.62447 0
0.90098 0.63063 0
0.93586 0.6365 0
0.97008 0.64211 0
0.99355 0.64606 0
1.01231 0.64934 0
0 0.41367 0
0 0.4302 0
0 0.4466 0
0 0.46369 0
0 0.48356 0
0.09617 0.50405 0
0.21988 0.52361 0
0.32048 0.54545 0
0.41205 0.56717 0
0.50327 0.58896 0
0.58677 0.60824 0
0.64933 0.62195 0
0.71357 0.63554 0
0.77967 0.6489 0
0.83339 0.65919 0
0.86888 0.66575 0
0.9042 0.67211 0
0.93898 0.67822 0
0.97292 0.68405 0
0.99998 0.68869 0
1.01869 0.69205 0
0 0.44858 0
0 0.46631 0
0 0.48258 0
0 0.49954 0
0 0.51904 0
0.0867 0.53846 0
0.21873 0.55797 0
0.32242 0.58006 0
0.41457 0.60193 0
0.50527 0.62407 0
0.58866 0.64398 0
0.65076 0.65825 0
0.71444 0.67231 0
0.77984 0.68606 0
0.83668 0.69744 0
0.87187 0.70428 0
0.90691 0.71093 0
0.94159 0.71735 0
0.97528 0.72345 0
1.00552 0.72886 0
1.02415 0.73236 0
0 0.47808 0
0 0.49474 0
0 0.51042 0
0 0.52698 0
0 0.54622 0
0.09288 0.56459 0
0.22309 0.58424 0
0.32728 0.6068 0
0.41892 0.62905 0
0.50833 0.65129 0
0.59052 0.67143 0
0.65192 0.6861 0
0.71486 0.7006 0
0.77948 0.71485 0
0.83856 0.72732 0
0.87342 0.73461 0
0.90816 0.74169 0
0.94271 0.74857 0
0.97616 0.75509 0
1.00917 0.76138 0
1.02772 0.76519 0
0 0.50817 0
0 0.52415 0
0 0.53935 0
0 0.55521 0
0 0.57278 0
0.10304 0.59038 0
0.23 0.60948 0
0.33427 0.63175 0
0.4251 0.65357 0
0.5127 0.67524 0
0.59288 0.69488 0
0.65341 0.70941 0
0.71545 0.72382 0
0.77911 0.73803 0
0.83958 0.75096 0
0.874 0.75826 0
0.9083 0.76537 0
0.94252 0.7723 0
0.97565 0.77887 0
1.00856 0.78526 0
1.02937 0.78949 0
0 0.53896 0
0 0.55433 0
0 0.56874 0
0 0.58388 0
0 0.59946 0
0.11706 0.61646 0
0.24094 0.63532 0
0.3431 0.65696 0
0.43294 0.67832 0
0.51845 0.69934 0
0.59603 0.71832 0
0.65571 0.73268 0
0.71687 0.74697 0
0.77963 0.76111 0
0.84082 0.77434 0
0.87483 0.78165 0
0.90872 0.78878 0
0.94253 0.79574 0
0.97543 0.80242 0
1.00804 0.80899 0
1.03108 0.81379 0
0 0.5703 0
0 0.58486 0
0 0.5985 0
0 0.612 0
0 0.62654 0
0.13407 0.64296 0
0.26025 0.66282 0
0.35366 0.68267 0
0.44235 0.70359 0
0.52548 0.7239 0
0.59992 0.74208 0
0.65877 0.75626 0
0.71909 0.77042 0
0.78099 0.78446 0
0.84226 0.79784 0
0.87596 0.80524 0
0.90945 0.81248 0
0.94291 0.81957 0
0.97557 0.82637 0
1.00784 0.83296 0
1.03277 0.83814 0
0 0.60171 0
0 0.61541 0
0 0.62802 0
0 0.63979 0
0 0.65378 0
0.15373 0.66964 0
0.27475 0.68923 0
0.36601 0.70857 0
0.45337 0.72905 0
0.53382 0.74859 0
0.60453 0.76582 0
0.66255 0.77988 0
0.72206 0.794 0
0.78315 0.80805 0
0.84403 0.82157 0
0.87733 0.82899 0
0.91042 0.83622 0
0.94349 0.84333 0
0.97587 0.85016 0
1.00782 0.85678 0
1.03437 0.86232 0
0 0.63305 0
0 0.64589 0
0 0.65642 0
0 0.6677 0
0 0.68116 0
0.17926 0.697 0
0.29112 0.71589 0
0.37995 0.73483 0
0.46558 0.75488 0
0.54333 0.77375 0
0.60973 0.78997 0
0.66698 0.80386 0
0.72572 0.81782 0
0.78603 0.83175 0
0.84603 0.84517 0
0.87885 0.85255 0
0.91153 0.85977 0
0.94423 0.86688 0
0.97632 0.87373 0
1.00795 0.88037 0
1.03587 0.88623 0
0.00296 0.00419 0.01763
0.00615 0.0047 0.02645
0.02575 0.0059 0.03814
0.08276 0.00732 0.0521
0.16814 0.00727 0.06501
0.24795 0.00395 0.07234
0.34363 0 0.0753
0.4105 0 0.07622
0.48003 0 0.07618
0.5322 0 0.076
0.57085 0 0.07611
0.60736 0 0.07638
0.63944 0 0.07707
0.65944 0 0.07883
0.67874 0 0.0808
0.6971 0 0.0829
0.71625 0 0.08559
0.73496 0 0.08886
