doc/3DLUTs/Fuji F125 Kodak 2393 (by Adobe).cube
# Copyright 2012, Adobe Systems Inc.
# Created with ADBELUTBuilder Fri 30 Nov 2012 12:21:39
# Film Look FujiF125 Kodak2393
# Copyright 2012 Adobe Systems
LUT_3D_SIZE 21
DOMAIN_MIN 0.0 0.0 0.0
DOMAIN_MAX 1.0 1.0 1.0
0.00207 0.0012 0.00122
0.01013 0.00182 0.00164
0.0555 0.00302 0.00186
0.15271 0.00227 0.00105
0.24785 0 0
0.32926 0 0
0.4019 0 0
0.45634 0 0
0.49563 0 0
0.53471 0 0
0.56442 0 0
0.58599 0 0
0.60839 0 0
0.62998 0 0
0.64458 0 0
0.65766 0 0
0.6701 0 0
0.68202 0 0
0.69435 0 0
0.70694 0 0
0.717 0 0
0.00194 0.00288 0.00155
0.00299 0.0026 0.00159
0.00968 0.00332 0.00189
0.0283 0.00458 0.00214
0.06974 0.00605 0.0021
0.13821 0.00707 0.00148
0.21639 0.00568 0.0001
0.30233 0 0
0.37574 0 0
0.44805 0 0
0.49891 0 0
0.54114 0 0
0.58381 0 0
0.61508 0 0
0.64108 0 0
0.66713 0 0
0.69399 0 0
0.7107 0 0
0.72631 0 0
0.74206 0 0
0.75849 0 0
0 0.01086 0.00218
0.0008 0.00908 0.00217
0.00663 0.01022 0.0024
0.02424 0.01311 0.00265
0.06173 0.01698 0.00258
0.12057 0.02149 0.00199
0.19692 0.02616 0.0005
0.27512 0.02806 0
0.36274 0.02506 0
0.43243 0.01783 0
0.50315 0.00538 0
0.55251 0 0
0.59426 0 0
0.63686 0 0
0.6698 0 0
0.69514 0 0
0.72172 0 0
0.74813 0 0
0.7669 0 0
0.7817 0 0
0.79679 0 0
0 0.02593 0.00245
0 0.02158 0.00249
0.00081 0.02338 0.00267
0.01906 0.02851 0.00281
0.05608 0.03567 0.00263
0.11253 0.04408 0.00194
0.18385 0.05449 0.00036
0.26353 0.06347 0
0.34583 0.0689 0
0.42619 0.06983 0
0.4974 0.06631 0
0.56454 0.05831 0
0.60591 0.05082 0
0.64748 0.04101 0
0.68942 0.02911 0
0.71843 0.02051 0
0.74441 0.01273 0
0.77028 0.00461 0
0.79578 0 0
0.81278 0 0
0.8273 0 0
0 0.05187 0.00225
0 0.04325 0.00244
0 0.04608 0.00257
0.00826 0.05406 0.00258
0.04586 0.06485 0.00219
0.10466 0.07629 0.00123
0.17295 0.08875 0
0.25499 0.1018 0
0.3331 0.11151 0
0.42172 0.11907 0
0.49083 0.12211 0
0.56059 0.12258 0
0.61701 0.12083 0
0.6578 0.11841 0
0.69901 0.11487 0
0.74083 0.11011 0
0.7657 0.10744 0
0.79116 0.10435 0
0.81625 0.10103 0
0.84097 0.09751 0
0.85618 0.09693 0
0 0.0854 0.00139
0 0.07614 0.00183
0 0.0791 0.0019
0 0.08742 0.00171
0.02831 0.09961 0.00101
0.09236 0.11287 0
0.1618 0.12672 0
0.24169 0.14185 0
0.32347 0.15524 0
0.40799 0.16651 0
0.48742 0.17455 0
0.55821 0.17948 0
0.62468 0.18217 0
0.66852 0.18289 0
0.7095 0.18303 0
0.75134 0.18263 0
0.78705 0.18188 0
0.8117 0.18154 0
0.83654 0.18111 0
0.86127 0.18069 0
0.88459 0.18058 0
0 0.11895 0
0 0.10873 0.00062
0 0.11153 0.00064
0 0.12046 0.00031
0 0.13467 0
0.07079 0.14989 0
0.14663 0.16523 0
0.22812 0.18248 0
0.31409 0.19935 0
0.39642 0.21335 0
0.4843 0.22583 0
0.55338 0.23363 0
0.6214 0.2397 0
0.67856 0.24365 0
0.71956 0.246 0
0.76085 0.24785 0
0.8022 0.24916 0
0.83036 0.25003 0
0.85483 0.25081 0
0.87968 0.25177 0
0.90421 0.25271 0
0 0.15502 0
0 0.14509 0
0 0.14729 0
0 0.15618 0
0 0.17219 0
0.03511 0.18906 0
0.12573 0.20598 0
0.21232 0.22488 0
0.30381 0.2446 0
0.38525 0.26043 0
0.47416 0.27568 0
0.54883 0.28654 0
0.619 0.29538 0
0.68567 0.30251 0
0.72838 0.30639 0
0.76913 0.30968 0
0.81003 0.31257 0
0.84749 0.31491 0
0.87179 0.31676 0
0.89641 0.31864 0
0.92069 0.32051 0
0 0.1868 0
0 0.17777 0
0 0.18015 0
0 0.19007 0
0 0.20811 0
0 0.2272 0
0.09396 0.24618 0
0.1917 0.26675 0
0.28544 0.2883 0
0.37323 0.30751 0
0.46124 0.32525 0
0.54488 0.34017 0
0.61575 0.35133 0
0.6827 0.36066 0
0.73646 0.36728 0
0.77691 0.37179 0
0.8176 0.376 0
0.8588 0.38012 0
0.88791 0.38305 0
0.91229 0.38559 0
0.93636 0.3881 0
0 0.21956 0
0 0.21043 0
0 0.21251 0
0 0.22311 0
0 0.24199 0
0 0.26251 0
0.04134 0.28303 0
0.16457 0.30473 0
0.26485 0.32803 0
0.35926 0.35013 0
0.44698 0.36931 0
0.53839 0.38756 0
0.60854 0.40008 0
0.67707 0.41112 0
0.74072 0.42033 0
0.7812 0.42581 0
0.82197 0.43111 0
0.86279 0.43609 0
0.89983 0.4404 0
0.92355 0.44333 0
0.94745 0.44626 0
0 0.24984 0
0 0.24388 0
0 0.24595 0
0 0.25704 0
0 0.27671 0
0 0.2987 0
0 0.3213 0
0.12536 0.34439 0
0.24064 0.36915 0
0.3435 0.3937 0
0.43228 0.41434 0
0.52625 0.43472 0
0.60131 0.44947 0
0.67178 0.46225 0
0.73849 0.47347 0
0.78548 0.48078 0
0.82597 0.48676 0
0.86654 0.49247 0
0.90706 0.49789 0
0.93411 0.50157 0
0.95788 0.50485 0
0 0.27545 0
0 0.26983 0
0 0.27202 0
0 0.28415 0
0 0.30551 0
0 0.32952 0
0 0.35422 0
0.06208 0.37877 0
0.21082 0.40537 0
0.32474 0.43296 0
0.41562 0.4553 0
0.50982 0.47754 0
0.59305 0.49593 0
0.66544 0.51073 0
0.73206 0.52337 0
0.7881 0.53331 0
0.82851 0.54017 0
0.869 0.54676 0
0.9094 0.55304 0
0.94348 0.55824 0
0.96702 0.56211 0
0 0.30162 0
0 0.29605 0
0 0.29861 0
0 0.31111 0
0 0.33267 0
0 0.35767 0
0 0.38348 0
0 0.40866 0
0.17366 0.43654 0
0.29811 0.46517 0
0.39703 0.49003 0
0.49201 0.51335 0
0.58262 0.53431 0
0.65476 0.54989 0
0.72305 0.56368 0
0.78734 0.57581 0
0.82762 0.5831 0
0.86789 0.59011 0
0.9081 0.59688 0
0.94838 0.60357 0
0.97205 0.60778 0
0 0.32786 0
0 0.32321 0
0 0.32577 0
0 0.33856 0
0 0.36015 0
0 0.38627 0
0 0.4131 0
0 0.43977 0
0.11928 0.46893 0
0.26697 0.49847 0
0.37662 0.52548 0
0.47348 0.54967 0
0.57168 0.57319 0
0.64393 0.5895 0
0.71404 0.60442 0
0.78117 0.61783 0
0.82649 0.62649 0
0.86676 0.63413 0
0.907 0.64152 0
0.9471 0.64864 0
0.97669 0.65396 0
0 0.34761 0
0 0.34653 0
0 0.35028 0
0 0.36429 0
0 0.38681 0
0 0.41536 0
0 0.44404 0
0 0.47186 0
0.01422 0.50176 0
0.22908 0.53216 0
0.35354 0.56125 0
0.45378 0.58632 0
0.55493 0.61117 0
0.63266 0.62938 0
0.70477 0.64542 0
0.7719 0.65975 0
0.82513 0.67063 0
0.86536 0.67866 0
0.90555 0.68643 0
0.94555 0.69394 0
0.98109 0.70051 0
0 0.36563 0
0 0.36474 0
0 0.36846 0
0 0.38282 0
0 0.40556 0
0 0.43509 0
0 0.46506 0
0 0.49435 0
0 0.52534 0
0.18525 0.55715 0
0.32835 0.58853 0
0.43251 0.61491 0
0.535 0.64108 0
0.61996 0.66232 0
0.69414 0.68012 0
0.76135 0.69553 0
0.822 0.70884 0
0.86229 0.71763 0
0.90252 0.72615 0
0.94254 0.73439 0
0.98236 0.74234 0
0 0.38337 0
0 0.38266 0
0 0.38688 0
0 0.4017 0
0 0.42446 0
0 0.45457 0
0 0.48505 0
0 0.51491 0
0 0.54611 0
0.12741 0.57844 0
0.30103 0.61132 0
0.41015 0.63842 0
0.51441 0.66524 0
0.60626 0.68847 0
0.68068 0.70672 0
0.74941 0.72288 0
0.8169 0.73801 0
0.85717 0.74704 0
0.89726 0.75579 0
0.93716 0.76426 0
0.97683 0.77245 0
0 0.40086 0
0 0.40096 0
0 0.40545 0
0 0.42073 0
0 0.44326 0
0 0.47392 0
0 0.50488 0
0 0.5353 0
0 0.56689 0
0.01954 0.60002 0
0.26754 0.63401 0
0.38619 0.66196 0
0.49324 0.68921 0
0.5922 0.71437 0
0.66699 0.733 0
0.73745 0.74991 0
0.80526 0.76551 0
0.85185 0.7761 0
0.89185 0.78506 0
0.9317 0.79375 0
0.97127 0.80219 0
0 0.41838 0
0 0.41923 0
0 0.42415 0
0 0.43964 0
0 0.46198 0
0 0.49315 0
0 0.52474 0
0 0.55601 0
0 0.58796 0
0 0.62162 0
0.22372 0.65589 0
0.36007 0.68533 0
0.47119 0.71299 0
0.57768 0.74003 0
0.65307 0.75904 0
0.72537 0.77669 0
0.79318 0.79265 0
0.84628 0.80487 0
0.88627 0.81407 0
0.92611 0.82305 0
0.96565 0.83175 0
0 0.42989 0
0 0.4329 0
0 0.4389 0
0 0.45536 0
0 0.47835 0
0 0.51102 0
0 0.54386 0
0 0.57642 0
0 0.60898 0
0 0.64313 0
0.16595 0.67768 0
0.33103 0.70856 0
0.44795 0.73662 0
0.55841 0.76449 0
0.63881 0.78486 0
0.71308 0.80323 0
0.78103 0.81958 0
0.84045 0.8335 0
0.88047 0.84294 0
0.92034 0.85212 0
0.95987 0.86103 0
0 0.44145 0
0 0.4447 0
0 0.4508 0
0 0.46763 0
0 0.49052 0
0 0.52329 0
0 0.55611 0
0 0.58894 0
0 0.62169 0
0 0.65673 0
0.08417 0.69189 0
0.30091 0.72457 0
0.42434 0.75348 0
0.53715 0.78215 0
0.62399 0.80476 0
0.70017 0.82435 0
0.76829 0.84146 0
0.83378 0.8574 0
0.87392 0.86746 0
0.91381 0.87723 0
0.9534 0.88671 0
0.00169 0.00142 0.00328
0.01567 0.0024 0.0098
0.0812 0.00316 0.01698
0.18529 0.00052 0.02287
0.2784 0 0.02314
0.3601 0 0.0221
0.43765 0 0.02015
0.48694 0 0.01904
0.52827 0 0.01844
0.56903 0 0.01805
0.59397 0 0.01921
0.61608 0 0.02113
0.63847 0 0.02372
0.65873 0 0.02722
0.67101 0 0.03238
0.68264 0 0.03865
0.69402 0 0.04601
0.70503 0 0.05397
0.7158 0 0.06148
0.72514 0 0.06955
0.73384 0 0.07813
0.00191 0.00246 0.00188
0.00329 0.00255 0.00242
0.01185 0.00344 0.00343
0.03402 0.00473 0.00457
0.08125 0.00606 0.0056
0.15543 0.00653 0.0062
0.23545 0.00391 0.006
0.32508 0 0.0046
0.39809 0 0.00321
0.47339 0 0.00137
0.51961 0 0.00098
0.56409 0 0.00077
0.60889 0 0.0006
0.63602 0 0.0021
0.66295 0 0.00419
0.68988 0 0.00704
0.71365 0 0.01197
0.72985 0 0.0191
0.74514 0 0.02792
0.7603 0 0.03862
0.77574 0 0.0509
0 0.00895 0.00253
0.00107 0.00847 0.00306
0.00858 0.01003 0.00374
0.02808 0.01296 0.00465
0.0699 0.01686 0.00559
0.13246 0.02131 0.00616
0.2121 0.0253 0.00584
0.29263 0.0259 0.00459
0.37943 0.02102 0.00211
0.45235 0.01155 0
0.52578 0 0
0.57124 0 0
0.61517 0 0
0.65945 0 0
0.68892 0 0
0.71539 0 0
0.74192 0 0.00035
0.76825 0 0.00439
0.78416 0 0.01173
0.799 0 0.02106
0.81345 0 0.03255
0 0.02193 0.00296
0 0.02044 0.00357
0.00209 0.02275 0.00417
0.02242 0.02823 0.00488
0.0629 0.03556 0.00562
0.12179 0.04415 0.00606
0.197 0.05458 0.00561
0.27789 0.06277 0.00406
0.36428 0.06714 0.00127
0.44309 0.06651 0
0.51746 0.06096 0
0.58119 0.05133 0
0.62433 0.0422 0
0.66775 0.03082 0
0.71141 0.0171 0
0.7371 0.00942 0
0.76311 0.0012 0
0.78892 0 0
0.81412 0 0
0.82902 0 0.00734
0.84303 0 0.01758
0 0.04483 0.003
0 0.04159 0.00376
0 0.04515 0.00431
0.01143 0.05397 0.00487
0.05207 0.0651 0.00534
0.11262 0.07675 0.0055
0.18408 0.08958 0.00484
0.26713 0.10219 0.00281
0.34863 0.11163 0.00001
0.4371 0.11824 0
0.50851 0.12064 0
0.58046 0.1202 0
0.63356 0.11798 0
0.67619 0.11506 0
0.71916 0.1108 0
0.75785 0.10591 0
0.78285 0.10298 0
0.80837 0.09961 0
0.83371 0.09602 0
0.85696 0.09282 0
0.87093 0.09272 0.00297
0 0.07881 0.00244
0 0.074 0.00343
0 0.07793 0.00391
0 0.08738 0.00435
0.0336 0.09991 0.00454
0.09962 0.11332 0.00424
0.17132 0.12767 0.00322
0.25418 0.14306 0.0008
0.3367 0.15612 0
0.42483 0.16724 0
0.50262 0.17454 0
0.57588 0.17921 0
0.64308 0.18151 0
0.68521 0.1822 0
0.72752 0.18217 0
0.77005 0.18139 0
0.80235 0.18066 0
0.82722 0.1803 0
0.85238 0.17992 0
0.87733 0.17962 0
0.89804 0.17987 0
0 0.11252 0.00126
0 0.10694 0.00244
0 0.11149 0.00284
0 0.12175 0.00316
0.00359 0.13611 0.00295
0.07756 0.15165 0.0021
0.15507 0.16756 0.00068
0.23911 0.18514 0
0.32566 0.20163 0
0.41095 0.21564 0
0.49802 0.22763 0
0.56981 0.23558 0
0.64 0.24164 0
0.69391 0.24524 0
0.73569 0.24751 0
0.77774 0.24926 0
0.81983 0.25046 0
0.84473 0.25145 0
0.86972 0.25247 0
0.8944 0.25349 0
0.91874 0.25449 0
0 0.15011 0
0 0.14322 0.00065
0 0.14766 0.00114
0 0.15806 0.00123
0 0.17419 0.00054
0.03976 0.19138 0
0.1322 0.20856 0
0.2216 0.22789 0
0.31369 0.24733 0
0.39789 0.26355 0
0.49043 0.27915 0
0.56354 0.28963 0
0.63525 0.29839 0
0.70105 0.30511 0
0.74248 0.30884 0
0.78405 0.31217 0
0.82573 0.3151 0
0.8605 0.31743 0
0.88487 0.3194 0
0.90942 0.32138 0
0.93361 0.32336 0
0 0.18268 0
0 0.17722 0
0 0.18221 0
0 0.19317 0
0 0.21166 0
0 0.23104 0
0.09876 0.25034 0
0.19942 0.27144 0
0.29652 0.29368 0
0.38449 0.31282 0
0.47557 0.33077 0
0.55778 0.3451 0
0.63067 0.3563 0
0.69881 0.36552 0
0.74927 0.37164 0
0.79054 0.37628 0
0.83196 0.38057 0
0.87356 0.38465 0
0.89966 0.38744 0
0.9241 0.3901 0
0.94816 0.39272 0
0 0.216 0
0 0.21064 0
0 0.21526 0
0 0.22645 0
0 0.24623 0
0 0.2672 0
0.04234 0.28804 0
0.17013 0.3106 0
0.27347 0.33427 0
0.36847 0.35613 0
0.45897 0.37558 0
0.5494 0.39319 0
0.6214 0.40578 0
0.69117 0.4168 0
0.7521 0.42548 0
0.79309 0.43094 0
0.83434 0.43624 0
0.87564 0.44126 0
0.91012 0.44537 0
0.93397 0.44844 0
0.95791 0.45152 0
0 0.24836 0
0 0.24515 0
0 0.24933 0
0 0.26107 0
0 0.28177 0
0 0.30431 0
0 0.32719 0
0.12793 0.35088 0
0.24697 0.37607 0
0.35071 0.40045 0
0.44222 0.42131 0
0.53914 0.44183 0
0.61241 0.45597 0
0.684 0.46864 0
0.75193 0.47963 0
0.79563 0.48639 0
0.83665 0.49246 0
0.87772 0.49825 0
0.91872 0.50375 0
0.94328 0.50728 0
0.96714 0.51074 0
0 0.27473 0
0 0.27194 0
0 0.27668 0
0 0.28956 0
0 0.31193 0
0 0.33659 0
0 0.36164 0
0.05683 0.38686 0
0.21421 0.41397 0
0.32998 0.44127 0
0.42374 0.46386 0
0.52079 0.48614 0
0.60242 0.50359 0
0.67607 0.51824 0
0.74375 0.53087 0
0.79702 0.54026 0
0.83796 0.54724 0
0.87897 0.55393 0
0.91985 0.56032 0
0.95171 0.56533 0
0.9753 0.56924 0
0 0.3016 0
0 0.29875 0
0 0.30306 0
0 0.3166 0
0 0.3397 0
0 0.36527 0
0 0.39161 0
0 0.41752 0
0.17351 0.44569 0
0.30393 0.47447 0
0.40323 0.49854 0
0.50083 0.52174 0
0.59028 0.54199 0
0.66389 0.55765 0
0.73304 0.57144 0
0.79499 0.58304 0
0.83578 0.59046 0
0.87657 0.59761 0
0.91724 0.60448 0
0.95594 0.61081 0
0.97906 0.6149 0
0 0.32865 0
0 0.32582 0
0 0.3302 0
0 0.34441 0
0 0.36796 0
0 0.39458 0
0 0.42207 0
0 0.44869 0
0.11398 0.47794 0
0.27062 0.50749 0
0.38104 0.53386 0
0.48049 0.5582 0
0.57788 0.58111 0
0.65156 0.59754 0
0.72255 0.61249 0
0.7909 0.62601 0
0.8335 0.6342 0
0.87413 0.64177 0
0.91468 0.64907 0
0.95505 0.6561 0
0.98254 0.66105 0
0 0.35015 0
0 0.35013 0
0 0.35584 0
0 0.37143 0
0 0.39619 0
0 0.42431 0
0 0.45285 0
0 0.48054 0
0 0.51054 0
0.22977 0.54115 0
0.35612 0.56986 0
0.45908 0.5951 0
0.56274 0.62012 0
0.63891 0.63775 0
0.71194 0.65383 0
0.78012 0.66805 0
0.83086 0.67824 0
0.87144 0.68621 0
0.91195 0.69392 0
0.95223 0.70136 0
0.98593 0.70757 0
0 0.36806 0
0 0.36883 0
0 0.37466 0
0 0.39049 0
0 0.41494 0
0 0.44424 0
0 0.47419 0
0 0.50357 0
0 0.53496 0
0.18178 0.567 0
0.32893 0.59807 0
0.43619 0.62465 0
0.54131 0.65096 0
0.62499 0.67142 0
0.7001 0.68906 0
0.76826 0.70437 0
0.82677 0.71702 0
0.8674 0.72577 0
0.90796 0.73424 0
0.94829 0.74248 0
0.98798 0.75037 0
0 0.38625 0
0 0.3875 0
0 0.39334 0
0 0.40934 0
0 0.43352 0
0 0.46345 0
0 0.4942 0
0 0.52425 0
0 0.55586 0
0.11682 0.58843 0
0.29958 0.62092 0
0.41236 0.64798 0
0.51928 0.67474 0
0.61014 0.69723 0
0.68578 0.71541 0
0.75511 0.73142 0
0.82076 0.74592 0
0.86137 0.75496 0
0.9018 0.76374 0
0.94202 0.77223 0
0.98198 0.78044 0
0 0.40435 0
0 0.40601 0
0 0.4119 0
0 0.42809 0
0 0.45224 0
0 0.48297 0
0 0.51421 0
0 0.54483 0
0 0.57667 0
0 0.60977 0
0.26605 0.64362 0
0.38706 0.67114 0
0.49684 0.69834 0
0.59508 0.7228 0
0.67104 0.74138 0
0.74211 0.75818 0
0.8108 0.77379 0
0.85526 0.78388 0
0.8956 0.79289 0
0.93575 0.80162 0
0.97561 0.81006 0
0 0.42261 0
0 0.42436 0
0 0.43036 0
0 0.44708 0
0 0.47118 0
0 0.50243 0
0 0.53415 0
0 0.56532 0
0 0.5974 0
0 0.63101 0
0.22076 0.66533 0
0.35963 0.69416 0
0.47364 0.72178 0
0.57965 0.74818 0
0.65619 0.76721 0
0.72912 0.78481 0
0.79778 0.80079 0
0.84899 0.81255 0
0.8893 0.82176 0
0.92942 0.83072 0
0.96922 0.83938 0
0 0.4348 0
0 0.43824 0
0 0.44568 0
0 0.46338 0
0 0.48805 0
0 0.5205 0
0 0.55337 0
0 0.58579 0
0 0.61805 0
0 0.65216 0
0.15892 0.68676 0
0.32919 0.71707 0
0.44924 0.74518 0
0.56195 0.77308 0
0.64107 0.7929 0
0.716 0.81123 0
0.78478 0.82756 0
0.8425 0.84096 0
0.88283 0.85039 0
0.92297 0.85955 0
0.96277 0.86844 0
0 0.44629 0
0 0.45022 0
0 0.4578 0
0 0.47556 0
0 0.49987 0
0 0.5324 0
0 0.56529 0
0 0.5979 0
0 0.63076 0
0 0.66574 0
0.06418 0.70105 0
0.29736 0.73326 0
0.4245 0.76223 0
0.5397 0.79096 0
0.62553 0.81298 0
0.7024 0.83247 0
0.77132 0.84956 0
0.83532 0.86501 0
0.87575 0.87505 0
0.91592 0.88481 0
0.95576 0.89427 0
0.00012 0.00169 0.01788
0.02286 0.00156 0.05387
0.10472 0.00011 0.08148
0.19679 0 0.09251
0.29398 0 0.09904
0.3762 0 0.10258
0.45664 0 0.10465
0.50341 0 0.10586
0.54569 0 0.10706
0.58648 0 0.10839
0.60915 0 0.11035
0.63126 0 0.11272
0.6535 0 0.11562
0.67158 0 0.11905
0.68335 0 0.12315
0.6945 0 0.12784
0.70535 0 0.133
0.71583 0 0.13862
