doc/3DLUTs/FuturisticBleak.3DL
#Created by: Adobe Photoshop CS6
#Copyright: Copyright 2012 Adobe Systems Inc.
0 256 512 767 1023
128 193 337
225 273 562
562 514 996
803 787 1429
1092 1044 1847
691 1012 755
658 1012 980
771 1060 1317
980 1188 1654
1237 1349 2023
1317 1815 1285
1333 1799 1445
1413 1863 1734
1542 1895 2023
1734 1991 2377
2152 2650 1734
2168 2650 1959
2248 2682 2200
2312 2698 2457
2425 2762 2810
2891 3501 2345
2858 3485 2425
2939 3469 2698
3019 3501 2971
3099 3549 3244
771 418 498
707 562 819
755 707 1124
980 899 1510
1204 1124 1927
964 1044 771
931 1076 1076
980 1172 1397
1140 1253 1718
1365 1413 2088
1461 1847 1220
1461 1847 1461
1558 1879 1750
1686 1927 2072
1815 2023 2393
2264 2682 1750
2216 2682 1927
2280 2682 2216
2377 2714 2489
2473 2762 2778
2907 3501 2329
2923 3517 2473
3035 3501 2746
3067 3517 2987
3164 3549 3228
1558 771 691
1253 964 1108
1285 1044 1381
1381 1188 1734
1542 1349 2088
1702 1204 755
1542 1253 1220
1461 1333 1542
1526 1461 1863
1686 1590 2184
1927 1927 1285
1927 1943 1526
1911 1991 1847
1975 2056 2152
2120 2136 2457
2505 2746 1799
2505 2746 1943
2553 2762 2280
2618 2778 2521
2682 2810 2875
3131 3533 2296
3164 3565 2457
3164 3565 2746
3244 3549 3019
3340 3597 3308
2296 1156 915
2072 1301 1381
1879 1445 1654
1959 1526 1959
2120 1654 2312
2473 1397 915
2296 1477 1397
2023 1654 1750
2120 1750 2056
2168 1847 2377
2618 2088 1285
2618 2104 1510
2537 2152 2023
2473 2232 2296
2553 2296 2602
2971 2810 1879
2971 2810 2007
2955 2875 2329
2971 2891 2666
2987 2939 2955
3485 3597 2393
3469 3613 2489
3485 3645 2746
3485 3629 3099
3597 3661 3356
3115 1526 1172
2971 1590 1542
2650 1831 1943
2634 1911 2184
2746 2056 2553
3148 1718 1237
3180 1750 1574
2778 1991 1991
2762 2104 2296
2826 2152 2585
3404 2200 1301
3421 2232 1574
3228 2312 2136
3003 2457 2489
3051 2537 2778
3533 2971 1895
3581 2987 2039
3613 2971 2329
3533 3035 2810
3437 3083 3083
3983 3758 2553
3967 3774 2698
3934 3758 2955
3950 3806 3340
3902 3870 3806
