doc/3DLUTs/FuturisticBleak.3DL
#Created by: Adobe Photoshop CS6
#Copyright: Copyright 2012 Adobe Systems Inc.
0 128 256 384 512 639 767 895 1023
128 193 337
145 241 418
225 273 562
385 385 803
562 514 996
691 658 1220
803 787 1429
980 915 1638
1092 1044 1847
337 530 482
401 562 594
434 594 771
482 642 931
610 739 1108
739 819 1317
867 915 1510
1012 1044 1718
1140 1140 1927
691 1012 755
674 980 883
658 1012 980
707 1012 1156
771 1060 1317
931 1156 1510
980 1188 1654
1140 1285 1863
1237 1349 2023
980 1413 1012
980 1413 1108
996 1397 1237
1044 1429 1365
1044 1445 1526
1140 1493 1702
1188 1558 1863
1349 1590 2023
1461 1654 2216
1317 1815 1285
1301 1831 1365
1333 1799 1445
1381 1831 1622
1413 1863 1734
1477 1863 1895
1542 1895 2023
1670 1927 2184
1734 1991 2377
1734 2232 1493
1734 2232 1526
1766 2232 1686
1799 2232 1815
1831 2264 1927
1895 2280 2072
1959 2312 2232
2023 2361 2425
2104 2361 2537
2152 2650 1734
2120 2650 1815
2168 2650 1959
2216 2650 2088
2248 2682 2200
2248 2682 2329
2312 2698 2457
2361 2714 2602
2425 2762 2810
2553 3067 2023
2489 3067 2088
2537 3051 2184
2585 3067 2312
2602 3083 2425
2618 3083 2553
2666 3083 2666
2730 3115 2794
2778 3131 2987
2891 3501 2345
2875 3485 2361
2858 3485 2425
2907 3485 2602
2939 3469 2698
2955 3485 2810
3019 3501 2971
3067 3517 3115
3099 3549 3244
385 257 369
369 305 482
401 337 642
482 466 835
578 578 1060
723 707 1253
883 835 1477
1044 947 1670
1108 1060 1863
562 594 514
530 610 674
514 626 803
610 707 980
674 771 1156
819 883 1365
931 964 1542
1076 1076 1766
1172 1172 1959
771 1012 755
723 1012 899
755 1028 1012
787 1060 1204
851 1092 1333
931 1156 1510
1044 1220 1702
1172 1301 1847
1285 1365 2023
1060 1413 996
1028 1429 1124
1060 1429 1269
1108 1445 1365
1092 1461 1542
1220 1526 1734
1237 1558 1879
1365 1606 2039
1477 1654 2200
1365 1815 1253
1333 1815 1365
1397 1831 1477
1413 1831 1622
1461 1863 1750
1493 1879 1911
1606 1911 2039
1686 1927 2200
1766 2007 2361
1799 2248 1477
1799 2264 1558
1799 2216 1670
1831 2216 1799
1895 2280 1943
1959 2296 2072
2007 2329 2248
2056 2345 2393
2120 2377 2553
2168 2666 1750
2152 2666 1815
2200 2682 1943
2216 2650 2056
2248 2682 2216
2296 2682 2345
2312 2698 2457
2377 2730 2618
2425 2762 2794
2553 3067 2039
2537 3067 2072
2553 3083 2200
2585 3067 2312
2634 3067 2457
2634 3083 2585
2666 3099 2682
2746 3131 2810
2778 3131 2971
2891 3485 2345
2939 3501 2361
2858 3485 2425
2907 3485 2569
2955 3501 2714
3019 3501 2842
3067 3501 2971
3099 3533 3131
3164 3549 3228
771 418 498
674 498 642
707 562 819
674 626 964
755 707 1124
867 819 1333
980 899 1510
1108 1028 1718
1204 1124 1927
915 674 498
819 691 755
755 755 899
771 803 1044
851 867 1220
899 931 1413
1028 1044 1606
1140 1108 1766
1285 1220 1991
964 1044 771
964 1044 899
931 1076 1076
947 1124 1237
980 1172 1397
1076 1204 1558
1140 1253 1718
1285 1333 1879
1365 1413 2088
1220 1445 1012
1188 1461 1124
1156 1445 1269
1172 1477 1397
1220 1493 1574
1237 1542 1750
1349 1574 1847
1445 1654 2056
1542 1686 2232
1461 1847 1220
1510 1847 1333
1461 1847 1461
1510 1863 1638
1558 1879 1750
1574 1911 1927
1686 1927 2072
1718 1975 2232
1815 2023 2393
1895 2280 1461
1895 2264 1558
1895 2280 1702
1927 2264 1863
1943 2296 1975
2007 2312 2088
2088 2361 2296
2104 2361 2409
2184 2393 2585
2264 2682 1750
2248 2666 1799
2216 2682 1927
2280 2682 2088
2280 2682 2216
2345 2698 2377
2377 2714 2489
2441 2746 2650
2473 2762 2778
2602 3067 2007
2602 3067 2072
2602 3083 2216
2650 3083 2312
2666 3067 2473
2682 3083 2569
2730 3115 2714
2778 3115 2810
2794 3148 3003
2907 3501 2329
2939 3501 2361
2923 3517 2473
2955 3501 2585
3035 3501 2746
3067 3501 2842
3067 3517 2987
3131 3533 3131
3164 3549 3228
1188 594 578
1044 691 803
931 755 931
996 819 1092
1044 867 1253
1044 931 1413
1156 1044 1622
1253 1124 1799
1349 1220 1959
1285 771 578
1172 835 851
1044 899 1012
1028 931 1156
1060 1012 1333
1124 1076 1493
1204 1140 1670
1285 1220 1847
1381 1285 2023
1269 1124 771
1253 1124 883
1220 1140 1172
1188 1204 1301
1172 1237 1461
1237 1285 1622
1333 1333 1783
1413 1413 1959
1526 1493 2120
1397 1526 1076
1413 1526 1156
1397 1526 1333
1365 1542 1493
1365 1558 1622
1445 1606 1766
1493 1638 1943
1574 1686 2120
1686 1750 2264
1686 1895 1285
1670 1879 1333
1670 1895 1493
1670 1911 1686
1734 1927 1799
1766 1943 1959
1815 1975 2088
1863 2039 2264
1943 2056 2425
2039 2312 1493
2007 2296 1542
2056 2312 1702
2023 2329 1863
2072 2329 1991
2136 2345 2136
2136 2377 2312
2184 2393 2457
2280 2409 2634
2345 2698 1718
2361 2714 1815
2377 2714 1943
2377 2714 2104
2409 2714 2232
2425 2730 2377
2505 2762 2473
2537 2762 2666
2569 2810 2842
2682 3099 2023
2682 3115 2056
2714 3115 2184
2714 3131 2296
2746 3099 2473
2778 3131 2634
2810 3148 2746
2842 3131 2842
2939 3180 3003
3051 3517 2329
3051 3517 2361
3035 3517 2425
3035 3517 2569
3099 3501 2762
3131 3533 2891
3131 3533 3003
3196 3549 3131
3212 3565 3244
1558 771 691
1445 867 947
1253 964 1108
1253 1012 1237
1285 1044 1381
1333 1092 1542
1381 1188 1734
1461 1269 1879
1542 1349 2088
1606 931 707
1558 964 931
1333 1076 1172
1285 1092 1253
1317 1124 1429
1381 1204 1606
1397 1253 1734
1510 1333 1943
1574 1413 2104
1702 1204 755
1702 1204 915
1542 1253 1220
1445 1317 1413
1461 1333 1542
1477 1413 1702
1526 1461 1863
1622 1526 2023
1686 1590 2184
1686 1574 1044
1702 1574 1172
1750 1590 1301
1670 1606 1558
1638 1654 1702
1638 1702 1831
1686 1718 1959
1799 1783 2168
1879 1847 2329
1927 1927 1285
1911 1927 1381
1927 1943 1526
1943 1959 1654
1911 1991 1847
1911 2023 2007
1975 2056 2152
2039 2072 2280
2120 2136 2457
2248 2361 1542
2232 2361 1606
2216 2345 1718
2216 2361 1847
2216 2361 2056
2248 2377 2168
2329 2393 2345
2361 2425 2505
2393 2473 2666
2505 2746 1799
2489 2746 1815
2505 2746 1943
2537 2746 2104
2553 2762 2280
2553 2778 2441
2618 2778 2521
2618 2810 2698
2682 2810 2875
2826 3164 2023
2794 3148 2039
2810 3148 2168
2875 3164 2329
2842 3131 2489
2875 3148 2666
2939 3180 2762
3003 3196 2891
2987 3196 3051
3131 3533 2296
3148 3565 2345
3164 3565 2457
3164 3549 2585
3164 3565 2746
3244 3549 2891
3244 3549 3019
3260 3565 3180
3340 3597 3308
1927 964 803
1847 1012 1028
1654 1140 1269
1574 1220 1365
1574 1253 1510
1606 1285 1654
1670 1349 1831
1686 1413 1991
1783 1510 2184
1927 1076 819
1911 1092 1012
1750 1220 1301
1606 1301 1413
1622 1333 1542
1638 1349 1718
1702 1413 1895
1734 1493 2039
1831 1574 2216
2088 1285 819
1975 1333 1092
1879 1365 1349
1686 1445 1510
1702 1477 1622
1750 1542 1799
1799 1590 1959
1815 1638 2088
1943 1702 2280
2072 1654 1028
2104 1638 1108
2104 1638 1285
1991 1702 1638
1879 1766 1766
1943 1799 1927
1959 1847 2088
2007 1863 2232
2104 1927 2377
2216 2007 1301
2200 2007 1381
2184 2039 1510
2232 2039 1686
2184 2056 1911
2168 2072 2039
2200 2152 2216
2264 2184 2393
2312 2232 2553
2505 2393 1606
2489 2377 1622
2457 2377 1734
2473 2393 1895
2489 2409 2072
2473 2441 2232
2473 2489 2393
2489 2505 2521
2553 2537 2698
2746 2778 1831
2714 2810 1879
2730 2794 1975
2730 2794 2088
2698 2810 2248
2762 2810 2457
2778 2810 2553
2842 2858 2762
2842 2858 2891
2971 3180 2039
3019 3196 2136
2987 3196 2216
2987 3180 2329
3051 3196 2489
3019 3196 2682
3051 3180 2794
3099 3196 2891
3148 3228 3067
3292 3565 2312
3276 3565 2345
3276 3581 2425
3292 3581 2569
3292 3581 2730
3324 3581 2891
3372 3597 3083
3404 3613 3212
3437 3613 3308
2296 1156 915
2264 1172 1140
2072 1301 1381
1879 1397 1542
1879 1445 1654
1927 1493 1815
1959 1526 1959
2056 1574 2120
2120 1654 2312
2312 1253 947
2329 1253 1124
2136 1365 1381
1927 1461 1574
1927 1526 1702
1975 1574 1863
1991 1590 1991
2072 1622 2152
2136 1702 2361
2473 1397 915
2361 1445 1172
2296 1477 1397
2088 1590 1622
2023 1654 1750
2056 1686 1911
2120 1750 2056
2152 1783 2200
2168 1847 2377
2553 1718 1012
2569 1702 1140
2441 1734 1429
2377 1799 1670
2184 1895 1847
2216 1927 2007
2248 1943 2152
2312 1975 2280
2361 2072 2473
2618 2088 1285
2602 2104 1381
2618 2104 1510
2666 2104 1702
2537 2152 2023
2457 2216 2136
2473 2232 2296
2473 2248 2441
2553 2296 2602
2714 2473 1622
2698 2473 1670
2730 2489 1783
2698 2457 1911
2762 2473 2056
2746 2505 2329
2698 2553 2457
2714 2585 2618
2762 2602 2762
2971 2810 1879
2955 2810 1911
2971 2810 2007
2971 2842 2152
2955 2875 2329
3003 2875 2489
2971 2891 2666
2955 2907 2794
2987 2939 2955
3180 3196 2072
3180 3196 2136
3196 3196 2232
3164 3196 2329
3180 3212 2505
3180 3212 2666
3212 3244 2858
3276 3260 2971
3276 3324 3180
3485 3597 2393
3501 3613 2409
3469 3613 2489
3501 3645 2602
3485 3645 2746
3517 3629 2907
3485 3629 3099
3533 3629 3244
3597 3661 3356
2682 1333 1028
2666 1349 1188
2505 1445 1461
2329 1590 1702
2216 1638 1783
2264 1686 1943
2280 1718 2056
2329 1766 2232
2409 1815 2409
2698 1429 1076
2714 1413 1220
2569 1526 1493
2377 1622 1686
2280 1718 1831
2296 1734 1943
2329 1783 2088
2361 1831 2248
2457 1879 2441
2842 1558 1044
2746 1606 1269
2698 1622 1477
2521 1734 1718
2361 1815 1863
2393 1879 2023
2441 1879 2168
2441 1927 2280
2521 1991 2473
2987 1766 1044
2939 1799 1204
2842 1863 1493
2746 1911 1783
2585 2007 1975
2553 2072 2088
2602 2120 2248
2618 2168 2409
2682 2168 2553
3003 2136 1285
3035 2136 1349
3051 2104 1493
2939 2168 1831
2875 2216 2088
2714 2312 2200
2746 2345 2361
2794 2377 2521
2794 2409 2698
3083 2553 1622
3051 2521 1622
3083 2537 1766
3115 2537 1927
3148 2521 2056
3035 2602 2441
2955 2650 2505
2955 2666 2714
2987 2698 2875
3212 2891 1911
3212 2907 1975
3196 2907 2072
3180 2907 2200
3228 2907 2296
3276 2923 2473
3228 2939 2698
3196 2987 2891
3212 3035 3051
3421 3276 2152
3453 3260 2216
3404 3276 2312
3421 3292 2425
3453 3308 2585
3453 3308 2778
3453 3308 2891
3485 3340 3083
3453 3356 3228
3677 3661 2425
3677 3661 2441
3694 3645 2505
3694 3677 2634
3677 3661 2778
3694 3677 2923
3710 3694 3115
3694 3694 3308
3806 3758 3517
3115 1526 1172
3099 1542 1285
2971 1590 1542
2794 1750 1783
2650 1831 1943
2602 1879 2039
2634 1911 2184
2666 1991 2361
2746 2056 2553
3131 1590 1172
3115 1574 1301
3019 1654 1574
2842 1783 1799
2650 1879 1943
2650 1927 2056
2682 1991 2248
2714 2023 2409
2762 2072 2569
3148 1718 1237
3164 1750 1349
3180 1750 1574
2987 1895 1863
2778 1991 1991
2730 2072 2152
2762 2104 2296
2794 2120 2441
2826 2152 2585
3404 1895 1188
3324 1943 1349
3228 1991 1654
3148 2023 1847
2987 2136 2088
2842 2216 2216
2858 2248 2361
2907 2280 2553
2907 2329 2666
3404 2200 1301
3453 2216 1397
3421 2232 1574
3292 2280 1927
3228 2312 2136
3019 2425 2345
3003 2457 2489
3035 2521 2634
3051 2537 2778
3469 2585 1590
3453 2585 1654
3469 2569 1750
3549 2553 1927
3421 2602 2216
3340 2666 2489
3212 2746 2634
3228 2762 2762
3260 2778 2907
3533 2971 1895
3549 2987 1927
3581 2987 2039
3549 2987 2184
3613 2971 2329
3645 2987 2505
3533 3035 2810
3404 3051 2923
3437 3083 3083
3710 3356 2248
3694 3340 2280
3710 3372 2393
3677 3372 2489
3694 3372 2618
3694 3372 2794
3758 3388 2907
3710 3404 3196
3710 3437 3308
3983 3758 2553
3950 3758 2618
3967 3774 2698
3934 3758 2746
3934 3758 2955
3950 3774 3131
3950 3806 3340
3950 3854 3613
3902 3870 3806
