doc/3DLUTs/FuturisticBleak.3DL
#Created by: Adobe Photoshop CS6
#Copyright: Copyright 2012 Adobe Systems Inc.
0 64 128 192 256 320 384 448 512 575 639 703 767 831 895 959 1023
128 193 337
96 193 353
145 241 418
177 273 514
225 273 562
337 337 707
385 385 803
450 450 883
562 514 996
594 578 1108
691 658 1220
739 723 1317
803 787 1429
915 867 1574
980 915 1638
1028 996 1766
1092 1044 1847
257 353 401
289 353 434
305 369 514
273 385 594
321 385 642
353 466 771
434 482 835
498 562 964
562 594 1060
642 658 1140
691 723 1253
755 787 1349
851 835 1477
899 899 1574
947 964 1670
1044 1044 1783
1124 1076 1863
337 530 482
385 546 530
401 562 594
401 562 691
434 594 771
450 642 867
482 642 931
562 674 1028
610 739 1108
658 771 1204
739 819 1317
851 899 1445
867 915 1510
947 980 1590
1012 1044 1718
1060 1076 1815
1140 1140 1927
466 771 642
482 771 691
482 771 755
514 787 803
514 803 915
578 803 964
626 851 1044
658 867 1124
707 899 1220
771 931 1301
787 947 1381
883 1012 1477
931 1044 1590
1012 1108 1686
1044 1140 1766
1140 1204 1879
1188 1253 1991
691 1012 755
674 1012 803
674 980 883
658 980 947
658 1012 980
642 1012 1092
707 1012 1156
755 1060 1269
771 1060 1317
835 1108 1397
931 1156 1510
947 1156 1574
980 1188 1654
1076 1237 1783
1140 1285 1863
1188 1301 1911
1237 1349 2023
851 1220 899
803 1204 931
835 1204 996
819 1204 1060
835 1204 1124
867 1204 1156
883 1220 1253
899 1237 1349
931 1253 1429
996 1269 1510
996 1317 1590
1060 1349 1670
1124 1349 1750
1156 1397 1847
1253 1429 1943
1285 1461 2039
1333 1477 2104
980 1413 1012
980 1429 1060
980 1413 1108
980 1413 1172
996 1397 1237
1012 1429 1333
1044 1429 1365
1076 1445 1445
1044 1445 1526
1124 1477 1622
1140 1493 1702
1156 1493 1750
1188 1558 1863
1285 1558 1943
1349 1590 2023
1381 1622 2104
1461 1654 2216
1156 1606 1124
1140 1622 1172
1140 1606 1253
1172 1622 1317
1188 1622 1381
1172 1638 1445
1188 1638 1510
1220 1638 1542
1237 1638 1606
1301 1654 1718
1333 1670 1799
1365 1702 1879
1397 1734 1975
1429 1734 2039
1477 1766 2104
1526 1815 2216
1558 1831 2296
1317 1815 1285
1285 1831 1317
1301 1831 1365
1317 1815 1397
1333 1799 1445
1349 1831 1542
1381 1831 1622
1381 1815 1654
1413 1863 1734
1461 1863 1799
1477 1863 1895
1510 1895 1991
1542 1895 2023
1638 1943 2136
1670 1927 2184
1670 1943 2264
1734 1991 2377
1542 2007 1381
1510 2023 1381
1526 2023 1445
1542 2023 1526
1542 2007 1590
1574 2023 1654
1558 2023 1686
1606 2039 1766
1606 2023 1815
1654 2056 1863
1686 2072 1943
1718 2088 2072
1734 2104 2168
1766 2120 2248
1847 2136 2296
1927 2152 2361
1975 2184 2457
1734 2232 1493
1766 2248 1510
1734 2232 1526
1766 2248 1590
1766 2232 1686
1815 2232 1766
1799 2232 1815
1847 2264 1927
1831 2264 1927
1879 2280 2007
1895 2280 2072
1911 2280 2136
1959 2312 2232
1975 2329 2345
2023 2361 2425
2072 2329 2441
2104 2361 2537
1975 2457 1654
1943 2457 1638
1959 2457 1670
1975 2441 1734
1991 2441 1799
2007 2441 1895
2023 2441 1943
2023 2441 1991
2023 2441 2072
2072 2473 2168
2104 2473 2200
2120 2473 2264
2184 2489 2296
2216 2505 2377
2200 2521 2537
2248 2553 2634
2264 2537 2682
2152 2650 1734
2168 2634 1783
2120 2650 1815
2136 2650 1879
2168 2650 1959
2200 2650 2023
2216 2650 2088
2200 2666 2120
2248 2682 2200
2232 2682 2264
2248 2682 2329
2280 2682 2377
2312 2698 2457
2345 2714 2537
2361 2714 2602
2393 2730 2714
2425 2762 2810
2312 2858 1895
2329 2858 1895
2329 2875 1959
2296 2858 1991
2329 2875 2056
2345 2858 2120
2377 2875 2184
2377 2875 2296
2393 2891 2329
2409 2875 2361
2473 2875 2441
2441 2875 2489
2489 2891 2553
2521 2907 2618
2537 2907 2698
2585 2923 2778
2618 2955 2907
2553 3067 2023
2537 3067 2056
2489 3067 2088
2521 3067 2120
2537 3051 2184
2537 3051 2280
2585 3067 2312
2602 3051 2377
2602 3083 2425
2602 3067 2505
2618 3083 2553
2634 3083 2618
2666 3083 2666
2698 3083 2714
2730 3115 2794
2746 3115 2907
2778 3131 2987
2714 3276 2184
2714 3276 2216
2682 3292 2232
2698 3292 2280
2698 3292 2296
2746 3276 2393
2730 3292 2457
2762 3292 2521
2762 3276 2585
2778 3260 2634
2746 3260 2698
2810 3276 2746
2842 3292 2842
2826 3292 2858
2858 3292 2907
2875 3308 3003
2923 3324 3067
2891 3501 2345
2891 3485 2377
2875 3485 2361
2842 3501 2377
2858 3485 2425
2907 3501 2521
2907 3485 2602
2939 3485 2650
2939 3469 2698
2955 3501 2762
2955 3485 2810
3035 3485 2891
3019 3501 2971
3067 3517 3051
3067 3517 3115
3115 3533 3164
3099 3549 3244
273 225 353
273 241 385
225 273 450
257 257 514
305 321 626
369 353 707
434 434 819
498 482 915
562 562 1028
594 594 1124
723 658 1220
755 723 1333
819 819 1445
899 883 1590
980 915 1638
1060 1012 1750
1108 1060 1863
337 353 401
337 369 450
321 401 546
337 401 594
369 434 707
418 466 771
466 514 867
546 578 996
578 626 1076
691 674 1156
723 739 1269
755 803 1365
867 851 1493
931 915 1558
996 980 1670
1060 1044 1783
1124 1076 1863
434 546 482
418 562 546
466 594 626
466 594 707
466 642 819
482 642 867
514 674 964
578 707 1028
626 755 1140
707 787 1220
755 835 1333
835 883 1429
915 931 1510
947 996 1606
1028 1060 1734
1076 1076 1799
1140 1140 1927
562 771 594
530 787 707
546 803 771
578 803 803
578 803 867
594 819 980
642 867 1076
658 883 1140
739 915 1237
771 931 1301
787 980 1413
883 1012 1493
947 1060 1574
996 1108 1670
1060 1140 1783
1140 1204 1879
1220 1237 1991
723 996 755
691 996 819
707 996 883
674 1012 964
707 1012 996
723 1028 1092
723 1044 1172
787 1060 1253
819 1092 1317
851 1124 1413
931 1156 1510
964 1172 1590
1012 1172 1654
1076 1237 1783
1140 1285 1863
1220 1333 1943
1285 1349 2039
851 1220 867
835 1220 931
835 1220 996
835 1220 1076
851 1204 1140
867 1204 1156
883 1220 1253
915 1253 1381
980 1269 1445
996 1285 1510
1012 1317 1606
1108 1349 1686
1124 1365 1750
1156 1381 1847
1237 1413 1927
1285 1445 2039
1349 1493 2104
1028 1413 996
996 1413 1044
1012 1413 1140
1028 1413 1188
1044 1413 1253
1012 1413 1333
1060 1429 1333
1076 1445 1445
1060 1477 1542
1108 1477 1606
1140 1493 1702
1172 1510 1783
1220 1542 1863
1285 1558 1959
1349 1606 2023
1413 1622 2120
1477 1670 2232
1188 1606 1156
1140 1622 1172
1156 1606 1220
1156 1606 1317
1172 1606 1381
1188 1622 1461
1220 1622 1510
1237 1654 1558
1253 1654 1622
1285 1686 1734
1333 1670 1799
1381 1718 1895
1397 1718 1959
1429 1734 2039
1477 1766 2104
1526 1815 2200
1558 1831 2296
1333 1815 1253
1349 1815 1301
1317 1831 1349
1333 1815 1397
1365 1815 1493
1365 1831 1558
1365 1815 1590
1397 1847 1686
1429 1847 1718
1461 1863 1799
1477 1879 1911
1493 1895 2007
1574 1927 2039
1670 1927 2136
1686 1927 2200
1670 1943 2264
1718 1991 2377
1558 2023 1365
1542 2023 1381
1542 2023 1445
1558 2023 1510
1574 2023 1606
1574 2023 1654
1622 2023 1702
1606 2039 1766
1622 2056 1831
1654 2056 1863
1686 2056 1943
1718 2088 2056
1718 2088 2152
1766 2136 2248
1879 2120 2264
1927 2152 2361
1975 2184 2473
1799 2232 1477
1783 2232 1510
1766 2232 1558
1783 2232 1622
1799 2216 1670
1815 2232 1766
1815 2248 1815
1847 2264 1895
1879 2280 1975
1879 2296 2023
1911 2296 2088
1911 2280 2136
2007 2312 2248
1975 2329 2345
2056 2345 2393
2072 2345 2457
2120 2361 2553
2007 2457 1654
1991 2473 1654
1959 2457 1670
1975 2441 1734
1991 2441 1799
2007 2441 1863
2039 2457 1959
2072 2473 2039
2039 2457 2088
2072 2473 2168
2120 2489 2216
2120 2457 2264
2168 2505 2361
2200 2505 2441
2216 2537 2553
2232 2537 2618
2248 2537 2682
2168 2666 1750
2168 2650 1799
2120 2650 1815
2168 2666 1879
2168 2650 1959
2184 2650 2023
2216 2650 2056
2216 2666 2136
2216 2650 2184
2248 2666 2248
2248 2682 2345
2280 2682 2377
2312 2698 2457
2329 2698 2521
2377 2730 2618
2393 2746 2714
2425 2762 2794
2345 2842 1895
2329 2858 1895
2296 2858 1943
2312 2875 1959
2329 2875 2056
2345 2858 2120
2377 2875 2200
2393 2875 2264
2425 2875 2329
2409 2875 2361
2473 2875 2441
2489 2875 2505
2505 2891 2553
2505 2875 2602
2553 2907 2698
2585 2923 2778
2602 2955 2891
2537 3067 2023
2569 3067 2056
2505 3067 2056
2521 3067 2120
2537 3067 2184
2569 3083 2264
2585 3067 2329
2585 3051 2377
2602 3083 2425
2602 3067 2521
2634 3083 2602
2618 3067 2618
2666 3083 2666
2698 3099 2714
2730 3115 2794
2778 3131 2891
2778 3131 2987
2714 3276 2184
2746 3308 2216
2698 3308 2232
2714 3308 2312
2714 3308 2296
2730 3292 2361
2730 3292 2457
2778 3276 2553
2778 3276 2585
2778 3260 2634
2762 3276 2698
2794 3260 2730
2826 3292 2826
2810 3276 2858
2842 3292 2923
2875 3308 3003
2939 3340 3083
2891 3485 2345
2875 3485 2329
2875 3485 2377
2842 3501 2377
2891 3517 2457
2907 3501 2521
2907 3485 2569
2907 3485 2666
2939 3485 2714
2971 3485 2778
3019 3501 2826
3035 3485 2891
3035 3517 2971
3051 3517 3051
3083 3533 3131
3099 3517 3164
3148 3533 3212
385 257 369
353 289 401
369 305 482
401 337 594
401 337 642
434 401 771
482 466 835
562 530 947
578 578 1060
674 626 1124
723 707 1253
803 755 1349
883 835 1477
915 883 1558
1044 947 1670
1076 1012 1766
1108 1060 1863
498 369 385
450 401 498
434 434 578
401 466 626
450 498 723
514 514 803
562 594 931
578 610 996
642 642 1076
691 707 1188
755 771 1285
835 835 1413
867 867 1477
964 915 1574
996 996 1670
1108 1060 1815
1140 1108 1895
562 594 514
562 610 578
530 610 674
514 642 739
514 626 803
562 674 883
610 707 980
658 755 1076
674 771 1156
755 819 1237
819 883 1365
851 915 1445
931 964 1542
980 1012 1622
1076 1076 1766
1076 1092 1799
1172 1172 1959
658 787 610
642 803 658
610 803 755
626 819 819
642 835 915
674 851 980
707 883 1092
723 899 1172
771 947 1269
771 964 1349
851 996 1445
915 1044 1493
996 1092 1606
1012 1108 1686
1092 1172 1783
1140 1220 1895
1253 1269 1959
771 1012 755
771 1012 803
723 1012 899
739 1028 964
755 1028 1012
771 1044 1108
787 1060 1204
819 1092 1285
851 1092 1333
915 1140 1429
931 1156 1510
996 1172 1590
1044 1220 1702
1108 1253 1783
1172 1301 1847
1253 1317 1959
1285 1365 2023
883 1204 835
915 1220 931
867 1220 1012
883 1220 1060
899 1220 1156
931 1220 1188
947 1237 1285
947 1253 1365
980 1269 1445
1012 1285 1526
1060 1333 1622
1092 1333 1670
1140 1381 1766
1220 1397 1863
1269 1445 1959
1317 1477 2039
1381 1477 2120
1060 1413 996
1044 1413 1028
1028 1429 1124
1044 1429 1172
1060 1429 1269
1076 1445 1333
1108 1445 1365
1076 1445 1445
1092 1461 1542
1124 1493 1622
1220 1526 1734
1204 1542 1799
1237 1558 1879
1317 1574 1943
1365 1606 2039
1413 1622 2120
1477 1654 2200
1188 1606 1108
1204 1606 1188
1172 1622 1253
1188 1622 1301
1237 1622 1397
1220 1638 1429
1253 1654 1526
1285 1654 1574
1285 1654 1622
1317 1670 1734
1349 1702 1815
1381 1718 1895
1429 1718 1959
1445 1750 2023
1493 1783 2120
1574 1815 2216
1622 1847 2312
1365 1815 1253
1365 1815 1285
1333 1815 1365
1365 1815 1397
1397 1831 1477
1397 1815 1558
1413 1831 1622
1413 1863 1702
1461 1863 1750
1477 1879 1815
1493 1879 1911
1542 1879 1975
1606 1911 2039
1670 1927 2136
1686 1927 2200
1686 1975 2280
1766 2007 2361
1558 2023 1365
1574 2007 1381
1542 2039 1461
1558 2023 1510
1590 2039 1590
1606 2023 1654
1638 2056 1718
1638 2039 1766
1670 2056 1847
1702 2056 1879
1702 2088 1991
1766 2088 2072
1783 2104 2152
1847 2136 2216
1879 2120 2264
1911 2136 2345
1975 2184 2473
1799 2248 1477
1783 2232 1477
1799 2264 1558
1799 2248 1638
1799 2216 1670
1831 2232 1750
1831 2216 1799
1863 2264 1895
1895 2280 1943
1911 2280 2023
1959 2296 2072
1975 2296 2120
2007 2329 2248
2039 2329 2329
2056 2345 2393
2088 2361 2473
2120 2377 2553
2007 2457 1654
2023 2457 1622
1975 2457 1638
2007 2457 1718
2007 2441 1799
2039 2425 1879
2039 2457 1927
2072 2457 2039
2039 2457 2088
2072 2473 2136
2104 2473 2200
2168 2489 2232
2152 2489 2345
2200 2521 2441
2216 2521 2537
2248 2553 2634
2264 2553 2698
2168 2666 1750
2152 2666 1783
2152 2666 1815
2168 2650 1863
2200 2682 1943
2216 2666 2007
2216 2650 2056
2264 2682 2152
2248 2682 2216
2264 2682 2264
2296 2682 2345
2280 2682 2377
2312 2698 2457
2329 2698 2521
2377 2730 2618
2393 2746 2730
2425 2762 2794
2345 2875 1911
2345 2875 1911
2345 2891 1943
2345 2875 1991
2345 2875 2039
2345 2875 2120
2409 2875 2232
2409 2891 2280
2425 2875 2329
2457 2891 2377
2489 2891 2441
2505 2891 2521
2521 2875 2537
2569 2907 2634
2553 2907 2698
2618 2907 2778
2618 2955 2907
2553 3067 2039
2569 3067 2056
2537 3067 2072
2521 3067 2120
2553 3083 2200
2553 3067 2248
2585 3067 2312
2618 3083 2409
2634 3067 2457
2634 3099 2505
2634 3083 2585
2666 3083 2634
2666 3099 2682
2730 3115 2746
2746 3131 2810
2778 3131 2891
2778 3131 2971
2746 3308 2200
2730 3292 2200
2682 3292 2216
2714 3308 2296
2746 3308 2345
2762 3292 2393
2778 3276 2457
2746 3276 2521
2762 3276 2569
2778 3260 2634
2794 3276 2714
2794 3276 2746
2842 3292 2794
2875 3292 2875
2858 3292 2907
2891 3308 2987
2923 3340 3099
2891 3485 2345
2891 3485 2345
2939 3501 2361
2875 3485 2409
2858 3485 2425
2907 3501 2489
2907 3485 2569
2923 3485 2634
2955 3501 2714
2987 3485 2746
3019 3501 2842
3051 3517 2923
3067 3501 2971
3051 3517 3051
3099 3533 3131
3131 3533 3180
3164 3549 3228
594 321 466
530 369 498
498 401 562
530 418 658
562 450 707
546 482 787
594 562 915
642 594 996
707 626 1076
755 707 1204
787 755 1285
851 803 1397
899 867 1493
1012 915 1574
1060 980 1670
1108 1060 1815
1188 1108 1895
658 450 466
610 450 546
546 482 594
578 514 674
562 562 771
594 594 867
594 610 931
642 642 1028
707 723 1124
739 739 1204
803 803 1317
899 883 1445
931 899 1510
996 947 1606
1060 1012 1702
1092 1076 1783
