doc/3DLUTs/Kodak 5205 Fuji 3510 (by Adobe).cube
# Copyright 2012, Adobe Systems Inc.
# Created with ADBELUTBuilder Fri 30 Nov 2012 12:18:06
# Film Look Kodak5205 Fuji3510
# Copyright 2012 Adobe Systems
LUT_3D_SIZE 21
DOMAIN_MIN 0.0 0.0 0.0
DOMAIN_MAX 1.0 1.0 1.0
0.01089 0.00746 0.00985
0.04895 0.0107 0.01042
0.09345 0.01448 0.01026
0.14704 0.01794 0.00903
0.22214 0.02089 0.0057
0.30815 0.01915 0
0.37162 0.01536 0
0.43554 0.00806 0
0.50098 0 0
0.54769 0 0
0.57947 0 0
0.6113 0 0
0.64246 0 0
0.67276 0 0
0.70119 0 0
0.71699 0 0
0.73278 0 0
0.7486 0 0
0.76439 0 0
0.78009 0 0
0.79567 0.00693 0
0.01358 0.04962 0.01621
0.03372 0.04444 0.01469
0.05817 0.04834 0.01425
0.09088 0.05445 0.01349
0.13419 0.06173 0.01191
0.19449 0.06995 0.00866
0.27521 0.077 0.0024
0.3582 0.07946 0
0.4236 0.07803 0
0.49015 0.07367 0
0.55974 0.06516 0
0.59539 0.06121 0
0.62807 0.05801 0
0.66021 0.05527 0
0.6918 0.05317 0
0.72285 0.05192 0
0.74329 0.05615 0
0.75955 0.0631 0
0.77567 0.07088 0
0.79162 0.07928 0
0.80726 0.08797 0
0.01193 0.07737 0.01841
0.03343 0.07276 0.01702
0.05493 0.07554 0.01639
0.08522 0.08142 0.01545
0.12427 0.08871 0.01377
0.17432 0.09725 0.01083
0.24273 0.10681 0.00539
0.32974 0.11531 0
0.40069 0.11907 0
0.46541 0.12053 0
0.53188 0.12013 0
0.59518 0.11789 0
0.62797 0.11748 0
0.66028 0.11735 0
0.69212 0.11757 0
0.72347 0.11823 0
0.75432 0.11941 0
0.77174 0.12366 0
0.7876 0.12883 0
0.80332 0.13462 0
0.81892 0.14113 0
0.00574 0.10968 0.02489
0.03163 0.10328 0.0181
0.05241 0.1051 0.01731
0.0832 0.11097 0.01608
0.12088 0.11828 0.01409
0.16691 0.12686 0.01094
0.22863 0.13721 0.00549
0.30755 0.14796 0
0.39061 0.15612 0
0.45366 0.16018 0
0.51798 0.16305 0
0.58521 0.1645 0
0.63255 0.16507 0
0.66466 0.166 0
0.69637 0.16721 0
0.72771 0.16881 0
0.75867 0.17093 0
0.78572 0.17397 0
0.80158 0.17878 0
0.8174 0.18429 0
0.83315 0.19049 0
0 0.14628 0.03361
0.02284 0.14279 0.02511
0.04517 0.14304 0.02176
0.07979 0.14848 0.01868
0.11849 0.15537 0.01495
0.1637 0.16369 0.01014
0.22116 0.17407 0.00319
0.29452 0.18599 0
0.38372 0.19794 0
0.44824 0.20421 0
0.51143 0.20932 0
0.57642 0.21362 0
0.64197 0.21689 0
0.67399 0.21889 0
0.70571 0.22124 0
0.73713 0.22399 0
0.76823 0.22718 0
0.79901 0.23085 0
0.82088 0.23544 0
0.83695 0.24083 0
0.85301 0.2468 0
0 0.18431 0.04309
0.00777 0.18178 0.0336
0.03105 0.1823 0.0293
0.07096 0.18838 0.02529
0.11295 0.19596 0.02056
0.15994 0.20514 0.01461
0.21581 0.21623 0.00667
0.28649 0.22936 0
0.37166 0.24324 0
0.44782 0.25328 0
0.51052 0.26009 0
0.57417 0.26624 0
0.64073 0.27174 0
0.68743 0.27517 0
0.71895 0.27775 0
0.75015 0.28058 0
0.78105 0.28366 0
0.81162 0.28702 0
0.84162 0.29068 0
0.85685 0.29452 0
0.87197 0.29877 0
0 0.22811 0.05274
0 0.22692 0.04223
0.00841 0.22709 0.03695
0.05376 0.23307 0.03188
0.10297 0.24067 0.02601
0.15373 0.24997 0.01877
0.21 0.26102 0.00962
0.2795 0.2745 0
0.36209 0.28923 0
0.44802 0.30242 0
0.51024 0.31004 0
0.57327 0.31718 0
0.63836 0.32386 0
0.70039 0.32946 0
0.73169 0.3321 0
0.76269 0.33498 0
0.79338 0.3381 0
0.82376 0.34148 0
0.85379 0.34511 0
0.87677 0.34873 0
0.8915 0.35238 0
0 0.2698 0.06248
0 0.27084 0.05121
0 0.27195 0.04484
0.02391 0.27891 0.03846
0.08572 0.28748 0.0311
0.14344 0.29787 0.02212
0.20249 0.30989 0.0111
0.27276 0.32429 0
0.35447 0.33959 0
0.44809 0.35555 0
0.51144 0.3639 0
0.57449 0.37168 0
0.6385 0.37909 0
0.7053 0.38615 0
0.7454 0.38968 0
0.77623 0.3924 0
0.80672 0.39535 0
0.8369 0.39854 0
0.86674 0.40198 0
0.89623 0.40565 0
0.91165 0.40868 0
0 0.31015 0.07159
0 0.31096 0.06083
0 0.31193 0.05378
0 0.3191 0.04631
0.06017 0.32767 0.03778
0.12872 0.33809 0.02746
0.19167 0.35001 0.01512
0.26318 0.36475 0
0.34468 0.3813 0
0.4369 0.39876 0
0.5098 0.41032 0
0.57303 0.41915 0
0.63654 0.42748 0
0.70238 0.43546 0
0.75585 0.4411 0
0.78658 0.44373 0
0.81693 0.44648 0
0.8469 0.44935 0
0.8765 0.45234 0
0.90569 0.45544 0
0.92801 0.45812 0
0 0.35028 0.08055
0 0.35083 0.06982
0 0.35218 0.06261
0 0.3593 0.05438
0.02053 0.3679 0.04461
0.10851 0.37835 0.0329
0.17826 0.39019 0.01912
0.25249 0.40492 0.00087
0.33464 0.4216 0
0.42601 0.43939 0
0.50704 0.45317 0
0.5702 0.46221 0
0.63337 0.47079 0
0.69821 0.47904 0
0.76352 0.48666 0
0.79409 0.489 0
0.82429 0.49145 0
0.85409 0.49401 0
0.88351 0.49669 0
0.91254 0.49949 0
0.94116 0.5024 0
0 0.38566 0.09222
0 0.38742 0.08059
0 0.39026 0.07184
0 0.39812 0.0627
0 0.40757 0.05167
0.08002 0.41805 0.03853
0.16183 0.4299 0.02322
0.2403 0.44454 0.00349
0.32418 0.46131 0
0.41556 0.47935 0
0.50399 0.49525 0
0.5672 0.50447 0
0.6304 0.5133 0
0.69448 0.52178 0
0.76081 0.53001 0
0.80105 0.5337 0
0.83117 0.53595 0
0.86091 0.53833 0
0.89023 0.54082 0
0.91918 0.54342 0
0.94773 0.54614 0
0 0.41716 0.10647
0 0.41854 0.09517
0 0.42209 0.08626
0 0.42958 0.07677
0 0.43894 0.06466
0.04166 0.45024 0.04873
0.14305 0.46309 0.03067
0.22674 0.47881 0.00909
0.31292 0.49689 0
0.40494 0.51638 0
0.50038 0.53552 0
0.56401 0.54604 0
0.62772 0.55612 0
0.69136 0.56496 0
0.75701 0.57344 0
0.8078 0.57891 0
0.8379 0.58097 0
0.8676 0.58316 0
0.89689 0.58548 0
0.9258 0.58791 0
0.95431 0.59045 0
0 0.44912 0.12355
0 0.45017 0.11264
0 0.45462 0.10363
0 0.46184 0.09432
0 0.47105 0.08259
0 0.48216 0.06752
0.11836 0.49475 0.04774
0.2111 0.51 0.02316
0.30069 0.52773 0
0.39366 0.54698 0
0.49275 0.56723 0
0.55861 0.57836 0
0.62234 0.58857 0
0.68576 0.5983 0
0.75092 0.60777 0
0.81147 0.61581 0
0.84173 0.61841 0
0.8716 0.62106 0
0.90103 0.62374 0
0.93004 0.62647 0
0.95865 0.62923 0
0 0.48143 0.14284
0 0.48223 0.13247
0 0.48782 0.12359
0 0.49484 0.11459
0 0.50394 0.10336
0 0.51489 0.08939
0.08281 0.52731 0.07168
0.19181 0.54235 0.04656
0.28677 0.5599 0.01423
0.38181 0.57906 0
0.48135 0.59912 0
0.55319 0.61149 0
0.61711 0.6216 0
0.6804 0.63126 0
0.74497 0.64077 0
0.81139 0.6501 0
0.84448 0.6531 0
0.87431 0.65562 0
0.90372 0.65819 0
0.9327 0.6608 0
0.96128 0.66346 0
0 0.51401 0.1641
0 0.51491 0.15421
0 0.52155 0.14557
0 0.52843 0.13685
0 0.53742 0.12609
0 0.54821 0.11306
0.02355 0.56047 0.09719
0.16787 0.57535 0.07591
0.27099 0.59276 0.04395
0.3693 0.61182 0.00304
0.46997 0.63188 0
0.54741 0.64552 0
0.61173 0.65564 0
0.67519 0.66536 0
0.73944 0.67485 0
0.80539 0.68415 0
0.84713 0.68855 0
0.87696 0.69085 0
0.90637 0.69321 0
0.93535 0.69562 0
0.9639 0.69809 0
0 0.53631 0.18703
0 0.54068 0.17777
0 0.5483 0.16976
0 0.55653 0.16144
0 0.56708 0.15119
0 0.57959 0.13886
0 0.59368 0.12402
0.13676 0.60899 0.10542
0.25273 0.62626 0.07968
0.35574 0.6452 0.04038
0.45838 0.66522 0
0.54114 0.67997 0
0.60603 0.69008 0
0.66989 0.69983 0
0.73401 0.70933 0
0.79967 0.71869 0
0.84946 0.72458 0
0.87937 0.72672 0
0.90885 0.72894 0
0.93789 0.73122 0
0.96649 0.73356 0
0 0.55683 0.21118
0 0.56287 0.20247
0 0.57002 0.19498
0 0.5781 0.18713
0 0.5884 0.17766
0 0.6006 0.16655
0 0.61435 0.15356
0.10498 0.63094 0.13743
0.23463 0.65019 0.11615
0.34182 0.67124 0.08648
0.44632 0.69345 0.03958
0.53401 0.71141 0
0.59977 0.72364 0
0.66437 0.73464 0
0.72853 0.74414 0
0.79404 0.75352 0
0.85132 0.76086 0
0.88134 0.76286 0
0.91093 0.76492 0
0.94006 0.76706 0
0.96875 0.76925 0
0 0.57766 0.23689
0 0.58516 0.22882
0 0.59202 0.22172
0 0.59996 0.21425
0 0.60999 0.20532
0 0.62184 0.19499
0 0.63521 0.18317
0.06328 0.65152 0.16891
0.2162 0.67037 0.15097
0.32825 0.69102 0.12778
0.43432 0.71286 0.0959
0.52573 0.73141 0.0516
0.59162 0.74348 0.00519
0.65644 0.75513 0
0.72066 0.76637 0
0.78615 0.77744 0
0.8505 0.78778 0
0.88094 0.79119 0
0.91094 0.79457 0
0.94049 0.79791 0
0.96958 0.80121 0
0 0.60061 0.26409
0 0.6075 0.25654
0 0.61426 0.24974
0 0.62204 0.2426
0 0.63181 0.23416
0 0.64334 0.2245
0 0.65636 0.2136
0.00273 0.67243 0.20074
0.1956 0.69092 0.18511
0.31418 0.71119 0.16581
0.42246 0.73266 0.14123
0.51735 0.75163 0.11101
0.58351 0.76351 0.0783
0.64848 0.77504 0.03322
0.71254 0.78616 0
0.77764 0.79711 0
0.84406 0.80788 0
0.87849 0.81198 0
0.90847 0.81525 0
0.93801 0.81849 0
0.96709 0.8217 0
0 0.6225 0.28858
0 0.62963 0.28391
0 0.63673 0.27907
0 0.64435 0.27222
0 0.65388 0.26417
0 0.6651 0.25503
0 0.67778 0.24484
0 0.69367 0.23303
0.17211 0.7118 0.21905
0.29948 0.73169 0.20234
0.41066 0.75279 0.182
0.50882 0.77202 0.15811
0.57537 0.78372 0.13454
0.64058 0.7951 0.10648
0.70459 0.80608 0.07037
0.76942 0.81691 0.02017
0.83545 0.82759 0
0.87587 0.83279 0
0.90585 0.83596 0
0.93539 0.8391 0
0.96448 0.84222 0
0 0.6431 0.30921
0 0.65009 0.30473
0 0.65723 0.30058
0 0.66524 0.29622
0 0.67515 0.29106
0 0.68672 0.28516
0 0.69955 0.27702
0 0.71519 0.26603
0.14433 0.73299 0.2533
0.28392 0.75251 0.23844
0.39879 0.77325 0.2209
0.50005 0.79261 0.20079
0.56713 0.80411 0.18154
0.63267 0.81534 0.16016
0.69676 0.82618 0.13588
0.76141 0.83689 0.10633
0.82715 0.84746 0.06638
0.87306 0.8537 0.02288
0.90307 0.85675 0
0.93263 0.85979 0
0.96174 0.86281 0
0.01715 0.00984 0.04265
0.09654 0.01408 0.03537
0.14165 0.01487 0.02968
0.20568 0.01572 0.02599
0.28899 0.01154 0.01995
0.35262 0.00789 0.01381
0.41529 0.00116 0.00652
0.4793 0 0
0.53819 0 0
0.56995 0 0
0.60079 0 0
0.63078 0 0
0.66089 0 0
0.69052 0 0
0.71145 0 0
0.72685 0 0
0.74212 0 0
0.75751 0 0
0.77297 0 0
0.78843 0 0
0.80385 0 0
0.01034 0.04835 0.05779
0.03377 0.04679 0.0455
0.06467 0.05115 0.04232
0.10241 0.05689 0.03969
0.15176 0.06366 0.03636
0.22113 0.07083 0.0312
0.31101 0.07538 0.02287
0.38436 0.07477 0.01386
0.45083 0.0709 0.00419
0.51905 0.06293 0
0.57793 0.05232 0
0.61083 0.04702 0
0.64314 0.04225 0
0.67493 0.03813 0
0.70618 0.03485 0
0.73547 0.03323 0
0.75169 0.03893 0
0.76783 0.04618 0
0.78388 0.05501 0
0.79981 0.06469 0
0.81556 0.07485 0
0.00563 0.07876 0.06601
0.03079 0.07632 0.05386
0.05773 0.07928 0.04979
0.09171 0.0845 0.04687
0.13465 0.09103 0.04337
0.19115 0.09894 0.0387
0.26665 0.10723 0.03153
0.35772 0.11334 0.02091
0.42191 0.11482 0.01121
0.48753 0.11455 0
0.55584 0.11206 0
0.60831 0.10909 0
0.64112 0.10807 0
0.67344 0.10742 0
0.70525 0.1071 0
0.73656 0.10727 0
0.76407 0.10879 0
0.78007 0.11358 0
0.79597 0.11908 0
0.81174 0.12526 0
0.82737 0.13207 0
0 0.1101 0.07369
0.02551 0.10738 0.06227
0.05182 0.10941 0.0576
0.08599 0.11449 0.05421
0.12762 0.12112 0.05025
0.17845 0.12916 0.04534
0.24627 0.13875 0.03824
0.33127 0.14821 0.02777
0.40825 0.15385 0.01598
0.47251 0.15672 0.00428
0.53817 0.15833 0
0.60715 0.15833 0
0.64466 0.15843 0
0.67689 0.15898 0
0.70872 0.15985 0
0.74012 0.16111 0
0.77111 0.16283 0
0.79403 0.1661 0
0.80989 0.17096 0
0.82575 0.17659 0
0.84157 0.18297 0
0 0.1484 0.08188
0.01466 0.14593 0.07115
0.04146 0.1471 0.06608
0.07923 0.1521 0.06232
0.12198 0.15868 0.05781
0.17086 0.16663 0.05222
0.23403 0.17669 0.04461
0.31283 0.18769 0.03381
0.40139 0.1975 0.01945
0.4643 0.20231 0.00681
0.52845 0.20639 0
0.59513 0.20962 0
0.653 0.21166 0
0.68522 0.21329 0
0.71712 0.21533 0
0.74872 0.21782 0
0.78 0.22079 0
0.81094 0.22429 0
0.82891 0.22895 0
0.84474 0.23435 0
0.86053 0.24036 0
0 0.18615 0.09047
0 0.18523 0.0795
0.02493 0.18677 0.07418
0.06792 0.19251 0.07002
0.11439 0.19991 0.06503
0.16456 0.20876 0.05881
0.22542 0.21979 0.05029
0.30081 0.2325 0.03843
0.39063 0.24566 0.02217
0.46141 0.25372 0.00652
0.52522 0.25986 0
0.59023 0.26533 0
0.65836 0.27008 0
0.69769 0.2726 0
0.72938 0.27491 0
0.76071 0.2775 0
0.79169 0.28037 0
0.82227 0.28354 0
0.84899 0.28701 0
0.86406 0.29085 0
0.87903 0.29511 0
0 0.23096 0.09924
0 0.22948 0.0875
0.0005 0.23062 0.0818
0.04773 0.23644 0.07713
0.10256 0.24392 0.07154
0.15653 0.25295 0.0646
0.21694 0.26397 0.0553
0.29051 0.27719 0.04219
0.37702 0.29144 0.02468
0.45876 0.30275 0.00513
0.52207 0.30986 0
0.58603 0.31649 0
0.65249 0.32266 0
0.70849 0.32718 0
0.74001 0.32964 0
0.7712 0.33236 0
0.80203 0.33534 0
0.8325 0.33858 0
0.86259 0.3421 0
0.88264 0.34558 0
0.8973 0.34924 0
0 0.27526 0.10796
0 0.27543 0.09631
0 0.27727 0.0892
0.01466 0.28391 0.08332
0.08285 0.29242 0.07691
0.14469 0.30224 0.06891
0.20757 0.31327 0.05854
0.28145 0.32683 0.04372
0.36654 0.34179 0.02432
0.45807 0.35622 0
0.52111 0.36393 0
0.58482 0.3713 0
0.65 0.37833 0
0.71796 0.38499 0
0.75209 0.38765 0
0.78312 0.39025 0
0.81379 0.3931 0
0.84411 0.3962 0
0.87406 0.39956 0
0.90207 0.40307 0
0.91641 0.40605 0
0 0.31609 0.11767
0 0.31597 0.10596
0 0.31784 0.09838
0 0.32436 0.09156
0.05413 0.33263 0.08348
0.12863 0.34273 0.07398
0.19533 0.35464 0.06268
0.27045 0.36932 0.04629
0.35509 0.38565 0.02486
0.45024 0.40275 0
0.5185 0.4127 0
0.58242 0.42118 0
0.64681 0.4292 0
0.71371 0.43687 0
0.76209 0.44153 0
0.79303 0.44405 0
0.82357 0.44669 0
0.85369 0.44945 0
0.88342 0.45235 0
0.91271 0.45537 0
0.93272 0.45781 0
0 0.35728 0.12888
0 0.35692 0.11715
0 0.35906 0.10911
0 0.36548 0.10168
0.00924 0.37371 0.09291
0.10567 0.3837 0.08228
0.18024 0.39525 0.06906
0.2583 0.4097 0.05016
0.34335 0.42619 0.02693
0.43734 0.44368 0
0.51441 0.45591 0
0.57825 0.46466 0
0.64207 0.47296 0
0.70784 0.48095 0
0.76879 0.48759 0
0.79957 0.48983 0
0.82996 0.49219 0
0.85993 0.49467 0
0.8895 0.49727 0
0.91866 0.49999 0
0.94567 0.50267 0
0 0.39509 0.14192
0 0.39608 0.13031
0 0.39982 0.12187
0 0.40649 0.11396
0 0.41465 0.10463
0.0708 0.42458 0.09345
0.16052 0.43597 0.07981
0.24397 0.45034 0.06074
0.33108 0.46667 0.03391
0.42509 0.48422 0.00061
0.51018 0.49847 0
0.57408 0.5074 0
0.63778 0.51594 0
0.70271 0.52419 0
0.76987 0.53218 0
0.80573 0.53502 0
0.83605 0.53719 0
0.86596 0.53949 0
0.89545 0.54191 0
0.92455 0.54446 0
0.95323 0.54714 0
0 0.42709 0.15703
0 0.42785 0.14585
0 0.43231 0.13745
0 0.43936 0.12944
0 0.44847 0.11989
0.01909 0.45944 0.1085
0.1361 0.47183 0.09481
0.22726 0.48733 0.07625
0.31752 0.50496 0.04876
0.41258 0.52395 0.01285
0.50551 0.54141 0
0.56998 0.55128 0
0.63399 0.55987 0
0.69837 0.56818 0
0.7648 0.57636 0
0.81184 0.58096 0
0.84214 0.58294 0
0.87204 0.58506 0
0.90151 0.58731 0
0.93058 0.58969 0
0.95925 0.5922 0
0 0.45926 0.1739
0 0.45985 0.16326
0 0.46525 0.15496
0 0.47213 0.14694
0 0.48112 0.1374
0 0.49194 0.1262
0.10562 0.50419 0.11302
0.20846 0.51944 0.0959
0.30276 0.53694 0.07186
0.39903 0.55589 0.03587
0.49868 0.57507 0
0.56333 0.58513 0
0.6278 0.59487 0
0.69202 0.60419 0
0.75804 0.6133 0
0.81543 0.62036 0
0.8459 0.62273 0
0.87596 0.62517 0
0.90557 0.62768 0
0.93473 0.63024 0
0.96348 0.63286 0
0 0.49145 0.19166
0 0.49196 0.18171
0 0.49854 0.1738
0 0.50537 0.16601
0 0.51429 0.15671
0 0.525 0.14586
0.05972 0.53712 0.13324
0.18613 0.55216 0.11735
0.28677 0.56952 0.09606
0.38539 0.58839 0.06532
0.48765 0.60813 0.01982
0.55665 0.61915 0
0.62142 0.62895 0
0.68551 0.63834 0
0.75101 0.64753 0
0.81765 0.6564 0
0.84814 0.65862 0
0.87821 0.66091 0
0.90783 0.66327 0
0.937 0.6657 0
0.96575 0.66819 0
0 0.52378 0.21097
0 0.52581 0.20136
0 0.53205 0.19362
0 0.53885 0.1859
0 0.54771 0.17678
0 0.55831 0.16628
0 0.57034 0.15425
0.15888 0.58526 0.13948
0.26912 0.60252 0.12039
0.3713 0.62135 0.09455
0.47478 0.64112 0.05547
0.54976 0.65349 0.01379
0.61498 0.66333 0
0.67922 0.67278 0
0.74438 0.68204 0
0.81119 0.69112 0
0.85014 0.69475 0
0.88025 0.6969 0
0.90992 0.69912 0
0.93913 0.70141 0
0.9679 0.70376 0
0 0.54744 0.23256
0 0.55279 0.22343
0 0.56003 0.21586
0 0.56819 0.20811
0 0.57859 0.19895
0 0.59091 0.1884
0 0.60395 0.17651
0.12355 0.61874 0.16244
0.24923 0.63586 0.14483
0.35652 0.65461 0.12211
0.462 0.67438 0.09081
0.54259 0.68792 0.05227
0.6084 0.69778 0.01047
0.67298 0.70728 0
0.73798 0.71657 0
0.80447 0.72573 0
0.85177 0.73087 0
0.88196 0.73287 0
0.9117 0.73496 0
0.94098 0.73711 0
0.96979 0.73932 0
0 0.56775 0.25579
0 0.57475 0.24735
0 0.58168 0.24013
0 0.58969 0.23267
0 0.59983 0.22391
0 0.61182 0.21395
0 0.62533 0.20272
0.08372 0.64199 0.18942
0.22886 0.6611 0.17309
0.34117 0.68196 0.15261
0.44882 0.70393 0.12589
0.5347 0.72072 0.09451
0.60145 0.73259 0.05696
0.6666 0.7421 0.01216
0.73163 0.75139 0
0.79794 0.76057 0
0.85299 0.76718 0
0.88329 0.76903 0
0.91314 0.77097 0
0.94251 0.77298 0
0.97141 0.77506 0
0 0.58953 0.28018
0 0.59675 0.27276
0 0.60352 0.26581
0 0.61138 0.25861
0 0.62127 0.25021
0 0.63293 0.24072
0 0.6461 0.23016
0.027 0.66248 0.21789
0.20821 0.68122 0.20321
0.32622 0.7017 0.18542
0.43565 0.72331 0.16331
0.52555 0.74075 0.13827
0.59249 0.75258 0.112
0.65808 0.76398 0.0791
0.72318 0.77503 0.03343
0.78949 0.78591 0
0.85189 0.79555 0
0.88262 0.79881 0
0.91289 0.80206 0
0.94268 0.80527 0
0.97199 0.80846 0
0 0.61011 0.29844
0 0.6174 0.29361
0 0.62469 0.28925
0 0.63297 0.28471
0 0.6429 0.27786
0 0.65426 0.26879
0 0.66713 0.25877
0 0.68325 0.24729
0.18517 0.70162 0.23389
0.31086 0.72172 0.21804
0.42275 0.74299 0.19902
0.51639 0.7609 0.17778
0.58364 0.77256 0.15667
0.64943 0.78386 0.13261
0.71432 0.79478 0.10383
0.78024 0.80557 0.06512
0.8474 0.81616 0.01188
0.87964 0.81963 0
0.90989 0.82277 0
0.93968 0.82589 0
0.96899 0.82899 0
0 0.6306 0.31771
0 0.63763 0.31305
0 0.64483 0.3088
0 0.65295 0.30438
0 0.66299 0.29921
0 0.67473 0.29334
0 0.68808 0.28677
0 0.70431 0.27771
0.15859 0.72233 0.2653
0.29488 0.74207 0.25095
0.40998 0.76298 0.23416
0.50712 0.7812 0.21554
0.57481 0.79268 0.19745
0.64086 0.80385 0.17773
0.7057 0.81464 0.15582
0.77133 0.82531 0.13008
0.8381 0.83583 0.0979
0.87654 0.84043 0.06732
0.90679 0.84347 0.03337
0.93659 0.84649 0
0.96591 0.8495 0
0 0.6511 0.33834
0 0.65807 0.3338
0 0.66516 0.32963
0 0.6731 0.32529
0 0.68289 0.3202
0 0.69432 0.31445
0 0.70752 0.30807
0 0.72381 0.30077
0.13096 0.74222 0.29229
0.27877 0.7623 0.28237
0.39717 0.78329 0.26936
0.49764 0.80167 0.25263
0.56592 0.81296 0.23648
0.63234 0.82398 0.21935
0.69724 0.83464 0.20104
0.7627 0.84519 0.18071
0.82917 0.85562 0.15748
0.87328 0.86127 0.13605
0.90355 0.86421 0.1159
0.93337 0.86714 0.09331
0.96272 0.87005 0.06664
0.02601 0.01091 0.08114
0.13773 0.01507 0.07005
0.19983 0.0137 0.05893
0.25473 0.0113 0.05011
0.32186 0.00576 0.04351
0.38032 0 0.03691
0.44192 0 0.0295
0.50624 0 0.02061
0.55364 0 0.01263
0.5852 0 0.00626
0.61589 0 0
0.64574 0 0
0.67516 0 0
0.70468 0 0
0.72158 0 0
0.73684 0 0
0.75179 0 0
0.76681 0 0
