doc/3DLUTs/Kodak 5218 Kodak 2395 (by Adobe).cube
# Copyright 2012, Adobe Systems Inc.
# Created with ADBELUTBuilder Fri 30 Nov 2012 12:23:01
# Film Look Kodak5218 Kodak2395
# Copyright 2012 Adobe Systems
LUT_3D_SIZE 6
DOMAIN_MIN 0.0 0.0 0.0
DOMAIN_MAX 1.0 1.0 1.0
0.12768 0.12028 0.10336
0.30743 0.14031 0.10129
0.60628 0.14708 0.08124
0.73379 0.13482 0.06526
0.80522 0.12257 0.05453
0.84672 0.11473 0.05018
0.15615 0.23068 0.12118
0.25902 0.23556 0.11763
0.44497 0.25136 0.108
0.64334 0.25944 0.09022
0.77414 0.25713 0.07461
0.85746 0.25322 0.06722
0.22045 0.43579 0.13618
0.3307 0.44187 0.12954
0.51023 0.45839 0.11346
0.69845 0.47152 0.08982
0.83369 0.4743 0.06951
0.92127 0.4722 0.0617
0.31819 0.62037 0.16256
0.4284 0.63389 0.15212
0.58248 0.65043 0.1341
0.75039 0.66548 0.10935
0.88132 0.67231 0.08896
0.9684 0.67276 0.08195
0.46723 0.77399 0.21829
0.54706 0.78476 0.21009
0.6696 0.79906 0.19635
0.8015 0.81244 0.18018
0.92171 0.82219 0.1661
1.00263 0.82548 0.16205
0.61203 0.89172 0.3058
0.67129 0.89939 0.30044
0.76455 0.91111 0.29161
0.85705 0.92094 0.28281
0.95655 0.93088 0.2748
1.03068 0.93645 0.27251
0.11588 0.13123 0.23387
0.26616 0.14356 0.196
0.52134 0.15595 0.18423
0.70695 0.14476 0.17109
0.80406 0.13003 0.16386
0.85424 0.12115 0.16367
0.13953 0.22846 0.2276
0.2462 0.23116 0.21633
0.42347 0.24478 0.20844
0.63205 0.25404 0.19909
0.77325 0.2528 0.19194
0.866 0.24971 0.18975
0.19375 0.43063 0.26606
0.30762 0.43488 0.25894
0.48298 0.44887 0.2497
0.6819 0.46318 0.238
0.82557 0.46753 0.22869
0.9211 0.46718 0.22464
0.28306 0.62607 0.31146
0.39678 0.63497 0.30427
0.55867 0.64997 0.29305
0.73898 0.66555 0.27933
0.87187 0.67212 0.26906
0.96859 0.67393 0.26451
0.43382 0.78472 0.37087
0.52067 0.79383 0.36538
0.64794 0.80724 0.35646
0.79062 0.82101 0.34568
0.91325 0.8301 0.33661
1.00168 0.83384 0.3322
0.58734 0.90388 0.44347
0.64893 0.91132 0.43991
0.75068 0.92361 0.4338
0.84559 0.933 0.42701
0.95171 0.94308 0.42006
1.02719 0.94806 0.41635
0.10327 0.13343 0.44176
0.22664 0.14484 0.38917
0.44928 0.15888 0.37651
0.6636 0.15422 0.3654
0.79339 0.1397 0.35451
0.86817 0.12852 0.34807
0.11198 0.24411 0.43477
0.23114 0.24463 0.41397
0.40827 0.25531 0.40258
0.62369 0.26395 0.39429
0.77866 0.26236 0.38607
0.87565 0.25862 0.38056
0.13901 0.4445 0.4782
0.27549 0.44678 0.4676
0.45763 0.45763 0.45763
0.66208 0.47023 0.44795
0.81816 0.47462 0.43853
0.92422 0.47413 0.4319
0.22045 0.63968 0.52385
0.35029 0.6468 0.51801
0.52719 0.66064 0.5101
0.71644 0.67519 0.50057
0.8592 0.6817 0.49113
0.96604 0.68368 0.48419
0.37955 0.7986 0.57384
0.47755 0.80734 0.56994
0.61336 0.81993 0.56342
0.76992 0.83409 0.55512
0.89593 0.84236 0.54674
0.99366 0.8464 0.54028
0.54488 0.91885 0.632
0.61036 0.9259 0.62908
0.7188 0.93793 0.62417
0.82278 0.94763 0.61741
0.93553 0.95765 0.61057
1.01544 0.96245 0.60503
0.0979 0.12554 0.59891
0.21234 0.136 0.57861
0.40388 0.15062 0.57707
0.63102 0.15145 0.57733
0.77969 0.13947 0.57172
0.8708 0.12747 0.56627
0.08672 0.25391 0.62833
0.21833 0.25372 0.61534
0.39228 0.26232 0.61098
0.60497 0.27088 0.60923
0.76859 0.27025 0.60428
0.87561 0.26661 0.5989
0.06408 0.45484 0.67975
0.2399 0.45636 0.67359
0.42917 0.46534 0.66905
0.63651 0.47695 0.66535
0.80192 0.48178 0.6593
0.9171 0.48119 0.65279
0.13669 0.64872 0.72514
0.29685 0.65468 0.72222
0.48955 0.6677 0.71945
0.68322 0.68131 0.71515
0.83677 0.68855 0.70874
0.9529 0.69113 0.70229
0.31569 0.80711 0.76554
0.42596 0.81542 0.76414
0.57198 0.82772 0.76133
0.7417 0.84258 0.75735
0.86987 0.85049 0.75118
0.97672 0.85526 0.74522
0.49725 0.92774 0.80477
0.56641 0.93459 0.80367
0.67878 0.94629 0.80171
0.79377 0.95704 0.79748
0.9084 0.9668 0.79247
0.99676 0.97241 0.78717
0.09872 0.13603 0.70377
0.21109 0.14061 0.69973
0.38253 0.15151 0.70708
0.60093 0.15475 0.71679
0.76187 0.14512 0.71871
0.86123 0.13479 0.71719
0.07974 0.26662 0.74421
0.21354 0.26573 0.74026
0.38344 0.27251 0.74429
0.59058 0.28054 0.75114
0.75797 0.28066 0.75254
0.87141 0.2772 0.75086
0.01139 0.46363 0.80124
0.22042 0.46484 0.80037
0.41185 0.4726 0.8032
0.61772 0.48335 0.80709
0.78723 0.48846 0.80715
0.90813 0.48877 0.80458
0.0695 0.65298 0.84856
0.26409 0.6584 0.84941
0.46389 0.67061 0.85249
0.65858 0.68367 0.85451
0.81752 0.69144 0.85356
0.93924 0.69459 0.85076
0.27347 0.80955 0.88607
0.39202 0.81752 0.88742
0.54319 0.82953 0.88884
0.71777 0.84451 0.89003
0.84809 0.85261 0.88806
0.96075 0.85812 0.88531
0.46431 0.93035 0.917
0.53548 0.93703 0.91751
0.64958 0.94846 0.91825
0.77131 0.95995 0.91766
0.88595 0.96963 0.91587
0.98013 0.97604 0.91318
0.09949 0.16749 0.76485
0.21434 0.16691 0.77128
0.3742 0.17249 0.78698
0.58074 0.17545 0.80493
0.74536 0.16804 0.81435
0.85485 0.15833 0.8184
0.07708 0.29142 0.80965
0.21558 0.28709 0.81357
0.38044 0.29212 0.82572
0.58134 0.29942 0.84052
0.74999 0.30002 0.84892
0.86787 0.2967 0.85226
0 0.47707 0.87046
0.21291 0.47824 0.87502
0.40347 0.48515 0.88463
0.60557 0.49503 0.89566
0.77632 0.50017 0.90217
0.90089 0.50068 0.90383
0.03171 0.65847 0.92128
0.24972 0.66366 0.92568
0.44962 0.67511 0.934
0.64191 0.68754 0.94205
0.80301 0.69556 0.94632
0.92822 0.69914 0.94736
0.25209 0.81121 0.96026
0.37338 0.81884 0.96407
0.52508 0.83043 0.96943
0.69777 0.84491 0.97544
0.8314 0.8535 0.97745
0.94779 0.85957 0.97811
0.44392 0.93101 0.98952
0.51534 0.93749 0.99175
0.62908 0.94863 0.99539
0.75442 0.96056 0.99857
0.86805 0.97013 0.99985
0.96636 0.97719 1.
