doc/3DLUTs/Kodak 5205 Fuji 3510 (by Adobe).cube
# Copyright 2012, Adobe Systems Inc.
# Created with ADBELUTBuilder Fri 30 Nov 2012 12:18:06
# Film Look Kodak5205 Fuji3510
# Copyright 2012 Adobe Systems
LUT_3D_SIZE 6
DOMAIN_MIN 0.0 0.0 0.0
DOMAIN_MAX 1.0 1.0 1.0
0.01089 0.00746 0.00985
0.22214 0.02089 0.0057
0.50098 0 0
0.64246 0 0
0.73278 0 0
0.79567 0.00693 0
0 0.14628 0.03361
0.11849 0.15537 0.01495
0.38372 0.19794 0
0.64197 0.21689 0
0.76823 0.22718 0
0.85301 0.2468 0
0 0.31015 0.07159
0.06017 0.32767 0.03778
0.34468 0.3813 0
0.63654 0.42748 0
0.81693 0.44648 0
0.92801 0.45812 0
0 0.44912 0.12355
0 0.47105 0.08259
0.30069 0.52773 0
0.62234 0.58857 0
0.84173 0.61841 0
0.95865 0.62923 0
0 0.55683 0.21118
0 0.5884 0.17766
0.23463 0.65019 0.11615
0.59977 0.72364 0
0.85132 0.76086 0
0.96875 0.76925 0
0 0.6431 0.30921
0 0.67515 0.29106
0.14433 0.73299 0.2533
0.56713 0.80411 0.18154
0.82715 0.84746 0.06638
0.96174 0.86281 0
0.08161 0.00887 0.18486
0.40347 0 0.12988
0.58289 0 0.096
0.70071 0 0.065
0.76872 0 0.03974
0.82719 0 0.01951
0 0.15988 0.21314
0.13588 0.17076 0.17685
0.43253 0.20124 0.14724
0.67508 0.20782 0.1059
0.80303 0.21345 0.06494
0.87628 0.23207 0.02772
0 0.34047 0.26485
0.01026 0.35741 0.22849
0.38164 0.40645 0.19249
0.67246 0.4418 0.13922
0.84086 0.45502 0.0795
0.94648 0.46456 0.01218
0 0.48735 0.30964
0 0.51382 0.28792
0.30649 0.56778 0.24983
0.6409 0.61869 0.1922
0.85663 0.64209 0.12496
0.97707 0.65058 0.04806
0 0.5979 0.36561
0 0.6315 0.34591
0.21042 0.69447 0.31889
0.60346 0.75905 0.27715
0.85593 0.78956 0.21753
0.97768 0.79579 0.16412
0 0.67706 0.43337
0 0.70841 0.41671
0.10225 0.76749 0.39335
0.56525 0.83536 0.35798
0.8354 0.87832 0.31625
0.96443 0.89168 0.28097
0.37294 0 0.39703
0.67569 0 0.37992
0.65921 0 0.32052
0.74677 0 0.30223
0.80388 0 0.28695
0.85997 0 0.27724
0 0.16695 0.41235
0.19109 0.18411 0.39861
0.48756 0.20454 0.38028
0.70729 0.20555 0.35516
0.83611 0.20935 0.33337
0.89986 0.22933 0.31769
0 0.36944 0.47246
0 0.39321 0.45833
0.44099 0.44099 0.44099
0.71269 0.46467 0.41225
0.86255 0.47317 0.3841
0.96312 0.48287 0.36118
0 0.53069 0.51462
0 0.5601 0.50746
0.33745 0.6147 0.48795
0.66364 0.65619 0.45859
0.86842 0.67471 0.4273
0.99229 0.68094 0.39993
0 0.64824 0.55141
0 0.68313 0.54634
0.21315 0.74711 0.53854
0.61357 0.79571 0.50919
0.85832 0.82165 0.47661
0.98389 0.82762 0.44721
0 0.72036 0.5878
0 0.7525 0.58353
0.08734 0.81443 0.57918
0.56737 0.87562 0.56644
0.83935 0.91435 0.53709
0.96585 0.92502 0.50698
0.62352 0 0.5402
0.75068 0 0.53283
0.79365 0 0.49851
0.7791 0 0.47412
0.82756 0 0.46926
0.8728 0 0.46784
0.11666 0.15772 0.56285
0.32432 0.17425 0.56709
0.5646 0.18108 0.56081
0.7388 0.17891 0.54687
0.85128 0.18494 0.53405
0.91309 0.20864 0.52458
0 0.39061 0.63354
0.16743 0.41494 0.63387
0.50146 0.44819 0.63218
0.75396 0.46737 0.61915
0.88147 0.47491 0.60078
0.97105 0.48548 0.58527
0 0.56714 0.67769
0 0.59632 0.6764
0.42807 0.6497 0.67726
0.70564 0.67987 0.66338
0.88084 0.69083 0.64423
1.0025 0.69721 0.62611
0 0.69569 0.71129
0 0.72971 0.70988
0.31725 0.78526 0.70926
0.64575 0.82258 0.69607
0.86523 0.8436 0.67791
0.99115 0.85028 0.65861
0 0.76578 0.73924
0 0.79803 0.73808
0.21811 0.85837 0.73796
0.59492 0.9063 0.7267
0.84377 0.93979 0.71017
0.9704 0.95121 0.69073
0.74958 0 0.60973
0.80433 0 0.60288
0.83914 0 0.59264
0.82388 0 0.57054
0.85053 0 0.5899
0.87879 0 0.59993
0.32032 0.13461 0.65988
0.4695 0.13661 0.66877
0.6604 0.12777 0.67472
0.77515 0.1241 0.67266
0.86397 0.13519 0.67189
0.92298 0.16565 0.67006
0.12717 0.39992 0.73725
0.36824 0.42267 0.7521
0.58782 0.44119 0.75901
0.78335 0.45406 0.75919
0.90452 0.46288 0.75407
0.9779 0.47456 0.74647
0 0.59741 0.78343
0.18058 0.62849 0.79665
0.51366 0.66369 0.80749
0.77124 0.6885 0.8098
0.90004 0.69447 0.80215
1.0067 0.70071 0.79468
0 0.73345 0.81133
0 0.76494 0.82221
0.43283 0.80966 0.83419
0.70417 0.84041 0.83605
0.88063 0.85538 0.8307
1.00347 0.86306 0.82301
0 0.80554 0.82847
0 0.83985 0.83845
0.3663 0.89304 0.85103
0.64835 0.93117 0.85331
0.85673 0.95822 0.85022
0.98045 0.97047 0.84277
0.81554 0 0.65221
0.8349 0 0.65017
0.85347 0 0.64699
0.86476 0 0.64304
0.85364 0 0.63472
0.87945 0 0.65332
0.5057 0.06271 0.72736
0.61554 0.04475 0.73205
0.71422 0.02789 0.73189
0.81649 0.01923 0.73231
0.87556 0.05322 0.73205
0.93094 0.10377 0.73472
0.4093 0.40478 0.82441
0.52046 0.41299 0.82801
0.69632 0.42515 0.8328
0.81992 0.43175 0.82937
0.92987 0.44102 0.8255
0.98532 0.45363 0.81995
0.22511 0.62873 0.8751
0.42959 0.64893 0.88372
0.62061 0.66663 0.88723
0.81173 0.68186 0.88686
0.92759 0.68732 0.87994
1.0145 0.69229 0.87232
0 0.77142 0.90133
0.31575 0.7997 0.9116
0.54458 0.82308 0.91542
0.78757 0.84992 0.9179
0.90686 0.85629 0.91042
1.02215 0.86339 0.90329
0 0.85291 0.91662
0.18421 0.8842 0.92621
0.48078 0.91635 0.93173
0.72727 0.94991 0.93451
0.8814 0.96732 0.92971
1. 0.97875 0.92288
