doc/3DLUTs/Kodak 5218 Kodak 2395 (by Adobe).cube
# Copyright 2012, Adobe Systems Inc.
# Created with ADBELUTBuilder Fri 30 Nov 2012 12:23:01
# Film Look Kodak5218 Kodak2395
# Copyright 2012 Adobe Systems
LUT_3D_SIZE 21
DOMAIN_MIN 0.0 0.0 0.0
DOMAIN_MAX 1.0 1.0 1.0
0.12768 0.12028 0.10336
0.14283 0.12179 0.10331
0.18986 0.12743 0.10326
0.24276 0.13354 0.10273
0.30743 0.14031 0.10129
0.38891 0.1465 0.09809
0.47113 0.14963 0.09314
0.55614 0.14927 0.08609
0.60628 0.14708 0.08124
0.64723 0.14438 0.07665
0.6849 0.14087 0.07197
0.70982 0.13801 0.06868
0.73379 0.13482 0.06526
0.75687 0.13128 0.06184
0.77925 0.12747 0.05827
0.79342 0.12486 0.05603
0.80522 0.12257 0.05453
0.81617 0.12046 0.05329
0.82694 0.11854 0.05203
0.83732 0.11656 0.05077
0.84672 0.11473 0.05018
0.13181 0.13181 0.10574
0.14074 0.13226 0.10561
0.16369 0.13452 0.10551
0.19496 0.13828 0.10536
0.2325 0.14287 0.10502
0.2762 0.14785 0.10438
0.33068 0.15328 0.10291
0.39203 0.15807 0.10043
0.45231 0.16125 0.09717
0.51281 0.16284 0.09299
0.57016 0.16277 0.08812
0.61212 0.16171 0.08402
0.65392 0.16003 0.07947
0.6935 0.15765 0.07459
0.71996 0.15577 0.07109
0.74561 0.15366 0.06767
0.77054 0.15133 0.06428
0.79397 0.1489 0.06085
0.80862 0.14762 0.05889
0.82205 0.14653 0.0572
0.8344 0.14565 0.05677
0.13842 0.15775 0.11072
0.15116 0.15809 0.11049
0.17192 0.1594 0.11021
0.20073 0.16203 0.10986
0.23401 0.16523 0.10934
0.27429 0.16957 0.10852
0.32122 0.17453 0.10718
0.37787 0.17978 0.10492
0.43601 0.184 0.10183
0.49272 0.18689 0.09806
0.55117 0.18861 0.09335
0.59861 0.18892 0.08884
0.63891 0.18843 0.0845
0.6791 0.1873 0.07961
0.71368 0.1858 0.07529
0.73895 0.18444 0.07204
0.7637 0.18292 0.0686
0.78798 0.18124 0.06497
0.81003 0.1796 0.0616
0.82456 0.17875 0.06147
0.83849 0.17801 0.06146
0.14521 0.1891 0.1157
0.16205 0.18905 0.11529
0.18386 0.18952 0.11479
0.21189 0.19173 0.11424
0.24406 0.19495 0.11353
0.28231 0.19893 0.11248
0.32629 0.2034 0.11096
0.38025 0.20856 0.10856
0.43655 0.21306 0.10535
0.49071 0.21638 0.10155
0.54673 0.21885 0.09684
0.59882 0.22012 0.09167
0.63767 0.22022 0.08753
0.6764 0.21985 0.08299
0.7151 0.21899 0.07792
0.74172 0.21798 0.07432
0.76622 0.21693 0.07126
0.79027 0.21579 0.06835
0.8138 0.21458 0.06632
0.83221 0.21363 0.06518
0.84625 0.213 0.06487
0.15615 0.23068 0.12118
0.17606 0.23061 0.12045
0.20056 0.23165 0.11966
0.22661 0.23313 0.11879
0.25902 0.23556 0.11763
0.29558 0.23859 0.11622
0.33853 0.24239 0.11432
0.39054 0.24707 0.11152
0.44497 0.25136 0.108
0.49708 0.25461 0.1041
0.55083 0.25727 0.09956
0.60566 0.25918 0.0942
0.64334 0.25944 0.09022
0.68107 0.25936 0.08585
0.71882 0.25893 0.08101
0.75031 0.25811 0.07682
0.77414 0.25713 0.07461
0.79757 0.25611 0.07242
0.82064 0.25506 0.07016
0.84341 0.25398 0.06781
0.85746 0.25322 0.06722
0.1673 0.2806 0.12662
0.19181 0.27999 0.12565
0.21785 0.28032 0.12464
0.24256 0.28077 0.12362
0.27619 0.28263 0.12221
0.31133 0.28464 0.12057
0.35458 0.28784 0.11831
0.40492 0.29183 0.11527
0.45759 0.29563 0.11155
0.50826 0.29858 0.10742
0.56035 0.3011 0.10256
0.61425 0.30364 0.09676
0.65396 0.30461 0.09211
0.69071 0.30507 0.08803
0.72743 0.30525 0.08378
0.76273 0.30509 0.07939
0.78634 0.30438 0.07687
0.80945 0.30364 0.07433
0.83222 0.30287 0.07173
0.85468 0.30208 0.06906
0.87285 0.30128 0.06732
0.18188 0.33435 0.13054
0.21036 0.33446 0.12937
0.23464 0.33467 0.12828
0.26223 0.33574 0.12699
0.29469 0.33744 0.12532
0.32893 0.33932 0.12339
0.37424 0.343 0.12056
0.42365 0.34707 0.11712
0.47522 0.35105 0.11312
0.52459 0.35424 0.10884
0.57545 0.35716 0.10387
0.62785 0.35973 0.09808
0.66894 0.36068 0.0933
0.70484 0.3609 0.08894
0.7408 0.36095 0.08423
0.7768 0.36083 0.07909
0.80239 0.35994 0.07572
0.82508 0.35893 0.07281
0.84739 0.35794 0.07019
0.86926 0.35696 0.06869
0.89086 0.356 0.06722
0.20136 0.38493 0.13424
0.22776 0.38549 0.13298
0.25333 0.38661 0.13169
0.28141 0.38835 0.13018
0.3125 0.39037 0.12837
0.34752 0.39294 0.12615
0.39367 0.39737 0.12285
0.44212 0.40191 0.11894
0.49264 0.40642 0.11434
0.54104 0.4102 0.10943
0.59111 0.41382 0.10374
0.64273 0.41719 0.09713
0.68476 0.41882 0.09139
0.72014 0.41926 0.08641
0.75562 0.41959 0.08099
0.79099 0.41977 0.07571
0.81922 0.41924 0.07229
0.84161 0.41827 0.0702
0.86359 0.41734 0.0682
0.88528 0.41644 0.06624
0.90669 0.41557 0.06432
0.22045 0.43579 0.13618
0.24809 0.43691 0.13471
0.27461 0.43842 0.13318
0.30106 0.44001 0.13153
0.3307 0.44187 0.12954
0.36945 0.44525 0.12665
0.41431 0.44954 0.12289
0.46161 0.45401 0.11844
0.51023 0.45839 0.11346
0.55745 0.4622 0.10831
0.6063 0.46591 0.10242
0.65663 0.46946 0.09566
0.69845 0.47152 0.08982
0.73314 0.47248 0.08501
0.76794 0.47334 0.07987
0.8028 0.47408 0.07436
0.83369 0.4743 0.06951
0.85604 0.4737 0.0668
0.87793 0.47311 0.06418
0.89966 0.47261 0.06245
0.92127 0.4722 0.0617
0.24317 0.48438 0.13923
0.27065 0.4864 0.13748
0.29512 0.48829 0.13581
0.31991 0.49027 0.13402
0.35064 0.49309 0.13164
0.39115 0.49756 0.12815
0.4346 0.50238 0.12403
0.48061 0.50687 0.1193
0.52717 0.51103 0.11407
0.57337 0.51483 0.1084
0.62121 0.5186 0.10191
0.67054 0.52226 0.09446
0.71183 0.52448 0.08816
0.74602 0.52559 0.08345
0.78039 0.52663 0.07853
0.8149 0.52759 0.07336
0.84778 0.52828 0.06842
0.87013 0.52777 0.06658
0.89201 0.52731 0.06501
0.91365 0.52686 0.06365
0.93504 0.52646 0.06358
0.26872 0.53058 0.14616
0.29368 0.53236 0.1443
0.31629 0.53405 0.14253
0.34059 0.53606 0.14054
0.3756 0.53981 0.13747
0.4143 0.54402 0.13379
0.45612 0.54861 0.12947
0.5007 0.55348 0.12447
0.54489 0.55802 0.11914
0.59003 0.56247 0.11326
0.63693 0.56694 0.1066
0.6854 0.57137 0.09903
0.7253 0.57422 0.09269
0.75901 0.576 0.08745
0.79298 0.57773 0.08196
0.82706 0.57939 0.07685
0.86128 0.58097 0.07154
0.88354 0.58104 0.06996
0.90537 0.58113 0.06874
0.92693 0.58121 0.06786
0.94821 0.58109 0.06739
0.29353 0.57683 0.15367
0.31639 0.57845 0.15186
0.33998 0.58048 0.14991
0.3685 0.58343 0.1474
0.40165 0.58694 0.14429
0.4386 0.59092 0.14058
0.47881 0.59528 0.13625
0.52149 0.59988 0.1313
0.56335 0.60408 0.12615
0.60724 0.60842 0.12037
0.65292 0.61281 0.11388
0.70019 0.61721 0.10659
0.73775 0.61983 0.10091
0.77072 0.62162 0.09611
0.80399 0.62336 0.09114
0.83748 0.62505 0.08599
0.87115 0.62667 0.08065
0.89447 0.62691 0.07842
0.91606 0.62697 0.07692
0.93736 0.62703 0.07574
0.95847 0.62711 0.07484
0.31819 0.62037 0.16256
0.34511 0.62354 0.16024
0.37048 0.62663 0.15792
0.39712 0.62994 0.15533
0.4284 0.63389 0.15212
0.46364 0.63814 0.14831
0.50232 0.64229 0.14397
0.54186 0.64637 0.13925
0.58248 0.65043 0.1341
0.62516 0.65463 0.12832
0.6697 0.65892 0.12183
0.71585 0.66325 0.11456
0.75039 0.66548 0.10935
0.78267 0.66724 0.10453
0.8153 0.66897 0.09953
0.8482 0.67067 0.09434
0.88132 0.67231 0.08896
0.90515 0.67264 0.0863
0.92647 0.67267 0.08457
0.94752 0.67271 0.08313
0.9684 0.67276 0.08195
0.35523 0.65871 0.1713
0.37998 0.66166 0.16905
0.40327 0.66451 0.16683
0.42797 0.66757 0.16436
0.45726 0.67126 0.16126
0.49053 0.67548 0.15754
0.52662 0.68003 0.15326
0.56324 0.68448 0.14866
0.60237 0.68921 0.14343
0.64369 0.69414 0.13754
0.68699 0.69921 0.13092
0.73163 0.70429 0.12357
0.76272 0.70692 0.11868
0.79437 0.70956 0.11356
0.82648 0.71219 0.10841
0.85899 0.71483 0.10356
0.89179 0.71744 0.09867
0.91577 0.71841 0.09659
0.93693 0.71851 0.09591
0.95785 0.71863 0.09565
0.97863 0.71878 0.0958
0.39226 0.69795 0.18684
0.41498 0.70065 0.18465
0.43657 0.70325 0.18249
0.45964 0.70608 0.18009
0.48724 0.70949 0.17711
0.51869 0.71341 0.17355
0.55089 0.71726 0.16975
0.58601 0.72147 0.16543
0.62366 0.72596 0.16059
0.66359 0.73068 0.15521
0.70553 0.73556 0.14927
0.745 0.73983 0.14351
0.77522 0.7424 0.13937
0.80608 0.745 0.13516
0.83745 0.74759 0.13089
0.86924 0.75017 0.1266
0.90137 0.75273 0.12229
0.92478 0.75396 0.12027
0.94574 0.75485 0.11914
0.9665 0.75574 0.11838
0.98715 0.75663 0.11796
0.4295 0.73683 0.20242
0.45049 0.73932 0.20041
0.4706 0.74174 0.19843
0.49224 0.74437 0.19622
0.51801 0.74751 0.1935
0.54549 0.75075 0.19048
0.57624 0.75438 0.18699
0.60989 0.75836 0.18303
0.64612 0.76264 0.17859
0.68468 0.76715 0.17366
0.72527 0.77183 0.16825
0.75884 0.77513 0.1638
0.78817 0.77761 0.16005
0.81821 0.78011 0.15624
0.84882 0.78263 0.15239
0.87989 0.78515 0.14851
0.91136 0.78765 0.14464
0.93364 0.78873 0.14288
0.95421 0.78958 0.14175
0.97461 0.79043 0.14093
0.99494 0.79128 0.14041
0.46723 0.77399 0.21829
0.48665 0.77667 0.21637
0.50539 0.77927 0.21448
0.5245 0.78189 0.21247
0.54706 0.78476 0.21009
0.57318 0.7878 0.20731
0.60251 0.79123 0.2041
0.63474 0.795 0.20044
0.6696 0.79906 0.19635
0.7068 0.80337 0.19182
0.74545 0.80775 0.18694
0.77303 0.81007 0.18361
0.8015 0.81244 0.18018
0.83071 0.81486 0.1767
0.86055 0.8173 0.17318
0.89091 0.81975 0.16964
0.92171 0.82219 0.1661
0.9424 0.82306 0.16464
0.96257 0.82386 0.16351
0.98262 0.82466 0.16265
1.00263 0.82548 0.16205
0.50625 0.80391 0.23542
0.52287 0.80614 0.23381
0.53888 0.80828 0.23222
0.55631 0.81063 0.23046
0.57749 0.8135 0.22828
0.6021 0.81684 0.22567
0.62989 0.82062 0.22265
0.6606 0.82478 0.21921
0.69398 0.82928 0.21535
0.72971 0.83406 0.21107
0.76067 0.83786 0.20729
0.78731 0.84081 0.20408
0.81493 0.84385 0.20076
0.84336 0.84694 0.19736
0.87248 0.85007 0.19391
0.90219 0.85323 0.19042
0.93128 0.85622 0.18711
0.95109 0.857 0.18577
0.97085 0.85775 0.18465
0.99054 0.85852 0.18376
1.01021 0.85929 0.18311
0.54182 0.83285 0.25374
0.55721 0.83488 0.25217
0.57218 0.83685 0.25062
0.58852 0.83902 0.2489
0.60845 0.84167 0.24678
0.63171 0.84477 0.24427
0.65809 0.84829 0.24137
0.68734 0.8522 0.23819
0.71922 0.85645 0.2347
0.75163 0.86065 0.23105
0.7761 0.86335 0.22827
0.80173 0.86616 0.22538
0.82836 0.86906 0.2224
0.85585 0.87202 0.21934
0.88409 0.87504 0.21624
0.91296 0.87808 0.2131
0.93928 0.88068 0.2106
0.95871 0.88219 0.2095
0.97811 0.88371 0.20868
0.99752 0.88525 0.20814
1.01697 0.88679 0.2079
0.57693 0.86251 0.27967
0.59135 0.86439 0.2783
0.60542 0.86623 0.27694
0.62083 0.86825 0.27544
0.63969 0.87073 0.27359
0.66177 0.87363 0.27139
0.68689 0.87693 0.26885
0.71482 0.8806 0.266
0.74537 0.88459 0.26282
0.76861 0.88718 0.26033
0.79211 0.88972 0.25784
0.81682 0.89238 0.25528
0.84255 0.89514 0.25269
0.86919 0.89799 0.2501
0.89661 0.9009 0.24752
0.92471 0.90385 0.24499
0.94793 0.90598 0.24324
0.96687 0.90742 0.24225
0.98579 0.90887 0.24151
1.00479 0.91034 0.24102
1.02384 0.91182 0.24077
0.61203 0.89172 0.3058
0.62559 0.89347 0.30459
0.63886 0.89518 0.3034
0.65342 0.89707 0.30207
0.67129 0.89939 0.30044
0.69228 0.90211 0.2985
0.7162 0.90521 0.29627
0.7429 0.90867 0.29376
0.76455 0.91111 0.29161
0.78578 0.91337 0.28951
0.80838 0.91578 0.28733
0.83218 0.91831 0.28508
0.85705 0.92094 0.28281
0.88284 0.92366 0.28053
0.90946 0.92644 0.27826
0.9368 0.92929 0.27604
0.95655 0.93088 0.2748
0.97499 0.93225 0.2739
0.99344 0.93363 0.27322
1.01202 0.93504 0.27275
1.03068 0.93645 0.27251
0.12597 0.12144 0.11714
0.14618 0.12305 0.11348
0.1969 0.1289 0.11236
0.25254 0.13528 0.11131
0.32205 0.14217 0.1095
0.4066 0.14791 0.10613
0.47442 0.15008 0.10215
0.54108 0.15019 0.09734
0.59005 0.14867 0.09316
0.63253 0.14622 0.08915
0.67341 0.14282 0.08495
0.70309 0.13962 0.0818
0.72765 0.13646 0.07921
0.7513 0.13303 0.07668
0.77408 0.12929 0.07421
0.79223 0.12598 0.07242
0.8044 0.12367 0.07241
0.81586 0.12172 0.07276
0.82691 0.11978 0.07327
0.83758 0.11779 0.07392
0.84731 0.11592 0.07481
0.13019 0.13101 0.117
0.14092 0.13157 0.11517
0.16564 0.13445 0.11444
0.19818 0.13848 0.11393
0.23627 0.14309 0.11332
0.2798 0.14798 0.11247
0.33477 0.15338 0.11106
0.39559 0.15804 0.10885
0.45504 0.16111 0.10601
0.51467 0.16265 0.10247
0.5715 0.16258 0.09843
0.61269 0.1615 0.09519
0.65373 0.15982 0.09167
0.69407 0.15749 0.08789
0.72021 0.15575 0.08558
0.74566 0.15377 0.08337
0.77041 0.1516 0.08186
0.79455 0.14921 0.08043
0.81054 0.14784 0.08027
0.82391 0.14689 0.0806
0.83642 0.14608 0.08115
0.13648 0.15403 0.12215
0.15012 0.15444 0.12087
0.17234 0.15599 0.12005
0.20204 0.1594 0.11948
0.23575 0.16331 0.11882
0.27593 0.16791 0.11796
0.32298 0.17291 0.11673
0.37926 0.17813 0.1148
0.43692 0.18234 0.11222
0.49306 0.18525 0.10911
0.55083 0.18702 0.10527
0.59859 0.18743 0.10164
0.6384 0.18707 0.09835
0.67806 0.1861 0.09477
0.71395 0.18468 0.09143
0.73908 0.1835 0.08984
0.76367 0.18216 0.08832
0.78778 0.18066 0.08686
0.81142 0.17902 0.08545
0.82647 0.1782 0.08538
0.8401 0.17759 0.0856
0.14269 0.18313 0.12816
0.16196 0.1842 0.12715
0.18436 0.18581 0.12635
0.21224 0.18848 0.12563
0.24444 0.19174 0.12479
0.28248 0.19576 0.12376
0.32618 0.20026 0.12239
0.37978 0.20544 0.12037
0.43579 0.20998 0.11772
0.48946 0.21336 0.11464
0.54484 0.2159 0.11089
0.5977 0.21733 0.10675
0.63633 0.21759 0.10351
0.67472 0.2174 0.10047
0.71301 0.21673 0.09727
0.74134 0.21589 0.09516
0.76557 0.21501 0.09356
0.78938 0.21404 0.09201
0.81279 0.21297 0.09052
0.83344 0.212 0.08944
0.84743 0.21151 0.08944
0.15408 0.225 0.13574
0.17528 0.22506 0.13436
0.20002 0.22619 0.13326
0.22591 0.22775 0.13224
0.25801 0.23026 0.13115
0.2943 0.23336 0.12986
0.33651 0.23718 0.12823
0.38804 0.24191 0.12595
0.44196 0.24627 0.12315
0.49395 0.24967 0.12009
0.54713 0.25245 0.11655
0.60182 0.25452 0.11239
0.64053 0.25504 0.10937
0.67782 0.25514 0.10631
0.71507 0.25489 0.10307
0.7486 0.25429 0.10011
0.77234 0.25351 0.0984
0.79569 0.25269 0.09673
0.81867 0.25183 0.09512
0.84133 0.25094 0.09355
0.85777 0.25028 0.093
0.16603 0.2728 0.14323
0.19027 0.27226 0.14189
0.21609 0.27272 0.14071
0.24045 0.27327 0.13957
0.27353 0.27519 0.1382
0.30839 0.27733 0.13666
0.35034 0.2805 0.13476
0.40014 0.28458 0.13229
0.45229 0.28878 0.12933
0.50309 0.29262 0.12608
0.55476 0.29594 0.12235
0.60794 0.29876 0.11804
0.64991 0.30009 0.11444
0.68642 0.30071 0.11121
0.72293 0.30106 0.1078
0.75944 0.30113 0.10419
0.78418 0.30064 0.1021
0.8072 0.30008 0.10025
0.82987 0.29949 0.09846
0.8524 0.29893 0.09743
0.8733 0.29837 0.09702
0.17872 0.32665 0.15042
0.20764 0.32679 0.14868
0.23175 0.32704 0.14725
0.25841 0.32804 0.146
0.2906 0.32982 0.14448
0.32455 0.3318 0.14277
0.36798 0.33529 0.1405
0.41686 0.33942 0.13766
0.46794 0.3435 0.13434
0.51753 0.34691 0.13073
0.56791 0.34997 0.12667
0.61977 0.3527 0.12203
0.66369 0.35415 0.11784
0.69937 0.35458 0.11437
0.73513 0.35486 0.11089
0.771 0.355 0.10764
0.7995 0.35457 0.10544
0.82227 0.35386 0.10421
0.84475 0.35317 0.10313
0.86693 0.3525 0.10263
0.88885 0.35185 0.10254
0.19749 0.37922 0.15806
0.22397 0.37975 0.15646
0.24866 0.38066 0.155
0.27672 0.38238 0.15338
0.30774 0.38438 0.15152
0.34099 0.38665 0.14946
0.38682 0.39105 0.1466
0.43489 0.39558 0.14332
0.48519 0.40016 0.13957
0.53372 0.40409 0.13565
0.58329 0.40744 0.13135
0.63431 0.41052 0.12655
0.67944 0.41251 0.1221
0.71469 0.41318 0.11876
0.75003 0.41373 0.11532
0.78544 0.41417 0.11182
0.81689 0.41417 0.10935
0.83948 0.41351 0.10846
0.86171 0.41289 0.10779
0.88368 0.41229 0.10733
0.90539 0.41173 0.10706
0.21506 0.43101 0.16536
0.24188 0.43186 0.16371
0.26862 0.43332 0.16208
0.2952 0.43487 0.16039
0.32493 0.4367 0.15844
0.36171 0.43966 0.156
0.40639 0.44391 0.1529
0.45342 0.44835 0.1494
0.50258 0.45287 0.14545
0.54964 0.45673 0.14141
0.5983 0.46053 0.13696
0.64843 0.46418 0.13204
0.69381 0.46686 0.12743
0.72857 0.46801 0.12414
0.76345 0.46906 0.12082
0.79842 0.47001 0.11746
0.83242 0.47074 0.11424
0.85496 0.47038 0.1131
0.87708 0.47004 0.1122
0.89894 0.46973 0.1115
0.92055 0.46943 0.11101
0.23534 0.48206 0.17302
0.26339 0.484 0.17129
0.28825 0.48582 0.16968
0.31337 0.48774 0.16799
0.34237 0.49009 0.16596
0.3831 0.49384 0.16313
0.42661 0.49792 0.15987
0.4726 0.50223 0.15617
0.51991 0.50653 0.15209
0.56605 0.51035 0.14786
0.6138 0.51417 0.14319
0.66302 0.5179 0.13805
0.70782 0.52071 0.1332
0.74201 0.52189 0.12973
0.77638 0.52301 0.12622
0.81086 0.52406 0.12267
0.84545 0.52502 0.11906
0.86901 0.52476 0.11752
0.89091 0.5244 0.11643
0.91257 0.52407 0.11555
0.93399 0.52376 0.11488
0.26062 0.52852 0.18035
0.28607 0.53026 0.17871
0.30905 0.53192 0.17716
0.33253 0.53368 0.17552
0.36694 0.53718 0.17308
0.40588 0.54133 0.17014
0.44785 0.54585 0.16674
0.49251 0.55065 0.16286
0.53753 0.5553 0.15867
0.58266 0.55971 0.15421
0.62948 0.56416 0.14929
0.67783 0.56857 0.14385
0.72123 0.57196 0.13879
0.75495 0.57378 0.13505
0.78892 0.57554 0.13123
0.82306 0.57723 0.12734
0.85734 0.57883 0.12338
0.88249 0.57929 0.12118
0.90427 0.57914 0.11984
0.92574 0.57876 0.11878
0.94698 0.57842 0.11792
0.28547 0.57496 0.18755
0.30877 0.57649 0.18574
0.33065 0.57811 0.18419
0.35949 0.58101 0.18216
0.39294 0.58446 0.17964
0.4301 0.58837 0.17666
0.47049 0.59268 0.17319
0.51369 0.5973 0.16923
0.55599 0.60153 0.16511
0.59991 0.60583 0.16056
0.64559 0.61019 0.15554
0.69282 0.61456 0.15
0.73371 0.6177 0.1451
0.76674 0.6195 0.14127
0.80007 0.62126 0.13736
0.83361 0.62297 0.13337
0.86733 0.62461 0.1293
0.89334 0.62528 0.12738
0.91506 0.62546 0.12666
0.93654 0.62567 0.12627
0.95784 0.62589 0.1262
0.3097 0.62121 0.19954
0.33533 0.62395 0.19756
0.36119 0.62695 0.1955
0.38832 0.6297 0.19331
0.42005 0.6329 0.19064
0.45563 0.63656 0.18749
0.49455 0.64062 0.18386
0.53499 0.64476 0.1799
0.57576 0.64875 0.17572
0.61855 0.6529 0.17115
0.66316 0.65715 0.16617
0.70935 0.66146 0.16076
0.74697 0.66418 0.15643
0.77937 0.66597 0.15291
0.81213 0.66775 0.1494
0.84518 0.66951 0.14593
0.87845 0.67122 0.14251
0.90474 0.67196 0.14054
0.92621 0.67209 0.13972
0.94744 0.67225 0.13922
0.96851 0.67244 0.13901
0.34536 0.66024 0.21228
0.37068 0.66312 0.21033
0.39444 0.66589 0.20841
0.41955 0.66888 0.2063
0.44926 0.67248 0.2037
0.48294 0.67661 0.20061
0.52001 0.68119 0.19705
0.55694 0.68557 0.19332
0.59634 0.69022 0.18918
0.6379 0.69508 0.18462
0.6814 0.70009 0.17965
0.72656 0.70518 0.17426
0.76016 0.70819 0.17033
0.792 0.71082 0.1667
0.82429 0.71344 0.16306
0.85692 0.71603 0.15943
0.88969 0.71778 0.15606
0.91575 0.7185 0.15405
0.93697 0.71859 0.15315
0.95795 0.7187 0.15254
0.97879 0.71883 0.15222
0.38333 0.6993 0.22523
0.40647 0.70196 0.22341
0.42841 0.70452 0.22162
0.45181 0.70731 0.21964
0.47974 0.71067 0.21719
0.51162 0.71455 0.21429
0.54462 0.71844 0.21113
0.58001 0.72259 0.20761
0.61791 0.72702 0.20371
0.65806 0.73168 0.19942
0.70017 0.7365 0.19473
0.74223 0.74112 0.18989
0.77261 0.74365 0.18651
0.80361 0.7462 0.18309
0.83511 0.74875 0.17967
0.86702 0.75129 0.17625
0.89928 0.75381 0.17285
0.92467 0.75527 0.17073
0.94569 0.75613 0.16955
0.96651 0.75698 0.16865
0.98722 0.75784 0.168
0.42136 0.73803 0.23847
0.44267 0.74049 0.23677
0.46305 0.74288 0.23509
0.48494 0.74547 0.23324
0.51124 0.74862 0.23093
0.53926 0.75187 0.22837
0.57027 0.75546 0.22543
0.60415 0.75939 0.22213
0.6406 0.76361 0.21845
0.67934 0.76807 0.2144
0.72009 0.7727 0.20999
0.75602 0.77634 0.20603
0.78549 0.77877 0.20285
0.81566 0.78124 0.19964
0.84639 0.78372 0.19641
0.87757 0.7862 0.19319
0.90915 0.78866 0.18999
0.93325 0.78997 0.18806
0.95388 0.79078 0.18689
0.97435 0.7916 0.18595
0.99473 0.79242 0.18524
0.45958 0.77615 0.25201
0.47928 0.7787 0.25038
0.49829 0.78092 0.2488
0.51814 0.78322 0.2471
0.54094 0.78581 0.24509
0.56728 0.78882 0.2427
0.59682 0.79221 0.23995
0.62925 0.79594 0.23683
0.66429 0.79996 0.23337
0.70165 0.80422 0.22955
0.74107 0.80866 0.22539
0.77018 0.81119 0.22232
0.79878 0.81353 0.21934
0.82811 0.81591 0.21632
0.85806 0.81832 0.21328
0.88852 0.82073 0.21023
0.91942 0.82315 0.2072
0.94178 0.82422 0.20553
0.96201 0.825 0.20436
0.98212 0.82578 0.2034
1.00218 0.82656 0.20265
0.49907 0.80649 0.27052
0.51636 0.80874 0.26893
0.53258 0.81085 0.26741
0.5502 0.81315 0.26572
0.5716 0.81595 0.26365
0.59643 0.81923 0.2612
0.62445 0.82293 0.25839
0.65537 0.82702 0.25522
0.68894 0.83145 0.25173
0.72485 0.83616 0.24791
0.75782 0.84022 0.24432
0.7846 0.84312 0.24138
0.81235 0.84611 0.23841
0.84091 0.84916 0.23545
0.87016 0.85227 0.23251
0.89997 0.85527 0.22966
0.93023 0.85765 0.22704
0.95047 0.85846 0.22596
0.97031 0.85924 0.22521
0.99011 0.86004 0.22472
1.00989 0.86086 0.22452
0.53522 0.83645 0.29339
0.55083 0.83845 0.29202
0.566 0.84041 0.29066
0.58254 0.84255 0.28916
0.6027 0.84517 0.28732
0.62621 0.84823 0.28514
0.65284 0.85171 0.28264
0.68235 0.85557 0.27983
0.71447 0.85975 0.27672
0.74881 0.86418 0.27334
0.77346 0.86682 0.2708
0.79927 0.86958 0.26819
0.82608 0.87243 0.26556
0.85375 0.87536 0.26293
0.88215 0.87834 0.26032
0.91118 0.88136 0.25777
0.939 0.88413 0.2555
0.95853 0.88559 0.25438
0.97801 0.88706 0.25351
0.99751 0.88854 0.25288
1.01704 0.89003 0.2525
0.57078 0.86584 0.31683
0.58537 0.8677 0.31561
0.5996 0.86952 0.3144
0.61517 0.87152 0.31307
0.63422 0.87397 0.31142
0.65651 0.87684 0.30948
0.68184 0.88012 0.30724
0.70999 0.88374 0.30473
0.74075 0.8877 0.30196
0.76572 0.89052 0.29957
0.7894 0.89302 0.2973
0.81427 0.89564 0.29497
0.84016 0.89837 0.29262
0.86695 0.90117 0.29027
0.89452 0.90403 0.28795
0.92277 0.90694 0.28567
0.94735 0.90922 0.28389
0.96639 0.91062 0.28286
0.98538 0.91202 0.28205
1.00446 0.91344 0.28145
1.0236 0.91487 0.28108
0.60627 0.8948 0.34076
0.61997 0.89653 0.33967
0.63337 0.89823 0.33859
0.64806 0.9001 0.3374
0.66609 0.9024 0.33593
0.68725 0.9051 0.33418
0.71134 0.90817 0.33218
0.73823 0.91159 0.32993
0.76147 0.91425 0.32786
0.78285 0.91649 0.3259
0.8056 0.91886 0.32387
0.82955 0.92135 0.32178
0.85456 0.92395 0.31967
0.8805 0.92663 0.31756
0.90725 0.92938 0.31547
0.93472 0.93218 0.31342
0.95572 0.93392 0.31207
0.97423 0.93525 0.31112
0.99277 0.93659 0.31036
1.01143 0.93796 0.30979
1.03017 0.93933 0.30942
0.12269 0.12454 0.15134
0.14594 0.12552 0.14006
0.19405 0.1305 0.13619
0.24391 0.13613 0.13364
0.30076 0.14185 0.13108
0.37191 0.14743 0.12797
0.44147 0.1508 0.12467
0.50781 0.15192 0.12086
0.57 0.15095 0.11666
0.61351 0.14895 0.1132
0.65543 0.14594 0.10961
0.6943 0.14211 0.10606
0.71965 0.13905 0.10378
0.74393 0.13569 0.10168
0.7672 0.132 0.09973
0.78958 0.12798 0.09793
0.80391 0.12542 0.09725
0.8157 0.12341 0.0975
