doc/3DLUTs/Moonlight.3DL
#Created by: Adobe Photoshop CS6
#Copyright: Copyright 2012 Adobe Systems Inc.
0 256 512 767 1023
0 0 0
0 0 482
0 48 964
0 177 1493
0 273 1927
0 385 209
0 369 594
0 385 1044
0 418 1493
0 450 1959
32 723 514
0 723 739
0 739 1140
0 739 1574
0 771 2039
112 1108 787
0 1140 996
0 1140 1333
0 1140 1718
0 1172 2216
353 1638 1220
112 1654 1349
0 1654 1686
0 1686 2088
0 1702 2505
337 32 128
273 32 562
48 80 1012
0 209 1461
0 305 1927
337 369 257
209 369 642
0 401 1092
0 418 1493
0 482 1959
337 723 498
112 723 739
0 739 1140
0 739 1606
0 787 2056
369 1140 819
128 1124 1012
0 1140 1349
0 1172 1783
0 1188 2232
514 1654 1237
418 1686 1397
0 1670 1702
0 1702 2120
0 1702 2521
723 145 241
642 177 626
514 209 1060
225 289 1510
0 353 1975
691 401 321
610 401 691
482 401 1092
80 434 1510
0 498 1975
674 723 530
610 723 803
450 739 1188
0 755 1638
0 787 2088
707 1140 867
674 1156 1060
434 1156 1397
0 1188 1815
0 1188 2264
851 1670 1253
755 1670 1413
594 1702 1702
241 1686 2120
0 1750 2553
1044 225 353
996 257 707
915 305 1124
787 353 1542
482 401 2023
1028 418 418
996 418 707
883 466 1156
739 498 1606
418 530 2056
1028 755 626
996 787 867
851 771 1285
755 787 1686
385 835 2120
1108 1172 915
1060 1172 1092
964 1172 1445
787 1204 1863
305 1253 2329
1253 1718 1365
1188 1718 1493
1140 1766 1815
947 1783 2200
626 1799 2634
1413 353 498
1365 369 819
1285 418 1237
1188 418 1638
1044 498 2088
1381 482 578
1349 498 819
1285 514 1253
1204 562 1686
1060 594 2104
1397 803 723
1397 803 947
1333 835 1349
1204 851 1734
1076 899 2216
1493 1253 1012
1493 1253 1172
1413 1269 1558
1269 1269 1991
1108 1317 2425
1702 1815 1445
1686 1815 1606
1606 1815 1895
1461 1847 2312
1349 1879 2778
