doc/3DLUTs/Moonlight.3DL
#Created by: Adobe Photoshop CS6
#Copyright: Copyright 2012 Adobe Systems Inc.
0 64 128 192 256 320 384 448 512 575 639 703 767 831 895 959 1023
0 0 0
0 0 80
0 0 225
0 0 353
0 0 482
0 16 594
0 32 739
0 32 851
0 48 964
0 64 1092
0 80 1237
0 128 1349
0 177 1493
0 225 1590
0 225 1702
0 257 1799
0 273 1927
0 48 48
0 64 128
0 64 289
0 48 401
0 64 514
0 64 642
0 96 771
0 80 883
0 96 1012
0 112 1140
0 145 1253
0 193 1349
0 193 1445
0 241 1606
0 273 1718
0 289 1815
0 305 1927
0 145 112
0 145 209
0 161 321
0 161 466
0 128 530
0 177 691
0 161 803
0 177 931
0 161 996
0 209 1140
0 225 1237
0 257 1365
0 273 1477
0 289 1590
0 305 1718
0 337 1831
0 353 1943
0 273 161
0 273 257
0 273 385
0 257 466
0 273 594
0 273 691
0 289 851
0 289 931
0 289 1028
0 289 1156
0 321 1285
0 321 1381
0 337 1510
0 353 1606
0 353 1702
0 369 1831
0 401 1943
0 385 209
0 369 321
0 385 418
0 385 530
0 369 594
0 401 739
0 369 835
0 385 980
0 385 1044
0 401 1188
0 418 1285
0 418 1397
0 418 1493
0 418 1606
0 434 1718
0 450 1831
0 450 1959
0 482 321
0 466 353
0 482 466
0 466 546
0 482 658
0 482 739
0 466 851
0 482 996
0 466 1060
0 482 1188
0 482 1301
0 498 1429
0 482 1510
0 498 1638
0 514 1750
0 514 1863
0 530 1943
80 546 369
0 562 450
0 546 498
0 546 578
0 562 691
0 546 771
0 562 883
0 546 964
0 562 1124
0 578 1237
0 578 1349
0 562 1413
0 578 1542
0 610 1686
0 594 1783
0 610 1879
0 610 1991
80 626 418
16 626 482
0 626 498
0 642 626
0 626 723
0 658 835
0 642 915
0 642 996
0 642 1124
0 642 1237
0 658 1365
0 674 1461
0 674 1590
0 674 1686
0 674 1783
0 691 1895
0 707 2039
32 723 514
0 723 546
16 723 578
0 723 674
0 723 739
0 739 867
0 723 964
0 723 1044
0 739 1140
0 739 1269
0 739 1365
0 755 1477
0 739 1574
0 739 1718
0 739 1799
0 755 1927
0 771 2039
0 803 562
0 803 594
0 835 658
0 819 723
0 819 787
0 819 915
0 819 996
0 819 1108
0 819 1172
0 819 1285
0 835 1397
0 835 1526
0 835 1638
0 851 1766
0 851 1847
0 867 1975
0 867 2088
112 915 658
16 915 691
0 915 707
0 915 787
0 915 851
0 915 947
0 915 1044
0 931 1156
0 915 1220
0 915 1317
0 931 1445
0 947 1574
0 931 1622
0 931 1783
0 947 1911
0 964 2023
0 964 2104
128 1028 723
16 1028 755
32 1028 803
0 1012 851
0 1028 931
0 1028 1028
0 1012 1092
0 1028 1204
0 1028 1301
0 1044 1413
0 1028 1461
0 1060 1606
0 1044 1702
0 1060 1831
0 1060 1959
0 1060 2072
0 1076 2168
112 1108 787
80 1108 803
0 1124 867
0 1124 899
0 1140 996
0 1124 1060
0 1156 1188
0 1140 1253
0 1140 1333
0 1156 1477
0 1156 1574
0 1140 1638
0 1140 1718
0 1156 1863
0 1156 1959
0 1172 2136
0 1172 2216
241 1237 867
161 1237 915
48 1269 964
32 1237 996
0 1253 1076
0 1253 1156
0 1253 1237
0 1269 1349
0 1253 1413
0 1253 1510
0 1269 1622
0 1285 1750
0 1285 1831
0 1285 1943
0 1285 2023
0 1285 2136
0 1301 2280
209 1381 1012
193 1365 996
112 1365 1060
32 1365 1076
0 1381 1140
0 1365 1237
0 1397 1301
0 1381 1429
0 1397 1477
0 1381 1574
0 1397 1702
0 1397 1799
0 1397 1927
0 1397 2007
0 1413 2104
0 1429 2248
0 1429 2329
305 1510 1124
257 1493 1140
128 1510 1140
96 1510 1172
0 1510 1237
0 1526 1349
0 1510 1397
0 1542 1510
0 1542 1606
0 1526 1718
0 1526 1783
0 1542 1895
0 1558 2023
0 1542 2120
0 1542 2168
0 1542 2312
0 1574 2409
353 1638 1220
353 1654 1220
401 1654 1253
241 1670 1317
112 1654 1349
96 1670 1445
0 1670 1526
0 1670 1574
0 1654 1686
0 1686 1783
0 1670 1879
0 1670 1959
0 1686 2088
0 1702 2216
0 1686 2312
0 1718 2425
0 1702 2505
48 0 0
0 0 112
0 0 257
0 0 401
0 16 514
0 32 642
0 32 755
0 32 867
0 48 996
0 48 1124
0 80 1237
0 145 1349
0 177 1461
0 209 1558
0 241 1686
0 257 1799
0 289 1959
48 48 48
0 48 161
0 48 289
0 64 418
0 64 514
0 80 658
0 80 771
0 80 883
0 96 1028
0 112 1108
0 128 1237
0 177 1365
0 225 1477
0 241 1574
0 273 1702
0 289 1799
0 305 1927
32 145 112
0 145 193
0 145 305
0 128 434
0 145 562
0 161 691
0 161 803
0 177 915
0 209 1044
0 209 1140
0 241 1253
0 241 1333
0 273 1461
0 289 1590
0 321 1718
0 321 1815
0 353 1943
0 257 161
0 273 273
0 273 385
0 289 498
0 273 578
0 289 723
0 289 835
0 289 964
0 289 1028
0 305 1140
0 305 1253
0 321 1397
0 353 1493
0 353 1622
0 385 1750
0 385 1815
0 385 1943
0 385 209
0 385 305
0 385 434
0 385 514
0 385 594
0 369 723
0 385 835
0 369 947
0 385 1044
0 401 1172
0 401 1285
0 418 1413
0 418 1510
0 434 1622
0 434 1718
0 450 1847
0 466 1991
64 482 305
32 482 385
0 482 466
0 482 562
0 482 658
0 466 739
0 450 835
0 466 964
0 482 1092
0 466 1188
0 498 1317
0 498 1413
0 498 1526
0 514 1654
0 514 1750
0 498 1863
0 530 1991
112 546 401
48 562 450
48 546 482
0 546 578
0 546 658
0 546 787
0 562 867
0 546 947
0 578 1108
0 562 1204
0 562 1333
0 562 1413
0 562 1510
0 594 1670
0 610 1799
0 610 1879
0 610 2007
112 626 450
32 626 482
32 626 530
0 642 642
0 626 691
0 642 819
0 642 915
0 642 996
0 642 1108
0 658 1237
0 658 1349
0 658 1477
0 658 1558
0 658 1670
0 674 1815
0 674 1895
0 691 2023
96 707 482
64 707 530
16 707 578
0 723 658
0 739 755
0 739 883
0 723 931
0 739 1076
0 723 1108
0 723 1237
0 755 1397
0 739 1477
0 739 1590
0 739 1718
0 771 1831
0 755 1911
0 771 2039
145 819 578
64 819 610
16 819 658
0 819 723
0 819 787
0 819 899
0 819 980
0 803 1092
0 835 1188
0 835 1285
0 835 1365
0 835 1526
0 835 1638
0 867 1783
0 851 1863
0 851 1959
0 867 2088
128 915 658
96 915 691
0 915 707
0 915 787
0 915 851
0 915 947
0 915 1044
0 931 1156
0 915 1237
0 931 1333
0 947 1461
0 931 1542
0 915 1638
0 931 1783
0 947 1879
0 964 2023
0 980 2152
128 1012 723
177 1012 755
32 1012 787
0 1028 851
0 1028 931
0 1012 996
0 1028 1108
0 1028 1204
0 1028 1285
0 1044 1413
0 1060 1477
0 1044 1606
0 1044 1718
0 1044 1815
0 1060 1927
0 1060 2056
0 1076 2152
193 1140 835
80 1124 803
0 1124 867
0 1140 931
0 1140 980
0 1124 1092
0 1124 1140
0 1140 1253
0 1140 1333
0 1156 1461
0 1140 1574
0 1140 1638
0 1140 1718
0 1156 1863
0 1188 2007
0 1172 2120
0 1188 2232
209 1237 899
161 1237 915
16 1253 947
16 1253 1028
0 1269 1060
0 1253 1156
0 1269 1237
0 1253 1333
0 1253 1413
0 1253 1526
0 1269 1638
0 1285 1750
0 1269 1815
0 1269 1927
0 1285 2023
0 1285 2136
0 1301 2296
193 1365 996
273 1349 996
112 1381 1060
64 1381 1092
0 1365 1124
0 1397 1253
0 1381 1333
0 1381 1397
0 1381 1477
0 1381 1606
0 1397 1702
0 1397 1799
0 1397 1927
0 1397 2007
0 1413 2120
0 1413 2216
0 1413 2296
305 1510 1124
321 1526 1140
112 1526 1188
112 1526 1188
80 1510 1253
0 1526 1349
0 1526 1429
0 1510 1493
0 1526 1590
0 1542 1702
0 1526 1766
0 1526 1879
0 1558 2007
0 1558 2120
0 1558 2200
0 1558 2329
0 1558 2425
353 1654 1220
450 1654 1237
401 1654 1253
241 1654 1317
225 1670 1397
177 1670 1429
0 1670 1526
0 1670 1574
0 1670 1654
0 1670 1783
0 1670 1895
0 1670 1959
0 1686 2088
0 1702 2216
0 1686 2312
0 1686 2393
0 1702 2489
112 0 32
128 0 128
80 0 257
48 0 401
32 16 514
0 16 642
0 48 787
0 48 883
0 64 1012
0 64 1124
0 128 1269
0 128 1349
0 177 1445
0 225 1574
0 241 1702
0 273 1815
0 289 1927
112 64 80
80 64 193
64 48 273
0 64 418
0 80 530
0 80 674
0 96 787
0 80 899
0 112 1028
0 128 1140
0 161 1253
0 209 1365
0 241 1477
0 241 1590
0 257 1686
0 289 1815
0 305 1927
112 112 112
96 128 193
48 145 353
0 177 482
0 161 578
0 161 691
0 177 803
0 177 915
0 193 1028
0 225 1156
0 241 1253
0 273 1381
0 289 1477
0 289 1590
0 321 1702
0 321 1831
0 353 1927
96 273 209
80 289 273
0 289 385
0 289 498
0 289 610
0 289 723
0 305 819
0 289 931
0 305 1044
0 337 1172
0 321 1269
0 321 1365
0 353 1477
0 369 1606
0 369 1718
0 385 1815
0 385 1927
112 369 225
112 385 337
32 385 450
0 385 514
0 369 610
0 385 755
0 369 835
0 385 947
0 401 1076
0 401 1156
0 418 1301
0 401 1381
0 418 1510
0 434 1606
0 434 1734
0 434 1815
0 466 1959
145 466 305
128 482 385
80 466 434
32 482 562
0 466 642
0 466 739
0 466 867
0 482 980
0 466 1076
0 482 1172
0 482 1317
0 498 1429
0 498 1510
0 514 1638
0 530 1783
0 530 1863
0 530 1991
128 546 369
128 530 418
64 546 466
0 546 578
0 562 707
0 546 787
0 546 851
0 562 996
0 562 1108
0 562 1204
0 562 1333
0 578 1445
0 594 1542
0 578 1670
0 610 1766
0 594 1879
0 626 1991
161 610 418
145 626 466
96 642 546
32 642 626
0 642 707
0 642 819
0 642 915
0 658 1028
0 658 1124
0 642 1253
0 658 1365
0 674 1493
0 658 1558
0 674 1686
0 691 1815
0 691 1911
0 707 2039
161 707 498
177 707 530
16 723 578
0 723 658
0 723 755
0 723 851
0 739 964
0 739 1076
0 739 1124
0 739 1253
0 739 1381
0 739 1477
0 755 1606
0 739 1702
0 755 1815
0 755 1927
0 787 2056
145 819 578
128 819 610
80 819 658
0 819 723
0 819 787
0 819 883
0 819 980
0 819 1108
0 819 1172
0 819 1285
0 835 1397
0 835 1526
0 851 1638
0 851 1750
0 835 1847
0 851 1975
0 867 2088
128 915 658
96 899 674
64 915 707
0 915 787
0 915 835
0 915 947
0 899 1012
0 915 1140
0 915 1220
0 931 1349
0 931 1429
0 931 1558
0 931 1654
0 964 1799
0 947 1863
0 980 2039
0 964 2120
128 1028 723
177 1012 755
64 1028 787
0 1028 851
0 1028 899
0 1012 1028
0 1028 1076
0 1028 1204
0 1028 1285
0 1044 1413
0 1028 1493
0 1044 1590
0 1044 1686
0 1076 1815
0 1060 1943
0 1060 2072
0 1060 2152
193 1124 819
193 1124 819
16 1124 867
48 1124 931
32 1140 1012
0 1140 1076
0 1156 1156
0 1140 1253
0 1140 1333
0 1156 1477
0 1140 1542
0 1140 1638
0 1140 1718
0 1156 1863
0 1172 1975
0 1172 2120
0 1188 2232
257 1269 883
193 1253 931
112 1253 980
16 1269 1044
0 1253 1060
0 1253 1156
0 1269 1237
0 1253 1349
0 1253 1413
0 1269 1558
0 1285 1622
0 1269 1750
0 1269 1831
0 1301 1927
0 1285 2023
0 1285 2136
0 1285 2280
321 1365 980
289 1365 1012
257 1365 1028
48 1365 1076
64 1397 1172
0 1397 1253
0 1381 1317
0 1397 1429
0 1381 1477
0 1397 1622
0 1381 1702
0 1413 1815
0 1413 1927
0 1413 1991
0 1429 2136
0 1413 2248
0 1413 2296
418 1510 1108
321 1526 1140
145 1510 1140
209 1526 1220
80 1526 1269
48 1526 1349
0 1526 1413
0 1526 1510
0 1526 1590
0 1526 1686
0 1526 1783
0 1526 1911
0 1542 1975
0 1542 2120
0 1542 2184
0 1558 2329
0 1558 2425
434 1654 1220
434 1638 1220
434 1670 1269
337 1638 1301
257 1654 1349
177 1670 1429
0 1654 1493
0 1670 1590
0 1670 1702
0 1686 1783
0 1670 1863
0 1686 2007
0 1686 2088
0 1702 2216
0 1702 2312
0 1702 2425
0 1718 2521
209 16 112
225 0 193
177 0 273
112 16 418
161 48 546
64 32 674
32 32 771
0 48 915
0 80 1028
0 96 1124
0 128 1269
0 177 1381
0 225 1477
0 225 1590
0 241 1686
0 289 1815
0 305 1927
257 64 128
241 64 241
177 64 337
145 64 466
64 64 530
48 80 691
0 80 803
0 112 915
0 128 1028
0 145 1124
0 177 1237
0 209 1365
0 225 1461
0 241 1574
0 257 1686
0 305 1831
