doc/3DLUTs/Moonlight.3DL
#Created by: Adobe Photoshop CS6
#Copyright: Copyright 2012 Adobe Systems Inc.
0 128 256 384 512 639 767 895 1023
0 0 0
0 0 225
0 0 482
0 32 739
0 48 964
0 80 1237
0 177 1493
0 225 1702
0 273 1927
0 145 112
0 161 321
0 128 530
0 161 803
0 161 996
0 225 1237
0 273 1477
0 305 1718
0 353 1943
0 385 209
0 385 418
0 369 594
0 369 835
0 385 1044
0 418 1285
0 418 1493
0 434 1718
0 450 1959
80 546 369
0 546 498
0 562 691
0 562 883
0 562 1124
0 578 1349
0 578 1542
0 594 1783
0 610 1991
32 723 514
16 723 578
0 723 739
0 723 964
0 739 1140
0 739 1365
0 739 1574
0 739 1799
0 771 2039
112 915 658
0 915 707
0 915 851
0 915 1044
0 915 1220
0 931 1445
0 931 1622
0 947 1911
0 964 2104
112 1108 787
0 1124 867
0 1140 996
0 1156 1188
0 1140 1333
0 1156 1574
0 1140 1718
0 1156 1959
0 1172 2216
209 1381 1012
112 1365 1060
0 1381 1140
0 1397 1301
0 1397 1477
0 1397 1702
0 1397 1927
0 1413 2104
0 1429 2329
353 1638 1220
401 1654 1253
112 1654 1349
0 1670 1526
0 1654 1686
0 1670 1879
0 1686 2088
0 1686 2312
0 1702 2505
112 0 32
80 0 257
32 16 514
0 48 787
0 64 1012
0 128 1269
0 177 1445
0 241 1702
0 289 1927
112 112 112
48 145 353
0 161 578
0 177 803
0 193 1028
0 241 1253
0 289 1477
0 321 1702
0 353 1927
112 369 225
32 385 450
0 369 610
0 369 835
0 401 1076
0 418 1301
0 418 1510
0 434 1734
0 466 1959
128 546 369
64 546 466
0 562 707
0 546 851
0 562 1108
0 562 1333
0 594 1542
0 610 1766
0 626 1991
161 707 498
16 723 578
0 723 755
0 739 964
0 739 1124
0 739 1381
0 755 1606
0 755 1815
0 787 2056
128 915 658
64 915 707
0 915 835
0 899 1012
0 915 1220
0 931 1429
0 931 1654
0 947 1863
0 964 2120
193 1124 819
16 1124 867
32 1140 1012
0 1156 1156
0 1140 1333
0 1140 1542
0 1140 1718
0 1172 1975
0 1188 2232
321 1365 980
257 1365 1028
64 1397 1172
0 1381 1317
0 1381 1477
0 1381 1702
0 1413 1927
0 1429 2136
0 1413 2296
434 1654 1220
434 1670 1269
257 1654 1349
0 1654 1493
0 1670 1702
0 1670 1863
0 1686 2088
0 1702 2312
0 1718 2521
337 32 128
321 0 337
273 32 562
193 48 819
48 80 1012
0 161 1253
0 209 1461
0 257 1686
0 305 1927
353 128 161
289 145 385
257 177 626
128 209 835
0 225 1028
0 273 1253
0 289 1510
0 321 1734
0 353 1943
337 369 257
321 369 434
209 369 642
16 385 851
0 401 1092
0 418 1285
0 418 1493
0 434 1718
0 482 1959
321 546 401
289 530 514
161 546 691
48 562 899
0 562 1108
0 562 1333
0 578 1558
0 610 1783
0 610 1991
337 723 498
257 723 610
112 723 739
0 739 980
0 739 1140
0 755 1397
0 739 1606
0 755 1815
0 787 2056
337 899 642
273 899 723
128 915 867
0 915 1060
0 931 1285
0 915 1445
0 964 1702
0 964 1927
0 964 2120
369 1140 819
337 1140 867
128 1124 1012
0 1156 1172
0 1140 1349
0 1140 1558
0 1172 1783
0 1156 1975
0 1188 2232
401 1381 996
369 1381 1044
177 1381 1172
16 1365 1301
0 1381 1493
0 1397 1686
0 1413 1911
0 1413 2104
0 1413 2329
514 1654 1237
578 1654 1269
418 1686 1397
289 1670 1526
0 1670 1702
0 1686 1879
0 1702 2120
0 1686 2312
0 1702 2521
546 64 193
530 80 401
466 80 610
401 128 835
305 177 1060
96 209 1253
0 241 1477
0 289 1734
0 321 1927
546 209 193
514 209 401
450 209 610
401 225 835
257 257 1044
16 305 1285
0 305 1510
0 337 1718
0 369 1975
498 385 305
498 385 434
401 369 658
353 385 851
177 401 1076
0 418 1301
0 434 1542
0 466 1750
0 482 1975
514 530 401
482 546 530
434 546 707
321 562 915
128 578 1124
0 578 1333
0 594 1590
0 594 1783
0 610 2007
482 723 514
482 723 626
434 707 755
305 723 980
209 723 1140
0 755 1413
0 755 1590
0 771 1847
0 787 2088
514 915 691
498 915 723
401 915 867
225 915 1028
48 931 1237
0 931 1445
0 964 1718
0 964 1927
0 980 2136
530 1140 835
498 1140 883
401 1124 996
257 1124 1172
16 1140 1365
0 1172 1606
0 1172 1783
0 1188 2023
0 1188 2264
562 1381 1028
578 1381 1044
498 1397 1188
401 1397 1333
161 1397 1510
0 1413 1750
0 1413 1959
0 1413 2120
0 1445 2377
674 1654 1220
691 1654 1285
578 1670 1365
498 1670 1542
209 1670 1686
0 1702 1927
0 1686 2104
0 1718 2329
0 1734 2553
723 145 241
674 177 434
642 177 626
594 193 835
514 209 1060
418 225 1301
225 289 1510
0 321 1734
0 353 1975
691 225 209
691 257 450
642 257 674
594 273 851
498 289 1076
385 305 1301
112 337 1526
0 369 1750
0 385 1943
691 401 321
658 401 482
610 401 691
578 385 883
482 401 1092
321 450 1349
80 434 1510
0 482 1799
0 498 1975
658 562 418
658 562 530
610 578 723
546 562 964
466 562 1140
209 578 1365
16 594 1558
0 626 1815
0 626 2023
674 723 530
658 723 626
610 723 803
546 723 980
450 739 1188
273 771 1413
0 755 1638
0 771 1847
0 787 2088
691 915 658
658 931 771
626 931 915
578 947 1092
385 947 1285
353 947 1477
0 964 1750
0 964 1927
0 980 2168
707 1140 867
707 1156 899
674 1156 1060
546 1156 1237
434 1156 1397
225 1172 1590
0 1188 1815
0 1188 2023
0 1188 2264
771 1413 1060
771 1381 1092
707 1397 1204
626 1397 1333
514 1413 1526
273 1429 1750
16 1445 1943
0 1445 2152
0 1461 2409
851 1670 1253
835 1670 1285
755 1670 1413
707 1670 1558
594 1702 1702
466 1702 1927
241 1686 2120
0 1734 2377
0 1750 2553
867 225 305
851 193 466
835 225 674
787 225 867
707 257 1092
674 273 1301
514 289 1526
337 353 1783
0 369 1975
851 273 321
851 257 482
819 289 691
755 305 899
707 321 1092
642 321 1317
546 337 1542
305 401 1766
0 418 1975
851 418 369
835 418 498
787 401 723
755 418 931
707 418 1108
610 450 1349
498 482 1606
257 482 1783
0 514 2007
835 546 466
851 562 578
819 578 739
723 578 964
691 578 1140
594 594 1365
434 610 1606
177 610 1815
0 642 2039
835 723 562
819 723 658
787 739 835
755 771 1044
674 739 1220
578 771 1429
401 771 1638
32 803 1895
0 819 2104
883 947 723
851 947 803
835 947 931
803 964 1124
707 947 1317
594 964 1526
401 980 1750
0 980 1959
0 1012 2168
931 1172 899
899 1156 931
851 1172 1076
803 1156 1204
739 1156 1397
578 1188 1622
466 1172 1799
273 1204 2072
0 1188 2248
947 1413 1060
980 1429 1140
915 1429 1253
851 1429 1381
835 1429 1558
674 1461 1783
466 1445 2007
337 1477 2184
0 1477 2425
1044 1686 1301
1028 1686 1317
1028 1670 1397
980 1702 1558
867 1718 1750
755 1734 1943
610 1734 2152
434 1783 2425
241 1766 2618
1044 225 353
1012 241 498
996 257 707
947 289 931
915 305 1124
835 321 1349
787 353 1542
674 353 1783
482 401 2023
1028 305 401
1012 305 514
996 321 723
947 321 931
915 353 1156
835 385 1349
755 369 1590
642 401 1783
514 434 2023
1028 418 418
1012 418 562
996 418 707
947 434 947
883 466 1156
835 466 1381
739 498 1606
674 514 1799
418 530 2056
1044 578 514
1028 578 594
996 594 819
931 594 996
899 594 1188
819 626 1413
707 610 1622
642 642 1831
353 674 2056
1028 755 626
1012 755 707
996 787 867
947 771 1044
851 771 1285
851 787 1461
755 787 1686
594 803 1879
385 835 2120
1060 964 787
1044 964 835
996 964 947
964 964 1124
915 964 1317
819 980 1558
739 996 1783
594 1012 1975
385 1028 2200
1108 1172 915
1092 1172 964
1060 1172 1092
1028 1172 1253
964 1172 1445
899 1188 1638
787 1204 1863
610 1220 2088
305 1253 2329
1188 1413 1092
1172 1429 1172
1124 1429 1269
1076 1445 1445
996 1461 1606
931 1445 1815
803 1493 2023
691 1477 2216
594 1510 2473
1253 1718 1365
1253 1734 1365
1188 1718 1493
1220 1766 1638
1140 1766 1815
1044 1766 1991
947 1783 2200
803 1783 2457
626 1799 2634
1204 305 434
1188 321 546
1172 305 723
1124 337 980
1108 337 1156
1060 353 1397
996 369 1590
883 401 1783
819 434 2039
1204 353 450
1220 353 578
1188 369 787
1124 353 964
1092 401 1156
1060 385 1381
964 418 1590
899 434 1847
819 482 2072
1220 466 482
1204 466 610
1172 482 819
1156 482 1012
1092 466 1188
1060 514 1397
996 514 1622
915 530 1847
787 562 2072
1220 610 578
1204 610 658
1156 610 851
1124 610 1028
1108 626 1237
1028 658 1445
980 642 1638
899 674 1879
787 691 2104
1237 787 674
1237 787 755
1188 771 883
1124 787 1124
1108 803 1333
1076 787 1510
964 819 1734
899 835 1943
787 851 2184
1253 996 803
1253 964 835
1220 980 1028
1172 996 1204
1140 996 1349
1076 1012 1622
1012 1012 1783
915 1028 2039
755 1060 2264
1285 1204 964
1285 1204 1012
1237 1220 1140
1204 1204 1317
1172 1204 1477
1124 1237 1702
1012 1220 1895
931 1253 2120
803 1285 2393
1365 1445 1156
1349 1445 1204
1317 1461 1317
1317 1461 1461
1285 1477 1654
1204 1493 1879
1140 1493 2072
1012 1510 2296
851 1526 2537
1461 1766 1381
1477 1766 1445
1429 1750 1542
1445 1783 1670
1349 1766 1847
1301 1783 2056
1204 1783 2248
1092 1799 2473
1028 1847 2698
1413 353 498
1397 353 610
1365 369 819
1333 385 1012
1285 418 1237
1237 418 1429
1188 418 1638
1124 450 1863
1044 498 2088
1381 401 530
1365 401 610
1365 434 819
1333 418 1028
1285 450 1253
1237 434 1413
1172 466 1654
1124 498 1879
1044 514 2088
1381 482 578
1381 498 658
1349 498 819
1333 530 1044
1285 514 1253
1237 530 1461
1204 562 1686
1156 594 1927
1060 594 2104
1413 658 626
1397 658 707
1365 674 915
1333 642 1076
1301 658 1285
1285 674 1477
1204 691 1686
1156 707 1943
1044 723 2168
1397 803 723
1397 819 819
1397 803 947
1349 819 1172
1333 835 1349
1301 851 1574
1204 851 1734
1188 883 1991
1076 899 2216
1461 1028 867
1445 1028 931
1413 1028 1028
1381 1012 1237
1333 1012 1429
1269 1060 1686
1237 1044 1863
1140 1044 2088
1092 1076 2296
1493 1253 1012
1477 1237 1060
1493 1253 1172
1429 1253 1349
1413 1269 1558
1333 1285 1766
1269 1269 1991
1220 1285 2168
1108 1317 2425
1590 1493 1220
1574 1477 1237
1558 1510 1381
1510 1526 1542
1477 1510 1702
1429 1510 1895
1333 1542 2120
1269 1558 2393
1204 1590 2585
1702 1815 1445
1702 1831 1510
1686 1815 1606
1638 1815 1750
1606 1815 1895
1558 1831 2120
1461 1847 2312
1445 1863 2537
1349 1879 2778
