doc/3DLUTs/NightFromDay.CUBE
#Created by: Adobe Photoshop CS6
#Copyright: Copyright 2012 Adobe Systems Inc.
TITLE "Night from Day"
#LUT size
LUT_3D_SIZE 17
#data domain
DOMAIN_MIN 0.0 0.0 0.0
DOMAIN_MAX 1.0 1.0 1.0
#LUT data points
0.000000 0.000000 0.000000
0.011765 0.000000 0.000000
0.039216 0.000000 0.011765
0.066667 0.000000 0.015686
0.094118 0.000000 0.031373
0.129412 0.007843 0.035294
0.149020 0.011765 0.031373
0.168627 0.023529 0.027451
0.188235 0.027451 0.031373
0.215686 0.035294 0.047059
0.239216 0.039216 0.050980
0.258824 0.047059 0.066667
0.282353 0.050980 0.070588
0.301961 0.050980 0.074510
0.329412 0.058824 0.090196
0.352941 0.070588 0.098039
0.376471 0.062745 0.098039
0.000000 0.015686 0.007843
0.015686 0.011765 0.000000
0.031373 0.015686 0.007843
0.070588 0.011765 0.019608
0.098039 0.015686 0.031373
0.125490 0.015686 0.027451
0.145098 0.027451 0.031373
0.168627 0.031373 0.019608
0.192157 0.039216 0.027451
0.211765 0.043137 0.039216
0.235294 0.047059 0.050980
0.258824 0.050980 0.062745
0.286275 0.054902 0.074510
0.305882 0.054902 0.078431
0.325490 0.066667 0.086275
0.349020 0.066667 0.090196
0.372549 0.082353 0.105882
0.000000 0.039216 0.019608
0.000000 0.039216 0.019608
0.035294 0.031373 0.023529
0.066667 0.039216 0.015686
0.101961 0.043137 0.023529
0.125490 0.047059 0.019608
0.149020 0.047059 0.027451
0.168627 0.054902 0.027451
0.188235 0.054902 0.035294
0.215686 0.058824 0.043137
0.231373 0.058824 0.054902
0.254902 0.062745 0.070588
0.278431 0.066667 0.078431
0.305882 0.074510 0.082353
0.325490 0.074510 0.094118
0.356863 0.086275 0.105882
0.376471 0.082353 0.101961
0.000000 0.074510 0.023529
0.000000 0.074510 0.031373
0.031373 0.074510 0.027451
0.070588 0.074510 0.031373
0.094118 0.074510 0.027451
0.121569 0.070588 0.031373
0.141176 0.074510 0.035294
0.168627 0.070588 0.035294
0.184314 0.078431 0.050980
0.211765 0.070588 0.050980
0.239216 0.074510 0.062745
0.258824 0.074510 0.066667
0.278431 0.082353 0.074510
0.301961 0.090196 0.094118
0.325490 0.094118 0.094118
0.352941 0.094118 0.105882
0.380392 0.098039 0.113725
0.000000 0.101961 0.043137
0.011765 0.098039 0.043137
0.023529 0.094118 0.035294
0.070588 0.094118 0.039216
0.094118 0.094118 0.047059
0.113725 0.094118 0.043137
0.137255 0.098039 0.050980
0.164706 0.098039 0.054902
0.184314 0.094118 0.058824
0.203922 0.098039 0.070588
0.231373 0.098039 0.070588
0.258824 0.098039 0.078431
0.278431 0.101961 0.082353
0.298039 0.101961 0.090196
0.329412 0.113725 0.094118
0.349020 0.113725 0.101961
0.376471 0.113725 0.117647
0.003922 0.117647 0.062745
0.019608 0.117647 0.054902
0.031373 0.117647 0.058824
0.066667 0.117647 0.058824
0.086275 0.117647 0.066667
0.121569 0.117647 0.066667
0.137255 0.117647 0.070588
0.160784 0.121569 0.074510
0.180392 0.113725 0.070588
0.211765 0.121569 0.082353
0.227451 0.117647 0.078431
0.254902 0.121569 0.090196
0.274510 0.125490 0.094118
0.298039 0.125490 0.098039
0.329412 0.125490 0.105882
0.349020 0.129412 0.109804
0.380392 0.141176 0.121569
0.007843 0.141176 0.070588
0.023529 0.141176 0.078431
0.039216 0.141176 0.074510
0.066667 0.141176 0.074510
0.086275 0.137255 0.074510
0.109804 0.141176 0.086275
0.137255 0.141176 0.082353
0.156863 0.141176 0.086275
0.176471 0.137255 0.086275
0.200000 0.137255 0.078431
0.227451 0.137255 0.090196
0.254902 0.145098 0.101961
0.278431 0.149020 0.105882
0.301961 0.149020 0.113725
0.329412 0.149020 0.117647
0.352941 0.156863 0.121569
0.384314 0.160784 0.133333
0.015686 0.164706 0.086275
0.027451 0.164706 0.094118
0.027451 0.160784 0.086275
0.058824 0.164706 0.090196
0.090196 0.164706 0.090196
0.105882 0.164706 0.098039
0.129412 0.164706 0.094118
0.160784 0.164706 0.098039
0.184314 0.164706 0.098039
0.207843 0.164706 0.105882
0.223529 0.164706 0.098039
0.250980 0.164706 0.105882
0.274510 0.164706 0.117647
0.301961 0.172549 0.121569
0.333333 0.176471 0.129412
0.352941 0.176471 0.133333
0.380392 0.180392 0.137255
0.015686 0.188235 0.105882
0.015686 0.188235 0.101961
0.031373 0.188235 0.101961
0.058824 0.184314 0.101961
0.082353 0.188235 0.105882
0.109804 0.188235 0.109804
0.133333 0.188235 0.109804
0.152941 0.184314 0.109804
0.176471 0.188235 0.113725
0.211765 0.188235 0.113725
0.231373 0.188235 0.121569
0.247059 0.188235 0.121569
0.278431 0.196078 0.133333
0.298039 0.192157 0.133333
0.329412 0.200000 0.141176
0.352941 0.200000 0.145098
0.384314 0.203922 0.152941
0.011765 0.211765 0.117647
0.015686 0.211765 0.113725
0.031373 0.211765 0.113725
0.050980 0.215686 0.117647
0.086275 0.211765 0.121569
0.113725 0.215686 0.125490
0.137255 0.211765 0.129412
0.152941 0.211765 0.121569
0.180392 0.211765 0.129412
0.203922 0.211765 0.129412
0.235294 0.215686 0.141176
0.247059 0.215686 0.137255
0.282353 0.219608 0.145098
0.305882 0.219608 0.149020
0.333333 0.227451 0.156863
0.356863 0.231373 0.160784
0.388235 0.231373 0.168627
0.007843 0.235294 0.133333
0.011765 0.239216 0.137255
0.047059 0.235294 0.137255
0.054902 0.239216 0.133333
0.078431 0.235294 0.129412
0.105882 0.239216 0.137255
0.137255 0.239216 0.145098
0.160784 0.243137 0.149020
0.184314 0.239216 0.137255
0.211765 0.243137 0.152941
0.235294 0.243137 0.152941
0.258824 0.243137 0.156863
0.282353 0.247059 0.160784
0.309804 0.250980 0.164706
0.337255 0.254902 0.176471
0.364706 0.258824 0.180392
0.396078 0.266667 0.188235
0.023529 0.266667 0.160784
0.027451 0.266667 0.160784
0.043137 0.262745 0.160784
0.054902 0.266667 0.156863
0.090196 0.266667 0.149020
0.101961 0.262745 0.149020
0.141176 0.266667 0.160784
0.156863 0.266667 0.160784
0.184314 0.266667 0.164706
0.207843 0.270588 0.164706
0.239216 0.270588 0.172549
0.262745 0.274510 0.164706
0.290196 0.278431 0.184314
0.309804 0.282353 0.188235
0.349020 0.286275 0.192157
0.372549 0.286275 0.192157
0.396078 0.286275 0.196078
0.039216 0.298039 0.172549
0.039216 0.298039 0.172549
0.039216 0.298039 0.172549
0.078431 0.294118 0.172549
0.098039 0.298039 0.176471
0.117647 0.294118 0.184314
0.137255 0.298039 0.176471
0.168627 0.298039 0.180392
0.192157 0.301961 0.188235
0.215686 0.305882 0.188235
0.247059 0.301961 0.188235
0.270588 0.305882 0.200000
0.294118 0.305882 0.200000
0.325490 0.309804 0.207843
0.349020 0.317647 0.211765
0.376471 0.321569 0.223529
0.403922 0.321569 0.219608
0.047059 0.329412 0.196078
0.062745 0.329412 0.200000
0.066667 0.325490 0.192157
0.066667 0.325490 0.192157
0.086275 0.325490 0.192157
0.125490 0.329412 0.192157
0.149020 0.333333 0.203922
0.172549 0.333333 0.207843
0.196078 0.333333 0.207843
0.227451 0.333333 0.211765
0.247059 0.333333 0.215686
0.278431 0.337255 0.215686
0.305882 0.341176 0.227451
0.337255 0.345098 0.227451
0.360784 0.352941 0.239216
0.392157 0.356863 0.243137
0.415686 0.364706 0.254902
0.043137 0.360784 0.219608
0.047059 0.360784 0.219608
0.070588 0.360784 0.219608
0.074510 0.364706 0.223529
0.113725 0.364706 0.227451
0.125490 0.360784 0.223529
0.156863 0.360784 0.223529
0.180392 0.368627 0.223529
0.200000 0.368627 0.235294
0.223529 0.368627 0.231373
0.254902 0.368627 0.235294
0.286275 0.372549 0.243137
0.317647 0.376471 0.247059
0.349020 0.380392 0.250980
0.368627 0.384314 0.258824
0.403922 0.392157 0.262745
0.435294 0.400000 0.278431
0.058824 0.400000 0.247059
0.058824 0.400000 0.247059
0.090196 0.400000 0.239216
0.090196 0.396078 0.239216
0.113725 0.403922 0.250980
0.149020 0.407843 0.258824
0.160784 0.403922 0.258824
0.192157 0.403922 0.250980
0.215686 0.407843 0.258824
0.239216 0.403922 0.254902
0.266667 0.411765 0.270588
0.301961 0.415686 0.266667
0.329412 0.415686 0.270588
0.352941 0.419608 0.278431
0.388235 0.423529 0.290196
0.419608 0.431373 0.294118
0.447059 0.435294 0.305882
0.109804 0.443137 0.278431
0.105882 0.443137 0.278431
0.105882 0.443137 0.278431
0.133333 0.447059 0.282353
0.149020 0.443137 0.282353
0.176471 0.443137 0.282353
0.188235 0.447059 0.282353
0.211765 0.443137 0.282353
0.223529 0.443137 0.282353
0.250980 0.447059 0.290196
0.286275 0.447059 0.286275
0.309804 0.454902 0.305882
0.341176 0.458824 0.309804
0.368627 0.462745 0.305882
0.392157 0.470588 0.317647
0.435294 0.474510 0.329412
0.462745 0.482353 0.337255
0.000000 0.000000 0.031373
0.000000 0.000000 0.031373
0.035294 0.000000 0.031373
0.066667 0.000000 0.039216
0.098039 0.000000 0.050980
0.125490 0.003922 0.050980
0.152941 0.011765 0.058824
0.168627 0.023529 0.054902
0.188235 0.035294 0.066667
0.207843 0.031373 0.066667
0.235294 0.039216 0.078431
0.254902 0.047059 0.078431
0.274510 0.050980 0.090196
0.301961 0.043137 0.090196
0.325490 0.058824 0.094118
0.349020 0.070588 0.109804
0.376471 0.062745 0.117647
0.000000 0.015686 0.031373
0.007843 0.011765 0.031373
0.031373 0.011765 0.039216
0.066667 0.011765 0.047059
0.098039 0.011765 0.050980
0.125490 0.019608 0.058824
0.145098 0.031373 0.058824
0.164706 0.031373 0.058824
0.184314 0.039216 0.066667
0.211765 0.043137 0.070588
0.235294 0.050980 0.082353
0.254902 0.050980 0.086275
0.282353 0.058824 0.098039
0.298039 0.058824 0.094118
0.321569 0.066667 0.101961
0.349020 0.070588 0.109804
0.380392 0.078431 0.121569
0.000000 0.039216 0.047059
0.000000 0.039216 0.035294
0.023529 0.039216 0.047059
0.062745 0.043137 0.047059
0.098039 0.043137 0.050980
0.117647 0.047059 0.058824
0.141176 0.047059 0.058824
0.164706 0.058824 0.070588
0.188235 0.054902 0.066667
0.211765 0.058824 0.078431
0.231373 0.062745 0.082353
0.250980 0.062745 0.090196
0.278431 0.070588 0.094118
0.301961 0.074510 0.098039
0.329412 0.070588 0.105882
0.349020 0.082353 0.117647
0.372549 0.082353 0.113725
0.000000 0.074510 0.062745
0.000000 0.078431 0.050980
0.031373 0.074510 0.054902
0.066667 0.070588 0.062745
0.090196 0.070588 0.058824
0.117647 0.070588 0.062745
0.133333 0.074510 0.062745
0.164706 0.074510 0.066667
0.184314 0.078431 0.074510
0.203922 0.074510 0.078431
0.235294 0.078431 0.082353
0.250980 0.078431 0.086275
0.274510 0.082353 0.098039
0.298039 0.090196 0.101961
0.325490 0.094118 0.109804
0.352941 0.094118 0.109804
0.376471 0.098039 0.125490
0.000000 0.101961 0.066667
0.000000 0.098039 0.066667
0.031373 0.098039 0.066667
0.062745 0.094118 0.066667
0.086275 0.094118 0.066667
0.113725 0.098039 0.078431
0.137255 0.094118 0.078431
0.160784 0.098039 0.074510
0.180392 0.094118 0.082353
0.207843 0.098039 0.090196
0.227451 0.094118 0.086275
0.254902 0.101961 0.094118
0.278431 0.101961 0.098039
0.298039 0.101961 0.101961
0.321569 0.109804 0.113725
0.345098 0.113725 0.125490
0.372549 0.113725 0.125490
0.000000 0.121569 0.074510
0.000000 0.121569 0.078431
0.035294 0.117647 0.078431
0.058824 0.121569 0.086275
0.090196 0.117647 0.082353
0.113725 0.117647 0.086275
0.133333 0.117647 0.082353
0.156863 0.117647 0.086275
0.176471 0.113725 0.086275
0.211765 0.117647 0.098039
0.227451 0.121569 0.098039
0.250980 0.117647 0.098039
0.274510 0.121569 0.105882
0.301961 0.121569 0.109804
0.325490 0.125490 0.109804
0.352941 0.133333 0.125490
0.376471 0.141176 0.133333
0.000000 0.141176 0.090196
0.007843 0.141176 0.090196
0.035294 0.141176 0.090196
0.054902 0.145098 0.098039
0.082353 0.141176 0.094118
0.105882 0.137255 0.090196
0.137255 0.141176 0.098039
0.156863 0.145098 0.105882
0.176471 0.141176 0.098039
0.196078 0.137255 0.101961
0.223529 0.145098 0.109804
0.250980 0.141176 0.113725
0.278431 0.145098 0.109804
0.301961 0.145098 0.113725
0.325490 0.149020 0.121569
0.349020 0.152941 0.133333
0.376471 0.160784 0.141176
0.000000 0.168627 0.101961
0.003922 0.164706 0.101961
0.039216 0.164706 0.101961
0.050980 0.164706 0.105882
0.082353 0.164706 0.105882
0.109804 0.164706 0.101961
0.125490 0.164706 0.105882
0.160784 0.164706 0.109804
0.180392 0.164706 0.117647
0.200000 0.160784 0.113725
0.223529 0.168627 0.117647
0.247059 0.168627 0.121569
0.274510 0.168627 0.121569
0.301961 0.168627 0.125490
0.333333 0.176471 0.133333
0.352941 0.180392 0.137255
0.380392 0.180392 0.145098
0.000000 0.188235 0.113725
0.007843 0.188235 0.113725
0.035294 0.184314 0.109804
0.050980 0.188235 0.113725
0.078431 0.188235 0.121569
0.105882 0.188235 0.121569
0.129412 0.188235 0.113725
0.156863 0.184314 0.121569
0.184314 0.188235 0.121569
0.207843 0.188235 0.133333
0.227451 0.192157 0.129412
0.250980 0.192157 0.137255
0.274510 0.196078 0.145098
0.298039 0.192157 0.137255
0.329412 0.200000 0.145098
0.356863 0.196078 0.149020
0.388235 0.207843 0.168627
0.000000 0.211765 0.129412
0.007843 0.211765 0.125490
0.023529 0.211765 0.125490
0.047059 0.215686 0.133333
0.082353 0.207843 0.125490
0.109804 0.215686 0.141176
0.133333 0.211765 0.133333
0.152941 0.211765 0.129412
0.176471 0.211765 0.137255
0.203922 0.211765 0.137255
0.235294 0.215686 0.145098
0.254902 0.215686 0.145098
0.282353 0.223529 0.156863
0.305882 0.223529 0.160784
0.325490 0.227451 0.160784
0.360784 0.227451 0.168627
0.384314 0.235294 0.180392
0.000000 0.243137 0.152941
0.019608 0.239216 0.149020
0.043137 0.239216 0.145098
0.047059 0.239216 0.145098
0.070588 0.235294 0.145098
0.113725 0.239216 0.145098
0.137255 0.239216 0.149020
0.164706 0.239216 0.152941
0.184314 0.243137 0.152941
0.207843 0.239216 0.156863
0.235294 0.243137 0.160784
0.258824 0.243137 0.164706
0.282353 0.250980 0.168627
0.305882 0.250980 0.176471
0.333333 0.254902 0.180392
0.364706 0.258824 0.188235
0.392157 0.262745 0.192157
0.000000 0.266667 0.156863
0.027451 0.266667 0.160784
0.031373 0.270588 0.160784
0.050980 0.270588 0.164706
0.082353 0.266667 0.160784
0.105882 0.262745 0.164706
0.137255 0.270588 0.164706
0.152941 0.262745 0.164706
0.184314 0.266667 0.172549
0.207843 0.274510 0.172549
0.239216 0.270588 0.180392
0.262745 0.274510 0.180392
0.286275 0.278431 0.188235
0.309804 0.286275 0.192157
0.345098 0.286275 0.203922
0.372549 0.286275 0.200000
0.396078 0.290196 0.211765
0.031373 0.298039 0.180392
0.031373 0.298039 0.180392
0.031373 0.298039 0.180392
0.074510 0.298039 0.180392
0.090196 0.298039 0.180392
0.117647 0.294118 0.184314
0.141176 0.294118 0.188235
0.168627 0.301961 0.196078
0.184314 0.301961 0.188235
0.219608 0.301961 0.200000
0.239216 0.301961 0.196078
0.266667 0.305882 0.203922
0.298039 0.313726 0.211765
0.321569 0.309804 0.207843
0.345098 0.317647 0.215686
0.372549 0.317647 0.227451
0.403922 0.325490 0.227451
0.027451 0.329412 0.207843
0.035294 0.329412 0.200000
0.054902 0.329412 0.207843
0.062745 0.329412 0.200000
0.078431 0.325490 0.200000
0.117647 0.329412 0.207843
0.149020 0.329412 0.203922
0.172549 0.337255 0.215686
0.188235 0.337255 0.215686
0.219608 0.337255 0.211765
0.243137 0.333333 0.219608
0.282353 0.333333 0.223529
0.301961 0.337255 0.223529
0.333333 0.345098 0.235294
0.352941 0.345098 0.235294
0.388235 0.356863 0.250980
0.411765 0.360784 0.254902
0.035294 0.364706 0.227451
0.062745 0.356863 0.215686
0.062745 0.360784 0.227451
0.090196 0.364706 0.231373
0.105882 0.360784 0.231373
0.125490 0.360784 0.227451
0.156863 0.364706 0.231373
0.180392 0.364706 0.235294
0.196078 0.364706 0.231373
0.223529 0.372549 0.239216
0.250980 0.368627 0.243137
0.286275 0.372549 0.243137
0.313726 0.376471 0.254902
0.341176 0.384314 0.258824
0.376471 0.388235 0.266667
0.403922 0.396078 0.274510
0.431373 0.396078 0.282353
0.050980 0.400000 0.254902
0.058824 0.400000 0.247059
0.058824 0.396078 0.243137
0.101961 0.396078 0.247059
0.117647 0.396078 0.247059
0.156863 0.400000 0.254902
0.160784 0.403922 0.254902
0.200000 0.403922 0.262745
0.215686 0.407843 0.266667
0.239216 0.407843 0.270588
0.274510 0.411765 0.270588
0.301961 0.419608 0.282353
0.329412 0.415686 0.278431
0.352941 0.419608 0.286275
0.392157 0.423529 0.290196
0.415686 0.431373 0.309804
0.450980 0.435294 0.305882
0.078431 0.447059 0.286275
0.101961 0.443137 0.286275
0.121569 0.439216 0.282353
0.121569 0.443137 0.286275
0.133333 0.447059 0.282353
0.164706 0.447059 0.282353
0.184314 0.447059 0.286275
0.207843 0.443137 0.286275
0.227451 0.450980 0.294118
0.247059 0.447059 0.294118
0.290196 0.454902 0.301961
0.313726 0.458824 0.305882
0.341176 0.458824 0.313726
0.364706 0.462745 0.317647
0.392157 0.470588 0.325490
0.435294 0.474510 0.329412
0.470588 0.482353 0.337255
0.000000 0.000000 0.066667
0.000000 0.000000 0.066667
0.031373 0.000000 0.062745
0.050980 0.000000 0.074510
0.094118 0.000000 0.086275
0.125490 0.003922 0.090196
0.149020 0.019608 0.094118
0.164706 0.019608 0.090196
0.180392 0.031373 0.098039
0.211765 0.043137 0.101961
0.235294 0.035294 0.105882
0.254902 0.043137 0.105882
0.274510 0.050980 0.113725
0.298039 0.050980 0.113725
0.325490 0.058824 0.121569
0.345098 0.070588 0.129412
0.376471 0.062745 0.125490
0.000000 0.011765 0.070588
0.000000 0.019608 0.074510
0.027451 0.015686 0.078431
0.054902 0.015686 0.082353
0.090196 0.015686 0.090196
0.121569 0.019608 0.090196
0.145098 0.031373 0.098039
0.164706 0.039216 0.098039
0.184314 0.043137 0.098039
0.207843 0.047059 0.101961
0.231373 0.047059 0.098039
0.254902 0.050980 0.105882
0.282353 0.054902 0.109804
0.301961 0.058824 0.117647
0.325490 0.070588 0.125490
0.349020 0.070588 0.125490
0.372549 0.070588 0.133333
0.000000 0.039216 0.078431
0.000000 0.039216 0.078431
0.019608 0.039216 0.082353
0.054902 0.043137 0.094118
0.086275 0.043137 0.090196
0.117647 0.047059 0.094118
0.141176 0.054902 0.094118
0.160784 0.050980 0.098039
0.184314 0.058824 0.098039
0.211765 0.058824 0.105882
0.235294 0.062745 0.105882
0.250980 0.066667 0.109804
0.274510 0.070588 0.117647
0.298039 0.074510 0.117647
0.325490 0.066667 0.117647
0.352941 0.086275 0.133333
0.372549 0.086275 0.137255
0.000000 0.074510 0.094118
0.000000 0.074510 0.086275
0.011765 0.074510 0.094118
0.062745 0.070588 0.086275
0.090196 0.070588 0.086275
0.109804 0.070588 0.094118
0.133333 0.074510 0.098039
0.156863 0.074510 0.101961
0.180392 0.074510 0.105882
0.207843 0.074510 0.105882
0.227451 0.078431 0.109804
0.250980 0.082353 0.113725
0.270588 0.086275 0.117647
0.298039 0.090196 0.117647
0.321569 0.094118 0.125490
0.349020 0.094118 0.133333
0.372549 0.094118 0.141176
0.000000 0.101961 0.098039
0.000000 0.098039 0.094118
0.000000 0.101961 0.101961
0.054902 0.094118 0.098039
0.082353 0.090196 0.094118
0.105882 0.098039 0.101961
0.133333 0.098039 0.101961
0.156863 0.098039 0.098039
0.180392 0.098039 0.105882
0.207843 0.098039 0.105882
0.223529 0.094118 0.105882
0.254902 0.098039 0.121569
0.274510 0.101961 0.121569
0.301961 0.109804 0.129412
0.325490 0.113725 0.137255
0.345098 0.113725 0.137255
0.372549 0.113725 0.137255
0.000000 0.121569 0.098039
0.000000 0.121569 0.105882
0.023529 0.121569 0.101961
0.054902 0.117647 0.098039
0.082353 0.117647 0.101961
0.105882 0.117647 0.105882
0.125490 0.117647 0.105882
0.152941 0.121569 0.113725
0.172549 0.117647 0.113725
0.207843 0.121569 0.113725
0.223529 0.121569 0.113725
0.250980 0.121569 0.117647
0.274510 0.125490 0.125490
0.301961 0.125490 0.125490
0.321569 0.133333 0.133333
0.349020 0.133333 0.149020
0.372549 0.137255 0.152941
0.000000 0.145098 0.113725
0.003922 0.145098 0.113725
0.015686 0.149020 0.109804
0.054902 0.141176 0.113725
0.074510 0.141176 0.109804
0.109804 0.141176 0.113725
0.129412 0.141176 0.121569
0.152941 0.141176 0.113725
0.176471 0.145098 0.117647
0.203922 0.141176 0.125490
0.227451 0.141176 0.121569
0.250980 0.145098 0.125490
0.274510 0.149020 0.129412
0.301961 0.145098 0.133333
0.325490 0.149020 0.137255
0.349020 0.156863 0.149020
0.376471 0.156863 0.152941
0.000000 0.168627 0.121569
0.000000 0.164706 0.113725
0.011765 0.168627 0.117647
0.047059 0.160784 0.117647
0.078431 0.164706 0.117647
0.101961 0.164706 0.129412
0.129412 0.164706 0.117647
0.152941 0.164706 0.125490
0.176471 0.164706 0.125490
0.200000 0.160784 0.125490
0.223529 0.164706 0.133333
0.250980 0.168627 0.141176
0.274510 0.168627 0.133333
0.298039 0.168627 0.145098
0.329412 0.172549 0.152941
0.352941 0.180392 0.156863
0.380392 0.180392 0.164706
0.000000 0.188235 0.137255
0.000000 0.188235 0.129412
0.000000 0.188235 0.133333
0.039216 0.188235 0.133333
0.070588 0.188235 0.129412
0.101961 0.188235 0.137255
0.125490 0.184314 0.133333
0.152941 0.184314 0.133333
0.176471 0.184314 0.141176
0.203922 0.188235 0.137255
0.227451 0.188235 0.145098
0.250980 0.188235 0.145098
0.270588 0.192157 0.149020
0.301961 0.192157 0.152941
0.333333 0.200000 0.160784
0.352941 0.203922 0.172549
0.384314 0.207843 0.180392
0.000000 0.215686 0.145098
0.000000 0.215686 0.145098
0.003922 0.211765 0.145098
0.047059 0.211765 0.141176
0.074510 0.211765 0.141176
0.101961 0.215686 0.149020
0.129412 0.211765 0.145098
0.145098 0.211765 0.149020
0.176471 0.215686 0.149020
0.200000 0.211765 0.152941
0.231373 0.215686 0.156863
0.250980 0.215686 0.156863
0.278431 0.223529 0.168627
0.305882 0.223529 0.164706
0.329412 0.223529 0.176471
0.360784 0.227451 0.180392
0.388235 0.231373 0.184314
0.000000 0.243137 0.156863
0.000000 0.239216 0.156863
0.011765 0.239216 0.156863
0.031373 0.235294 0.152941
0.062745 0.235294 0.156863
0.098039 0.239216 0.156863
0.133333 0.239216 0.160784
0.160784 0.239216 0.164706
0.184314 0.243137 0.164706
0.211765 0.243137 0.168627
0.231373 0.243137 0.168627
0.258824 0.239216 0.172549
0.282353 0.250980 0.184314
0.309804 0.247059 0.188235
0.337255 0.250980 0.188235
0.360784 0.258824 0.196078
0.396078 0.266667 0.207843
0.000000 0.270588 0.180392
0.000000 0.266667 0.172549
0.015686 0.270588 0.176471
0.070588 0.266667 0.176471
0.070588 0.266667 0.176471
0.105882 0.266667 0.172549
0.133333 0.270588 0.180392
0.156863 0.270588 0.176471
0.180392 0.266667 0.184314
0.215686 0.274510 0.188235
0.235294 0.266667 0.180392
0.266667 0.274510 0.196078
0.286275 0.278431 0.196078
0.309804 0.286275 0.207843
0.341176 0.282353 0.207843
0.368627 0.286275 0.211765
0.392157 0.286275 0.211765
0.000000 0.301961 0.192157
0.000000 0.301961 0.192157
0.007843 0.301961 0.200000
0.062745 0.298039 0.196078
0.086275 0.294118 0.188235
0.113725 0.298039 0.192157
0.129412 0.298039 0.196078
0.164706 0.298039 0.200000
0.188235 0.298039 0.196078
0.227451 0.301961 0.207843
0.235294 0.305882 0.211765
0.270588 0.301961 0.211765
0.294118 0.309804 0.211765
0.321569 0.309804 0.219608
0.341176 0.313726 0.227451
0.372549 0.317647 0.227451
0.396078 0.321569 0.235294
0.000000 0.333333 0.211765
0.000000 0.329412 0.211765
0.011765 0.329412 0.219608
0.047059 0.329412 0.211765
0.086275 0.325490 0.211765
0.113725 0.333333 0.223529
0.141176 0.333333 0.215686
0.168627 0.333333 0.223529
0.192157 0.337255 0.227451
0.215686 0.337255 0.223529
0.243137 0.333333 0.219608
0.278431 0.337255 0.235294
0.305882 0.345098 0.239216
0.329412 0.345098 0.247059
0.352941 0.349020 0.243137
0.388235 0.356863 0.262745
0.411765 0.360784 0.258824
0.003922 0.364706 0.227451
0.003922 0.364706 0.227451
0.062745 0.360784 0.227451
0.082353 0.364706 0.239216
0.101961 0.360784 0.239216
0.117647 0.360784 0.231373
0.156863 0.368627 0.239216
0.184314 0.368627 0.243137
0.196078 0.364706 0.239216
0.227451 0.368627 0.250980
0.254902 0.372549 0.254902
0.270588 0.372549 0.247059
0.313726 0.380392 0.266667
0.345098 0.384314 0.274510
0.372549 0.384314 0.278431
0.403922 0.396078 0.290196
0.431373 0.400000 0.290196
0.039216 0.400000 0.258824
0.023529 0.400000 0.262745
0.027451 0.400000 0.266667
0.094118 0.400000 0.258824
0.125490 0.403922 0.258824
0.137255 0.400000 0.258824
0.152941 0.403922 0.270588
0.184314 0.403922 0.266667
0.211765 0.407843 0.274510
0.247059 0.403922 0.270588
0.270588 0.411765 0.286275
0.294118 0.415686 0.294118
0.321569 0.419608 0.286275
0.349020 0.419608 0.294118
0.384314 0.427451 0.298039
0.415686 0.431373 0.309804
0.443137 0.435294 0.309804
0.098039 0.447059 0.294118
0.098039 0.443137 0.294118
0.121569 0.447059 0.294118
0.121569 0.447059 0.298039
0.141176 0.447059 0.298039
0.156863 0.443137 0.298039
0.176471 0.443137 0.290196
0.207843 0.447059 0.298039
0.231373 0.447059 0.301961
0.258824 0.450980 0.305882
0.278431 0.447059 0.301961
0.309804 0.454902 0.305882
0.341176 0.462745 0.321569
0.364706 0.462745 0.317647
0.396078 0.466667 0.321569
0.435294 0.478431 0.337255
0.466667 0.482353 0.349020
0.000000 0.000000 0.098039
0.000000 0.003922 0.105882
0.019608 0.000000 0.105882
0.047059 0.000000 0.109804
0.082353 0.000000 0.109804
0.117647 0.000000 0.117647
0.141176 0.023529 0.121569
0.160784 0.031373 0.125490
0.180392 0.039216 0.129412
0.207843 0.043137 0.129412
0.227451 0.043137 0.133333
0.250980 0.043137 0.129412
0.274510 0.054902 0.141176
0.298039 0.047059 0.137255
