doc/3DLUTs/NightFromDay.CUBE
#Created by: Adobe Photoshop CS6
#Copyright: Copyright 2012 Adobe Systems Inc.
TITLE "Night from Day"
#LUT size
LUT_3D_SIZE 5
#data domain
DOMAIN_MIN 0.0 0.0 0.0
DOMAIN_MAX 1.0 1.0 1.0
#LUT data points
0.000000 0.000000 0.000000
0.094118 0.000000 0.031373
0.188235 0.027451 0.031373
0.282353 0.050980 0.070588
0.376471 0.062745 0.098039
0.000000 0.101961 0.043137
0.094118 0.094118 0.047059
0.184314 0.094118 0.058824
0.278431 0.101961 0.082353
0.376471 0.113725 0.117647
0.015686 0.188235 0.105882
0.082353 0.188235 0.105882
0.176471 0.188235 0.113725
0.278431 0.196078 0.133333
0.384314 0.203922 0.152941
0.039216 0.298039 0.172549
0.098039 0.298039 0.176471
0.192157 0.301961 0.188235
0.294118 0.305882 0.200000
0.403922 0.321569 0.219608
0.109804 0.443137 0.278431
0.149020 0.443137 0.282353
0.223529 0.443137 0.282353
0.341176 0.458824 0.309804
0.462745 0.482353 0.337255
0.000000 0.003922 0.133333
0.082353 0.000000 0.149020
0.176471 0.035294 0.152941
0.270588 0.062745 0.172549
0.368627 0.066667 0.180392
0.000000 0.098039 0.141176
0.062745 0.094118 0.152941
0.168627 0.098039 0.160784
0.270588 0.098039 0.172549
0.368627 0.117647 0.188235
0.000000 0.188235 0.176471
0.039216 0.188235 0.168627
0.176471 0.192157 0.188235
0.274510 0.196078 0.196078
0.376471 0.207843 0.219608
0.000000 0.298039 0.227451
0.027451 0.301961 0.227451
0.184314 0.301961 0.231373
0.290196 0.305882 0.250980
0.400000 0.321569 0.270588
0.011765 0.443137 0.317647
0.101961 0.447059 0.317647
0.219608 0.450980 0.329412
0.329412 0.458824 0.345098
0.466667 0.482353 0.380392
0.000000 0.003922 0.254902
0.011765 0.019608 0.262745
0.141176 0.043137 0.270588
0.250980 0.058824 0.274510
0.352941 0.070588 0.298039
0.000000 0.098039 0.266667
0.000000 0.101961 0.266667
0.141176 0.098039 0.270588
0.250980 0.109804 0.282353
0.352941 0.121569 0.301961
0.000000 0.188235 0.278431
0.000000 0.192157 0.282353
0.133333 0.192157 0.294118
0.243137 0.200000 0.313726
0.368627 0.211765 0.325490
0.000000 0.298039 0.321569
0.000000 0.298039 0.325490
0.137255 0.305882 0.333333
0.266667 0.313726 0.349020
0.384314 0.325490 0.368627
0.000000 0.447059 0.407843
0.015686 0.447059 0.407843
0.172549 0.450980 0.415686
0.317647 0.462745 0.431373
0.443137 0.482353 0.458824
0.000000 0.035294 0.384314
0.000000 0.050980 0.388235
0.062745 0.062745 0.396078
0.227451 0.066667 0.392157
0.329412 0.090196 0.411765
0.000000 0.105882 0.392157
0.000000 0.105882 0.396078
0.039216 0.109804 0.392157
0.219608 0.113725 0.400000
0.333333 0.125490 0.411765
0.000000 0.192157 0.403922
0.000000 0.192157 0.407843
0.011765 0.196078 0.411765
0.219608 0.203922 0.431373
0.345098 0.215686 0.443137
0.000000 0.301961 0.435294
0.000000 0.301961 0.439216
0.039216 0.309804 0.443137
0.227451 0.313726 0.466667
0.352941 0.329412 0.486275
0.000000 0.450980 0.517647
0.000000 0.450980 0.521569
0.101961 0.450980 0.525490
0.274510 0.470588 0.552941
0.411765 0.486275 0.576471
0.000000 0.058824 0.505882
0.000000 0.070588 0.509804
0.000000 0.078431 0.513726
0.152941 0.082353 0.521569
0.301961 0.109804 0.537255
0.000000 0.113725 0.509804
0.000000 0.113725 0.505882
0.000000 0.121569 0.517647
0.160784 0.125490 0.529412
0.301961 0.141176 0.545098
0.000000 0.200000 0.529412
0.000000 0.200000 0.529412
0.000000 0.200000 0.525490
0.141176 0.211765 0.549020
0.309804 0.223529 0.568627
0.000000 0.313726 0.572549
0.000000 0.309804 0.568627
0.000000 0.313726 0.576471
0.133333 0.325490 0.596078
0.325490 0.345098 0.615686
0.000000 0.458824 0.635294
0.000000 0.454902 0.631373
0.000000 0.462745 0.647059
0.219608 0.478431 0.662745
0.384314 0.498039 0.698039
