doc/3DLUTs/NightFromDay.CUBE
#Created by: Adobe Photoshop CS6
#Copyright: Copyright 2012 Adobe Systems Inc.
TITLE "Night from Day"
#LUT size
LUT_3D_SIZE 9
#data domain
DOMAIN_MIN 0.0 0.0 0.0
DOMAIN_MAX 1.0 1.0 1.0
#LUT data points
0.000000 0.000000 0.000000
0.039216 0.000000 0.011765
0.094118 0.000000 0.031373
0.149020 0.011765 0.031373
0.188235 0.027451 0.031373
0.239216 0.039216 0.050980
0.282353 0.050980 0.070588
0.329412 0.058824 0.090196
0.376471 0.062745 0.098039
0.000000 0.039216 0.019608
0.035294 0.031373 0.023529
0.101961 0.043137 0.023529
0.149020 0.047059 0.027451
0.188235 0.054902 0.035294
0.231373 0.058824 0.054902
0.278431 0.066667 0.078431
0.325490 0.074510 0.094118
0.376471 0.082353 0.101961
0.000000 0.101961 0.043137
0.023529 0.094118 0.035294
0.094118 0.094118 0.047059
0.137255 0.098039 0.050980
0.184314 0.094118 0.058824
0.231373 0.098039 0.070588
0.278431 0.101961 0.082353
0.329412 0.113725 0.094118
0.376471 0.113725 0.117647
0.007843 0.141176 0.070588
0.039216 0.141176 0.074510
0.086275 0.137255 0.074510
0.137255 0.141176 0.082353
0.176471 0.137255 0.086275
0.227451 0.137255 0.090196
0.278431 0.149020 0.105882
0.329412 0.149020 0.117647
0.384314 0.160784 0.133333
0.015686 0.188235 0.105882
0.031373 0.188235 0.101961
0.082353 0.188235 0.105882
0.133333 0.188235 0.109804
0.176471 0.188235 0.113725
0.231373 0.188235 0.121569
0.278431 0.196078 0.133333
0.329412 0.200000 0.141176
0.384314 0.203922 0.152941
0.007843 0.235294 0.133333
0.047059 0.235294 0.137255
0.078431 0.235294 0.129412
0.137255 0.239216 0.145098
0.184314 0.239216 0.137255
0.235294 0.243137 0.152941
0.282353 0.247059 0.160784
0.337255 0.254902 0.176471
0.396078 0.266667 0.188235
0.039216 0.298039 0.172549
0.039216 0.298039 0.172549
0.098039 0.298039 0.176471
0.137255 0.298039 0.176471
0.192157 0.301961 0.188235
0.247059 0.301961 0.188235
0.294118 0.305882 0.200000
0.349020 0.317647 0.211765
0.403922 0.321569 0.219608
0.043137 0.360784 0.219608
0.070588 0.360784 0.219608
0.113725 0.364706 0.227451
0.156863 0.360784 0.223529
0.200000 0.368627 0.235294
0.254902 0.368627 0.235294
0.317647 0.376471 0.247059
0.368627 0.384314 0.258824
0.435294 0.400000 0.278431
0.109804 0.443137 0.278431
0.105882 0.443137 0.278431
0.149020 0.443137 0.282353
0.188235 0.447059 0.282353
0.223529 0.443137 0.282353
0.286275 0.447059 0.286275
0.341176 0.458824 0.309804
0.392157 0.470588 0.317647
0.462745 0.482353 0.337255
0.000000 0.000000 0.066667
0.031373 0.000000 0.062745
0.094118 0.000000 0.086275
0.149020 0.019608 0.094118
0.180392 0.031373 0.098039
0.235294 0.035294 0.105882
0.274510 0.050980 0.113725
0.325490 0.058824 0.121569
0.376471 0.062745 0.125490
0.000000 0.039216 0.078431
0.019608 0.039216 0.082353
0.086275 0.043137 0.090196
0.141176 0.054902 0.094118
0.184314 0.058824 0.098039
0.235294 0.062745 0.105882
0.274510 0.070588 0.117647
0.325490 0.066667 0.117647
0.372549 0.086275 0.137255
0.000000 0.101961 0.098039
0.000000 0.101961 0.101961
0.082353 0.090196 0.094118
0.133333 0.098039 0.101961
0.180392 0.098039 0.105882
0.223529 0.094118 0.105882
0.274510 0.101961 0.121569
0.325490 0.113725 0.137255
0.372549 0.113725 0.137255
0.000000 0.145098 0.113725
0.015686 0.149020 0.109804
0.074510 0.141176 0.109804
0.129412 0.141176 0.121569
0.176471 0.145098 0.117647
0.227451 0.141176 0.121569
0.274510 0.149020 0.129412
0.325490 0.149020 0.137255
0.376471 0.156863 0.152941
0.000000 0.188235 0.137255
0.000000 0.188235 0.133333
0.070588 0.188235 0.129412
0.125490 0.184314 0.133333
0.176471 0.184314 0.141176
0.227451 0.188235 0.145098
0.270588 0.192157 0.149020
0.333333 0.200000 0.160784
0.384314 0.207843 0.180392
0.000000 0.243137 0.156863
0.011765 0.239216 0.156863
0.062745 0.235294 0.156863
0.133333 0.239216 0.160784
0.184314 0.243137 0.164706
0.231373 0.243137 0.168627
0.282353 0.250980 0.184314
0.337255 0.250980 0.188235
0.396078 0.266667 0.207843
0.000000 0.301961 0.192157
0.007843 0.301961 0.200000
0.086275 0.294118 0.188235
0.129412 0.298039 0.196078
0.188235 0.298039 0.196078
0.235294 0.305882 0.211765
0.294118 0.309804 0.211765
0.341176 0.313726 0.227451
0.396078 0.321569 0.235294
0.003922 0.364706 0.227451
0.062745 0.360784 0.227451
0.101961 0.360784 0.239216
0.156863 0.368627 0.239216
0.196078 0.364706 0.239216
0.254902 0.372549 0.254902
0.313726 0.380392 0.266667
0.372549 0.384314 0.278431
0.431373 0.400000 0.290196
0.098039 0.447059 0.294118
0.121569 0.447059 0.294118
0.141176 0.447059 0.298039
0.176471 0.443137 0.290196
0.231373 0.447059 0.301961
0.278431 0.447059 0.301961
0.341176 0.462745 0.321569
0.396078 0.466667 0.321569
0.466667 0.482353 0.349020
0.000000 0.003922 0.133333
0.011765 0.003922 0.137255
0.082353 0.000000 0.149020
0.137255 0.023529 0.152941
0.176471 0.035294 0.152941
0.231373 0.043137 0.160784
0.270588 0.062745 0.172549
0.317647 0.062745 0.172549
0.368627 0.066667 0.180392
0.000000 0.035294 0.141176
0.000000 0.043137 0.149020
0.082353 0.043137 0.149020
0.125490 0.050980 0.149020
0.172549 0.062745 0.156863
0.223529 0.062745 0.164706
0.270588 0.066667 0.164706
0.321569 0.078431 0.176471
0.368627 0.086275 0.180392
0.000000 0.098039 0.141176
0.003922 0.098039 0.149020
0.062745 0.094118 0.152941
0.117647 0.098039 0.160784
0.168627 0.098039 0.160784
0.219608 0.098039 0.168627
0.270588 0.098039 0.172549
0.321569 0.109804 0.184314
0.368627 0.117647 0.188235
0.000000 0.141176 0.156863
0.000000 0.141176 0.164706
0.050980 0.141176 0.160784
0.117647 0.137255 0.160784
0.164706 0.141176 0.164706
0.219608 0.149020 0.176471
0.270588 0.149020 0.188235
0.317647 0.152941 0.192157
0.376471 0.164706 0.207843
0.000000 0.188235 0.176471
0.000000 0.188235 0.176471
0.039216 0.188235 0.168627
0.113725 0.184314 0.176471
0.176471 0.192157 0.188235
0.219608 0.192157 0.184314
0.274510 0.196078 0.196078
0.325490 0.200000 0.200000
0.376471 0.207843 0.219608
0.000000 0.239216 0.188235
0.000000 0.239216 0.192157
0.023529 0.239216 0.200000
0.113725 0.239216 0.196078
0.176471 0.243137 0.207843
0.219608 0.243137 0.211765
0.282353 0.254902 0.215686
0.329412 0.254902 0.223529
0.388235 0.266667 0.235294
0.000000 0.298039 0.227451
0.000000 0.298039 0.231373
0.027451 0.301961 0.227451
0.125490 0.301961 0.227451
0.184314 0.301961 0.231373
0.231373 0.301961 0.239216
0.290196 0.305882 0.250980
0.333333 0.313726 0.258824
0.400000 0.321569 0.270588
0.000000 0.364706 0.262745
0.019608 0.364706 0.262745
0.066667 0.360784 0.270588
0.137255 0.368627 0.266667
0.188235 0.368627 0.278431
0.250980 0.372549 0.286275
0.313726 0.376471 0.294118
0.368627 0.384314 0.305882
0.423529 0.396078 0.313726
0.011765 0.443137 0.317647
0.054902 0.443137 0.317647
0.101961 0.447059 0.317647
0.172549 0.443137 0.317647
0.219608 0.450980 0.329412
0.282353 0.450980 0.329412
0.329412 0.458824 0.345098
0.388235 0.466667 0.356863
0.466667 0.482353 0.380392
0.000000 0.003922 0.196078
0.000000 0.007843 0.203922
0.066667 0.011765 0.207843
0.117647 0.027451 0.207843
0.164706 0.039216 0.215686
0.215686 0.047059 0.211765
0.262745 0.058824 0.223529
0.313726 0.062745 0.235294
0.360784 0.074510 0.247059
0.000000 0.047059 0.207843
0.000000 0.043137 0.211765
0.047059 0.050980 0.211765
0.113725 0.058824 0.215686
0.164706 0.062745 0.215686
0.211765 0.070588 0.223529
0.266667 0.070588 0.231373
0.309804 0.078431 0.231373
0.356863 0.094118 0.243137
0.000000 0.098039 0.215686
0.000000 0.101961 0.211765
0.023529 0.101961 0.215686
0.098039 0.098039 0.215686
0.156863 0.101961 0.219608
0.207843 0.101961 0.227451
0.262745 0.105882 0.227451
0.313726 0.109804 0.239216
0.368627 0.117647 0.247059
0.000000 0.145098 0.215686
0.000000 0.141176 0.211765
0.031373 0.141176 0.211765
0.098039 0.145098 0.223529
0.145098 0.145098 0.227451
0.203922 0.145098 0.235294
0.262745 0.149020 0.239216
0.313726 0.152941 0.243137
0.368627 0.168627 0.254902
0.000000 0.188235 0.227451
0.000000 0.192157 0.231373
0.011765 0.192157 0.231373
0.090196 0.188235 0.235294
0.156863 0.192157 0.239216
0.203922 0.192157 0.243137
0.262745 0.196078 0.247059
0.309804 0.200000 0.258824
0.364706 0.207843 0.270588
0.000000 0.239216 0.247059
0.000000 0.239216 0.247059
0.000000 0.239216 0.247059
0.070588 0.247059 0.254902
0.160784 0.247059 0.258824
0.215686 0.243137 0.262745
0.266667 0.247059 0.266667
0.321569 0.258824 0.274510
0.380392 0.262745 0.290196
0.000000 0.298039 0.270588
0.000000 0.298039 0.270588
0.000000 0.298039 0.270588
0.074510 0.301961 0.286275
0.160784 0.305882 0.282353
0.223529 0.301961 0.282353
0.278431 0.309804 0.294118
0.329412 0.317647 0.305882
0.388235 0.321569 0.313726
0.000000 0.364706 0.313726
0.000000 0.364706 0.313726
0.000000 0.364706 0.309804
0.101961 0.372549 0.313726
0.180392 0.372549 0.321569
0.239216 0.368627 0.321569
0.294118 0.376471 0.329412
0.352941 0.384314 0.341176
0.411765 0.400000 0.360784
0.000000 0.447059 0.360784
0.027451 0.447059 0.352941
0.066667 0.447059 0.356863
0.137255 0.450980 0.368627
0.207843 0.447059 0.368627
0.266667 0.458824 0.376471
0.333333 0.466667 0.388235
0.392157 0.474510 0.400000
0.458824 0.482353 0.411765
0.000000 0.003922 0.254902
0.000000 0.015686 0.270588
0.011765 0.019608 0.262745
0.086275 0.031373 0.270588
0.141176 0.043137 0.270588
0.203922 0.054902 0.274510
0.250980 0.058824 0.274510
0.298039 0.070588 0.286275
0.352941 0.070588 0.298039
0.000000 0.047059 0.266667
0.000000 0.047059 0.270588
0.000000 0.058824 0.266667
0.082353 0.066667 0.270588
0.141176 0.062745 0.270588
0.200000 0.066667 0.274510
0.247059 0.074510 0.278431
0.305882 0.082353 0.282353
0.352941 0.094118 0.298039
0.000000 0.098039 0.266667
0.000000 0.101961 0.274510
0.000000 0.101961 0.266667
0.074510 0.101961 0.274510
0.141176 0.098039 0.270588
0.200000 0.098039 0.270588
0.250980 0.109804 0.282353
0.301961 0.117647 0.294118
0.352941 0.121569 0.301961
0.000000 0.145098 0.274510
0.000000 0.145098 0.278431
0.000000 0.145098 0.278431
0.043137 0.149020 0.282353
0.141176 0.145098 0.278431
0.192157 0.145098 0.290196
0.250980 0.149020 0.294118
0.298039 0.152941 0.301961
0.360784 0.160784 0.313726
0.000000 0.188235 0.278431
0.000000 0.192157 0.282353
0.000000 0.192157 0.282353
0.062745 0.192157 0.286275
0.133333 0.192157 0.294118
0.184314 0.192157 0.298039
0.243137 0.200000 0.313726
0.305882 0.207843 0.321569
0.368627 0.211765 0.325490
0.000000 0.239216 0.298039
0.000000 0.239216 0.298039
0.000000 0.247059 0.309804
0.039216 0.243137 0.309804
0.129412 0.243137 0.309804
0.196078 0.243137 0.317647
0.247059 0.250980 0.321569
0.321569 0.254902 0.325490
0.372549 0.266667 0.349020
0.000000 0.298039 0.321569
0.000000 0.301961 0.325490
0.000000 0.298039 0.325490
0.050980 0.305882 0.333333
0.137255 0.305882 0.333333
0.207843 0.305882 0.337255
0.266667 0.313726 0.349020
0.325490 0.313726 0.349020
0.384314 0.325490 0.368627
0.000000 0.364706 0.356863
0.000000 0.364706 0.360784
0.000000 0.364706 0.356863
0.070588 0.368627 0.364706
0.133333 0.368627 0.368627
0.227451 0.372549 0.368627
0.278431 0.380392 0.384314
0.349020 0.392157 0.396078
0.407843 0.400000 0.411765
0.000000 0.447059 0.407843
0.000000 0.447059 0.400000
0.015686 0.447059 0.407843
0.098039 0.447059 0.415686
0.172549 0.450980 0.415686
0.247059 0.458824 0.431373
0.317647 0.462745 0.431373
0.380392 0.470588 0.443137
0.443137 0.482353 0.458824
0.000000 0.019608 0.325490
0.000000 0.031373 0.333333
0.000000 0.039216 0.329412
0.031373 0.043137 0.325490
0.125490 0.047059 0.325490
0.184314 0.062745 0.337255
0.239216 0.066667 0.341176
0.290196 0.078431 0.352941
0.349020 0.090196 0.352941
0.000000 0.054902 0.325490
0.000000 0.062745 0.333333
0.000000 0.066667 0.329412
0.043137 0.066667 0.329412
0.117647 0.070588 0.329412
0.176471 0.074510 0.337255
0.243137 0.082353 0.345098
0.294118 0.082353 0.341176
0.345098 0.094118 0.352941
0.000000 0.101961 0.329412
0.000000 0.105882 0.333333
0.000000 0.101961 0.333333
0.007843 0.101961 0.333333
0.101961 0.105882 0.333333
0.176471 0.105882 0.337255
0.239216 0.109804 0.341176
0.298039 0.113725 0.345098
0.349020 0.129412 0.364706
0.000000 0.141176 0.333333
0.000000 0.145098 0.337255
0.000000 0.145098 0.337255
0.000000 0.149020 0.337255
0.090196 0.152941 0.345098
0.168627 0.149020 0.345098
0.235294 0.152941 0.349020
0.290196 0.156863 0.360784
0.349020 0.168627 0.364706
0.000000 0.192157 0.349020
0.000000 0.188235 0.341176
0.000000 0.196078 0.352941
0.000000 0.192157 0.349020
0.090196 0.196078 0.349020
0.164706 0.192157 0.352941
0.235294 0.196078 0.360784
0.298039 0.203922 0.368627
0.349020 0.207843 0.380392
0.000000 0.243137 0.352941
0.000000 0.247059 0.356863
0.000000 0.247059 0.360784
0.000000 0.243137 0.356863
0.098039 0.247059 0.372549
0.168627 0.247059 0.372549
0.235294 0.254902 0.388235
0.294118 0.262745 0.396078
0.364706 0.266667 0.403922
0.000000 0.301961 0.388235
0.000000 0.301961 0.384314
0.000000 0.301961 0.384314
0.000000 0.305882 0.396078
0.098039 0.305882 0.392157
0.184314 0.309804 0.400000
0.254902 0.313726 0.407843
0.305882 0.321569 0.419608
0.368627 0.329412 0.423529
0.000000 0.364706 0.415686
0.000000 0.364706 0.419608
0.000000 0.364706 0.415686
0.011765 0.372549 0.419608
0.101961 0.368627 0.419608
0.203922 0.384314 0.435294
0.270588 0.384314 0.443137
0.333333 0.396078 0.454902
0.396078 0.403922 0.462745
0.000000 0.443137 0.458824
0.000000 0.450980 0.458824
0.000000 0.450980 0.462745
0.047059 0.450980 0.470588
0.156863 0.454902 0.466667
0.215686 0.462745 0.478431
0.294118 0.466667 0.478431
0.368627 0.474510 0.498039
0.431373 0.486275 0.513726
0.000000 0.035294 0.384314
0.000000 0.043137 0.388235
0.000000 0.050980 0.388235
0.000000 0.054902 0.392157
0.062745 0.062745 0.396078
0.152941 0.062745 0.392157
0.227451 0.066667 0.392157
0.282353 0.074510 0.400000
0.329412 0.090196 0.411765
0.000000 0.066667 0.388235
0.000000 0.066667 0.384314
0.000000 0.070588 0.388235
0.000000 0.070588 0.392157
0.078431 0.078431 0.396078
0.160784 0.082353 0.400000
0.219608 0.086275 0.403922
0.278431 0.094118 0.407843
0.333333 0.101961 0.411765
0.000000 0.105882 0.392157
0.000000 0.105882 0.396078
0.000000 0.105882 0.396078
0.000000 0.109804 0.400000
0.039216 0.109804 0.392157
0.149020 0.113725 0.403922
0.219608 0.113725 0.400000
0.282353 0.117647 0.411765
0.333333 0.125490 0.411765
0.000000 0.149020 0.396078
0.000000 0.152941 0.403922
0.000000 0.145098 0.392157
0.000000 0.145098 0.392157
0.047059 0.149020 0.400000
0.141176 0.152941 0.403922
0.211765 0.152941 0.411765
0.278431 0.164706 0.415686
0.337255 0.164706 0.427451
0.000000 0.192157 0.403922
0.000000 0.192157 0.403922
0.000000 0.192157 0.407843
0.000000 0.192157 0.403922
0.011765 0.196078 0.411765
0.133333 0.196078 0.411765
0.219608 0.203922 0.431373
0.278431 0.203922 0.423529
0.345098 0.215686 0.443137
0.000000 0.247059 0.415686
0.000000 0.247059 0.423529
0.000000 0.247059 0.423529
0.000000 0.247059 0.427451
0.015686 0.247059 0.427451
0.133333 0.250980 0.427451
0.215686 0.254902 0.439216
0.286275 0.262745 0.450980
0.356863 0.270588 0.466667
0.000000 0.301961 0.435294
0.000000 0.301961 0.435294
0.000000 0.301961 0.439216
0.000000 0.309804 0.447059
0.039216 0.309804 0.443137
0.149020 0.309804 0.458824
0.227451 0.313726 0.466667
0.294118 0.325490 0.482353
0.352941 0.329412 0.486275
0.000000 0.368627 0.470588
0.000000 0.368627 0.474510
0.000000 0.372549 0.478431
0.000000 0.372549 0.486275
0.066667 0.376471 0.486275
0.160784 0.388235 0.498039
0.235294 0.388235 0.494118
0.329412 0.400000 0.517647
0.380392 0.407843 0.525490
0.000000 0.450980 0.517647
0.000000 0.450980 0.517647
0.000000 0.450980 0.521569
0.000000 0.450980 0.525490
0.101961 0.450980 0.525490
0.192157 0.462745 0.533333
0.274510 0.470588 0.552941
0.352941 0.478431 0.556863
0.411765 0.486275 0.576471
0.000000 0.050980 0.447059
0.000000 0.054902 0.443137
0.000000 0.058824 0.443137
0.000000 0.062745 0.454902
0.000000 0.066667 0.447059
0.117647 0.074510 0.454902
0.192157 0.078431 0.458824
0.262745 0.082353 0.462745
0.317647 0.098039 0.474510
0.000000 0.074510 0.450980
0.000000 0.074510 0.447059
0.000000 0.078431 0.447059
0.000000 0.078431 0.450980
0.000000 0.078431 0.447059
0.109804 0.094118 0.462745
0.200000 0.090196 0.462745
0.266667 0.098039 0.470588
0.321569 0.109804 0.474510
0.000000 0.109804 0.450980
0.000000 0.105882 0.450980
0.000000 0.109804 0.447059
0.000000 0.113725 0.454902
0.000000 0.117647 0.458824
0.109804 0.117647 0.458824
0.192157 0.125490 0.466667
0.258824 0.125490 0.470588
0.321569 0.137255 0.482353
0.000000 0.152941 0.454902
0.000000 0.156863 0.462745
0.000000 0.149020 0.447059
0.000000 0.152941 0.458824
0.000000 0.152941 0.462745
0.090196 0.156863 0.466667
0.192157 0.160784 0.470588
0.258824 0.164706 0.474510
0.325490 0.172549 0.490196
0.000000 0.196078 0.466667
0.000000 0.196078 0.470588
0.000000 0.196078 0.466667
0.000000 0.200000 0.470588
0.000000 0.200000 0.474510
0.090196 0.207843 0.482353
0.176471 0.211765 0.486275
0.254902 0.211765 0.486275
0.325490 0.219608 0.505882
0.000000 0.247059 0.478431
0.000000 0.247059 0.478431
0.000000 0.250980 0.486275
0.000000 0.250980 0.494118
0.000000 0.250980 0.486275
0.082353 0.262745 0.494118
0.184314 0.266667 0.505882
0.266667 0.262745 0.509804
0.333333 0.274510 0.517647
0.000000 0.301961 0.494118
0.000000 0.305882 0.501961
0.000000 0.305882 0.498039
0.000000 0.313726 0.509804
0.000000 0.309804 0.509804
0.101961 0.317647 0.521569
0.184314 0.317647 0.525490
0.266667 0.329412 0.537255
0.352941 0.337255 0.552941
0.000000 0.368627 0.529412
0.000000 0.372549 0.537255
0.000000 0.372549 0.533333
0.000000 0.372549 0.533333
0.000000 0.376471 0.537255
0.129412 0.388235 0.549020
0.227451 0.392157 0.552941
0.301961 0.403922 0.576471
0.372549 0.411765 0.596078
0.000000 0.447059 0.576471
0.000000 0.454902 0.576471
0.000000 0.450980 0.576471
0.000000 0.458824 0.584314
0.000000 0.462745 0.596078
0.172549 0.470588 0.603922
0.254902 0.474510 0.611765
0.321569 0.482353 0.619608
0.407843 0.490196 0.631373
0.000000 0.058824 0.505882
0.000000 0.066667 0.505882
0.000000 0.070588 0.509804
0.000000 0.066667 0.509804
0.000000 0.078431 0.513726
0.019608 0.078431 0.513726
0.152941 0.082353 0.521569
0.235294 0.094118 0.529412
0.301961 0.109804 0.537255
0.000000 0.082353 0.509804
0.000000 0.086275 0.517647
0.000000 0.086275 0.513726
0.000000 0.086275 0.513726
0.000000 0.090196 0.509804
0.027451 0.101961 0.521569
0.160784 0.098039 0.517647
0.235294 0.101961 0.525490
0.298039 0.109804 0.533333
0.000000 0.113725 0.509804
0.000000 0.113725 0.509804
0.000000 0.113725 0.505882
0.000000 0.113725 0.513726
0.000000 0.121569 0.517647
0.007843 0.125490 0.525490
0.160784 0.125490 0.529412
0.239216 0.129412 0.525490
0.301961 0.141176 0.545098
0.000000 0.152941 0.513726
0.000000 0.156863 0.517647
0.000000 0.152941 0.521569
0.000000 0.156863 0.521569
0.000000 0.156863 0.525490
0.000000 0.160784 0.529412
0.145098 0.160784 0.521569
0.239216 0.168627 0.537255
0.305882 0.184314 0.552941
0.000000 0.200000 0.529412
0.000000 0.203922 0.529412
0.000000 0.200000 0.529412
0.000000 0.196078 0.521569
0.000000 0.200000 0.525490
0.000000 0.203922 0.533333
0.141176 0.211765 0.549020
0.239216 0.215686 0.552941
0.309804 0.223529 0.568627
0.000000 0.250980 0.545098
0.000000 0.247059 0.537255
0.000000 0.250980 0.541176
0.000000 0.254902 0.549020
0.000000 0.254902 0.552941
0.000000 0.262745 0.556863
0.141176 0.262745 0.560784
0.235294 0.274510 0.580392
0.313726 0.278431 0.580392
0.000000 0.313726 0.572549
0.000000 0.309804 0.564706
0.000000 0.309804 0.568627
0.000000 0.313726 0.568627
0.000000 0.313726 0.576471
0.019608 0.313726 0.576471
0.133333 0.325490 0.596078
0.239216 0.329412 0.600000
0.325490 0.345098 0.615686
0.000000 0.372549 0.588235
0.000000 0.372549 0.588235
0.000000 0.372549 0.592157
0.000000 0.376471 0.600000
0.000000 0.384314 0.603922
0.070588 0.392157 0.615686
0.184314 0.400000 0.631373
0.262745 0.407843 0.643137
0.349020 0.419608 0.654902
0.000000 0.458824 0.635294
0.000000 0.458824 0.635294
0.000000 0.454902 0.631373
0.000000 0.458824 0.643137
0.000000 0.462745 0.647059
0.125490 0.466667 0.650980
0.219608 0.478431 0.662745
0.309804 0.486275 0.678431
0.384314 0.498039 0.698039
