doc/3DLUTs/TealOrangePlusContrast.3DL
#Created by: Adobe Photoshop CS6
#Copyright: Copyright 2012 Adobe Systems Inc.
0 64 128 192 256 320 384 448 512 575 639 703 767 831 895 959 1023
0 32 337
0 64 369
0 64 498
0 80 658
0 96 835
0 145 1028
0 209 1220
0 305 1365
0 369 1493
0 466 1654
0 578 1815
0 658 1991
0 723 2168
0 835 2377
0 915 2537
0 1060 2778
0 1172 2987
0 80 273
0 112 353
0 96 401
0 96 498
0 161 691
0 225 867
0 305 1028
0 353 1172
0 450 1381
0 530 1542
0 610 1734
0 691 1927
0 771 2136
0 867 2329
0 980 2537
0 1076 2730
0 1220 3003
0 257 241
0 273 353
0 257 401
0 305 530
0 321 498
0 385 658
0 434 835
0 482 1044
0 530 1220
0 610 1413
0 674 1622
0 787 1847
0 867 2023
0 964 2248
0 1060 2489
0 1156 2714
0 1285 2907
0 482 64
0 466 353
0 466 498
0 450 482
0 466 610
0 530 674
0 594 723
0 642 883
0 691 1092
0 755 1301
0 819 1493
0 899 1734
0 1012 1959
0 1092 2184
0 1172 2393
0 1301 2650
0 1413 2891
0 658 0
0 658 353
0 658 578
0 658 707
0 658 691
0 642 755
0 723 899
0 787 899
0 835 980
0 915 1237
0 996 1445
0 1076 1670
0 1124 1863
0 1253 2120
0 1333 2345
0 1413 2553
0 1558 2810
0 931 128
0 883 401
0 915 642
0 931 835
0 915 947
0 947 964
0 931 947
0 996 1156
0 1044 1188
0 1108 1204
0 1204 1397
0 1269 1606
0 1349 1831
0 1445 2039
0 1542 2296
0 1654 2537
0 1734 2778
0 1220 177
0 1204 466
0 1188 771
0 1204 947
0 1220 1092
0 1237 1269
0 1237 1220
0 1269 1156
0 1333 1526
0 1365 1526
0 1445 1542
0 1493 1542
0 1606 1799
0 1686 2039
0 1783 2264
0 1863 2489
0 1975 2730
0 1558 145
0 1574 530
0 1558 851
0 1590 1156
0 1574 1285
0 1574 1429
0 1590 1606
0 1590 1542
0 1574 1429
0 1654 1783
0 1734 1911
0 1799 1911
0 1895 1959
0 1943 2007
0 2039 2232
0 2152 2473
0 2232 2698
0 1911 562
0 1895 723
0 1911 1028
0 1927 1285
0 1911 1445
0 1911 1638
0 1927 1815
0 1911 1927
0 1943 1863
594 1959 1734
32 1991 2023
0 2088 2232
0 2152 2248
0 2264 2329
0 2296 2296
0 2377 2457
0 2489 2698
0 2248 691
0 2248 851
0 2264 1124
0 2264 1429
0 2264 1638
0 2264 1847
0 2264 1959
0 2296 2168
0 2280 2248
626 2312 2152
1028 2329 2056
1124 2361 2280
0 2425 2602
0 2537 2650
0 2602 2666
0 2714 2714
0 2778 2714
418 2682 819
642 2682 1060
626 2682 1237
562 2682 1558
434 2650 1815
498 2650 2023
418 2634 2136
418 2682 2345
578 2650 2457
771 2682 2618
1172 2666 2489
1413 2682 2377
1574 2698 2537
883 2794 2987
0 2842 2955
0 2923 3003
0 3019 3019
931 3019 931
996 3003 1172
980 3019 1397
996 2987 1574
964 3035 1959
899 3003 2200
915 3003 2361
931 3003 2505
771 2987 2666
1012 3019 2875
1124 3003 2891
1493 3019 2794
1766 3019 2666
1927 3019 2794
1381 3083 3212
996 3180 3324
0 3244 3324
1172 3324 915
1220 3308 1220
1253 3292 1429
1220 3292 1686
1269 3308 2023
1172 3292 2232
1140 3324 2537
1140 3308 2682
1124 3324 2842
1237 3340 3019
1269 3324 3196
1493 3324 3228
1783 3292 3067
2039 3292 2939
2136 3324 3035
1895 3372 3437
1301 3437 3629
1349 3613 1012
1510 3597 1365
1558 3613 1542
1445 3581 1815
1477 3597 2120
1461 3581 2329
1349 3597 2634
1429 3597 2826
1429 3597 2939
1445 3597 3083
1477 3565 3260
1510 3597 3453
1718 3597 3485
1991 3597 3372
2200 3565 3196
2393 3565 3212
2280 3629 3581
1638 3870 1220
1654 3854 1381
1654 3854 1622
1686 3854 1847
1638 3838 2120
1622 3838 2377
1606 3838 2650
1590 3822 2875
1622 3838 3051
1622 3822 3196
1590 3854 3388
1670 3838 3549
1670 3838 3710
1911 3822 3645
2184 3822 3565
2441 3822 3437
2602 3806 3404
1734 4095 1237
1799 4079 1461
1815 4063 1622
1799 4063 1847
1799 4047 2120
1847 4047 2441
1815 4047 2650
1799 4063 2923
1734 4063 3115
1750 4047 3276
1783 4031 3404
1783 4047 3597
1766 4031 3758
1750 4015 3902
2023 4015 3870
2248 3999 3710
2553 3983 3581
1766 4095 1188
1831 4095 1429
1879 4095 1477
1831 4095 1783
1863 4095 2104
1847 4095 2409
1847 4095 2698
1799 4095 2891
1750 4095 3131
1718 4095 3308
1718 4095 3469
1831 4095 3597
1734 4095 3806
1863 4095 3967
1847 4095 4095
2120 4095 4015
2329 4095 3854
128 0 289
0 16 434
0 64 546
0 80 691
0 145 899
0 161 1108
0 257 1253
0 321 1381
0 418 1526
0 498 1670
0 562 1799
0 674 2023
0 739 2184
0 851 2377
0 947 2569
0 1092 2778
0 1172 3003
0 48 80
0 64 321
0 96 418
0 161 578
0 177 723
0 257 915
0 321 1076
0 385 1220
0 482 1381
0 546 1558
0 626 1734
0 674 1911
0 787 2136
0 899 2345
0 1012 2553
0 1092 2730
0 1237 2971
0 241 0
0 257 241
0 273 385
0 321 450
0 353 546
0 401 723
0 466 883
0 514 1092
0 562 1237
0 642 1413
0 691 1638
0 787 1831
0 867 2056
0 964 2248
0 1060 2489
0 1188 2714
0 1285 2907
0 482 0
0 466 145
0 466 434
0 450 498
0 482 610
0 546 642
0 594 739
0 658 931
0 723 1140
0 771 1333
0 851 1526
0 931 1799
0 1028 1975
0 1108 2216
0 1188 2409
0 1301 2634
0 1413 2907
0 658 0
0 658 289
0 658 530
0 658 674
0 642 674
0 674 771
0 723 851
0 771 851
0 867 1044
0 931 1269
0 996 1477
0 1092 1686
0 1124 1879
0 1269 2152
0 1349 2361
0 1445 2585
0 1558 2842
0 931 0
0 931 321
0 931 626
0 931 803
0 915 964
0 931 947
0 947 931
0 1028 1188
0 1060 1172
0 1140 1204
0 1204 1381
0 1269 1606
0 1381 1863
0 1477 2072
0 1558 2312
0 1654 2569
0 1766 2778
0 1220 0
0 1188 401
0 1220 723
0 1220 915
0 1237 1060
0 1220 1237
0 1237 1220
0 1269 1220
0 1317 1493
0 1365 1493
0 1445 1526
0 1526 1574
0 1606 1799
0 1686 2039
0 1799 2280
0 1895 2521
0 2007 2794
0 1574 48
0 1558 562
0 1558 803
0 1590 1108
0 1574 1285
0 1558 1413
0 1574 1590
0 1590 1526
209 1590 1413
0 1670 1783
0 1734 1863
0 1815 1911
0 1895 1975
0 1991 2072
0 2088 2296
0 2152 2473
0 2232 2698
0 1911 225
0 1927 658
0 1911 931
0 1911 1237
0 1911 1461
0 1911 1590
0 1879 1718
0 1943 1959
0 1943 1831
691 1959 1702
289 2007 2056
0 2088 2232
0 2168 2264
0 2264 2296
0 2329 2329
0 2361 2441
0 2489 2714
0 2296 482
0 2296 771
0 2280 1044
0 2280 1317
0 2280 1638
0 2264 1799
0 2280 1959
0 2280 2120
0 2296 2264
578 2312 2184
1092 2312 2023
1092 2361 2312
0 2425 2569
0 2537 2634
0 2634 2666
0 2698 2682
0 2778 2714
498 2698 755
707 2682 964
739 2666 1188
691 2666 1526
594 2650 1783
546 2650 1991
418 2650 2136
610 2666 2312
707 2682 2521
787 2682 2618
1204 2714 2521
1510 2666 2377
1622 2698 2537
915 2794 2955
305 2842 2971
0 2955 3035
0 3051 3051
947 3003 851
1060 3019 1028
996 3003 1349
1156 3035 1558
1076 3019 1895
1012 3003 2168
915 3003 2361
1028 3003 2521
947 3003 2666
1140 3019 2858
1253 3035 2939
1493 3019 2794
1750 3003 2666
1943 3003 2810
1510 3115 3228
867 3164 3308
0 3244 3324
1188 3324 883
1204 3308 1204
1253 3292 1429
1333 3308 1638
1285 3308 1991
1220 3276 2264
1220 3276 2441
1156 3324 2698
1285 3308 2794
1269 3308 2987
1269 3324 3196
1493 3324 3212
1783 3308 3067
2039 3292 2939
2184 3324 3051
1927 3372 3404
1285 3437 3613
1397 3597 1060
1477 3581 1220
1510 3581 1493
1526 3613 1750
1526 3613 2023
1461 3581 2329
1445 3597 2602
1477 3597 2762
1510 3597 2939
1413 3597 3115
1542 3565 3276
1574 3597 3453
1718 3597 3485
1975 3565 3356
2248 3565 3196
2393 3549 3212
2248 3613 3597
1654 3870 1220
1654 3854 1172
1654 3854 1590
1686 3838 1847
1670 3838 2056
1702 3838 2361
1670 3838 2666
1574 3822 2858
1622 3838 3051
1622 3822 3196
1670 3854 3388
1654 3838 3549
1750 3838 3726
1879 3822 3677
2184 3806 3549
2441 3822 3437
2634 3790 3404
1734 4079 1237
1799 4095 1301
1879 4079 1670
1815 4079 1863
1879 4063 2152
1831 4063 2377
1783 4063 2714
1734 4031 2971
1799 4047 3115
1750 4047 3260
1783 4047 3404
1750 4015 3581
1783 4031 3758
1766 4015 3918
2007 4015 3870
2248 3999 3726
2569 3999 3597
1766 4095 1204
1799 4095 1349
1879 4095 1477
1847 4095 1799
1863 4095 2104
1895 4095 2312
1863 4095 2666
1815 4095 2955
1750 4095 3148
1783 4095 3308
1799 4095 3469
1831 4095 3613
1831 4095 3774
1863 4095 3950
1911 4095 4095
2104 4095 4015
2393 4095 3870
369 0 321
128 0 546
0 0 594
0 112 707
0 145 883
0 193 1060
0 305 1220
0 353 1349
0 450 1510
0 514 1670
0 610 1815
0 691 2007
0 787 2200
0 851 2377
0 980 2602
0 1076 2794
0 1204 3051
241 16 0
241 0 337
0 80 466
0 209 626
0 257 819
0 321 964
0 385 1108
0 434 1269
0 498 1413
0 562 1574
0 658 1783
0 739 1943
0 819 2152
0 899 2361
0 1028 2569
0 1156 2826
0 1253 3003
96 225 0
96 225 0
0 241 353
0 337 466
0 401 610
0 450 771
0 514 947
0 530 1108
0 594 1317
0 658 1461
0 739 1686
0 803 1863
0 915 2104
0 996 2312
0 1124 2553
0 1220 2746
0 1333 2939
48 434 0
0 434 0
0 450 401
0 450 466
0 498 610
0 546 626
0 610 803
0 658 996
0 739 1172
0 787 1349
0 867 1590
0 947 1799
0 1044 2023
0 1140 2248
0 1220 2425
0 1317 2698
0 1397 2875
0 642 0
0 658 0
0 642 466
0 674 642
0 658 691
0 691 819
0 755 867
0 819 899
0 899 1124
0 931 1301
0 1028 1510
0 1092 1734
0 1172 1911
0 1269 2152
0 1349 2377
0 1461 2602
0 1558 2842
0 931 0
0 931 48
0 915 482
0 947 787
0 947 931
0 947 931
0 931 996
0 1012 1124
0 1092 1172
0 1156 1237
0 1253 1493
0 1317 1670
0 1397 1879
0 1477 2120
0 1558 2312
0 1670 2569
0 1766 2810
0 1237 0
0 1237 112
0 1237 578
0 1220 851
0 1253 1092
0 1253 1237
0 1237 1204
0 1285 1253
0 1317 1445
0 1397 1510
0 1510 1558
0 1558 1622
0 1670 1911
0 1718 2088
0 1815 2312
0 1895 2521
0 2007 2762
0 1574 0
0 1590 257
0 1590 723
0 1558 1012
0 1558 1237
0 1590 1445
0 1590 1574
0 1606 1542
273 1590 1445
0 1654 1831
0 1750 1863
0 1847 1943
0 1895 1911
0 1975 2056
0 2072 2296
0 2184 2569
0 2264 2762
0 1943 0
0 1927 418
0 1927 883
0 1911 1156
0 1927 1461
0 1927 1590
0 1943 1766
0 1943 1959
225 1959 1863
771 1975 1766
193 2007 2072
0 2088 2216
0 2168 2248
0 2264 2296
0 2312 2296
0 2409 2489
0 2521 2730
0 2296 305
0 2296 626
0 2264 964
193 2248 1285
0 2264 1590
128 2264 1766
96 2329 1975
273 2312 2120
353 2312 2296
819 2280 2120
1172 2329 2056
1060 2377 2377
112 2457 2602
0 2569 2634
0 2618 2666
0 2698 2666
0 2778 2746
610 2698 514
691 2682 755
803 2682 1108
835 2650 1429
787 2650 1702
707 2650 1975
562 2634 2136
835 2650 2280
835 2682 2489
787 2698 2634
1269 2698 2521
1606 2698 2393
1686 2730 2618
1028 2778 2923
401 2842 2939
0 2955 2987
0 3019 2987
915 3019 707
1124 3051 980
1140 3035 1285
1140 3019 1542
1108 3003 1831
1108 3003 2136
1028 2987 2312
1044 3003 2473
1124 2987 2634
1220 3003 2810
1269 2987 2907
1622 3019 2810
1799 3003 2666
2007 3019 2842
1445 3083 3212
980 3164 3324
0 3244 3324
1269 3324 883
1317 3324 1156
1413 3292 1413
1397 3292 1622
1397 3324 1991
1397 3308 2200
1333 3308 2473
1301 3324 2650
1429 3340 2794
1413 3340 2987
1413 3340 3148
1558 3308 3212
1847 3276 3035
2088 3276 2907
2216 3324 3083
1895 3388 3453
1413 3437 3597
1397 3645 947
1510 3613 1253
1638 3629 1510
1670 3597 1686
1590 3597 2023
1493 3597 2312
1526 3597 2602
1558 3597 2778
1510 3597 2939
1493 3597 3131
1606 3613 3276
1686 3613 3453
1718 3597 3469
2056 3581 3340
2248 3565 3196
2441 3549 3212
2264 3613 3597
1590 3886 980
1654 3870 1172
1718 3838 1349
1766 3838 1766
1750 3854 2039
1718 3838 2361
1670 3838 2650
1670 3838 2891
1606 3822 3035
1750 3854 3212
1734 3854 3404
1783 3854 3549
1799 3838 3726
1959 3822 3710
2248 3822 3581
2457 3838 3453
2634 3790 3404
1750 4095 947
1799 4095 1301
1799 4063 1654
1831 4079 1783
1911 4063 2088
1895 4063 2393
1959 4047 2634
1815 4063 2923
1799 4047 3115
1815 4031 3276
1766 4031 3388
1831 4031 3597
1927 4015 3726
1863 4015 3886
2088 4015 3886
2345 3983 3710
2618 3983 3565
1799 4095 1108
1799 4095 1237
1927 4095 1413
1927 4095 1718
1943 4095 2023
1927 4095 2248
1943 4095 2585
1911 4095 2891
1847 4095 3115
1879 4095 3276
1911 4095 3421
1927 4095 3581
1911 4095 3774
1927 4095 3902
1975 4095 4095
2168 4095 4015
2409 4095 3886
594 0 209
401 0 594
193 0 723
0 48 755
0 209 835
0 289 964
0 353 1140
0 450 1301
0 514 1493
0 578 1670
0 658 1879
0 723 2007
0 835 2248
0 915 2441
0 1028 2682
0 1156 2842
0 1237 3035
514 0 0
498 0 177
193 48 610
0 161 691
0 321 755
0 369 931
0 418 1092
0 498 1269
0 562 1477
0 626 1622
0 691 1799
0 803 2039
0 867 2200
0 947 2393
0 1060 2618
0 1204 2858
