doc/3DLUTs/TealOrangePlusContrast.3DL
#Created by: Adobe Photoshop CS6
#Copyright: Copyright 2012 Adobe Systems Inc.
0 256 512 767 1023
0 32 337
0 96 835
0 369 1493
0 723 2168
0 1172 2987
0 658 0
0 658 691
0 835 980
0 1124 1863
0 1558 2810
0 1911 562
0 1911 1445
0 1943 1863
0 2152 2248
0 2489 2698
1172 3324 915
1269 3308 2023
1124 3324 2842
1783 3292 3067
1301 3437 3629
1766 4095 1188
1863 4095 2104
1750 4095 3131
1734 4095 3806
2329 4095 3854
739 0 0
0 161 915
0 562 1413
0 883 2232
0 1301 3131
626 658 0
401 707 723
0 980 1317
0 1269 2088
0 1654 2971
883 1927 0
594 1927 1237
883 1975 1863
0 2232 2216
0 2553 2826
1622 3356 321
1638 3324 1750
1622 3308 2778
2023 3340 3067
1574 3453 3565
1766 4095 594
2104 4095 1879
2072 4095 3067
2088 4095 3726
2585 4095 3854
1510 0 0
899 337 1477
0 739 1783
0 1188 2312
0 1638 3228
1429 835 0
1510 819 787
723 1156 1799
0 1590 2473
0 1991 3340
2216 1959 0
2120 2007 899
1959 2104 1959
257 2457 2585
0 2778 3276
2955 3260 0
2714 3308 1060
2521 3340 2521
2714 3340 3067
2056 3549 3453
2842 4095 0
2698 4095 899
2714 4095 2585
2698 4095 3533
3003 4095 3806
2666 0 0
2521 385 1349
1750 1060 2730
1140 1461 3003
0 1991 3453
2602 1237 0
2907 883 642
2104 1397 2730
1686 1815 3067
0 2296 3533
3356 2120 0
3244 2232 674
3196 2248 2232
2602 2537 3115
0 3035 3790
3999 3196 0
3902 3212 1012
3742 3324 2072
3581 3356 3099
2569 3694 3645
4079 3967 0
3999 3983 450
3694 4063 1734
3501 4079 3212
3645 4031 3710
4095 674 0
4095 0 915
3404 1429 3485
2955 1847 4047
2537 2280 4095
4047 1429 0
4095 723 0
3694 1638 3212
3212 2056 4031
2778 2457 4095
4095 2393 0
4095 2425 434
4095 2248 2120
3758 2634 3999
3276 2971 4095
4095 3115 0
4095 3180 353
4095 3324 1799
4095 3292 3180
3870 3565 4031
4095 3758 0
4095 3790 0
4095 3838 1558
4095 3870 2618
4095 3918 3581
