doc/3DLUTs/TealOrangePlusContrast.3DL
#Created by: Adobe Photoshop CS6
#Copyright: Copyright 2012 Adobe Systems Inc.
0 128 256 384 512 639 767 895 1023
0 32 337
0 64 498
0 96 835
0 209 1220
0 369 1493
0 578 1815
0 723 2168
0 915 2537
0 1172 2987
0 257 241
0 257 401
0 321 498
0 434 835
0 530 1220
0 674 1622
0 867 2023
0 1060 2489
0 1285 2907
0 658 0
0 658 578
0 658 691
0 723 899
0 835 980
0 996 1445
0 1124 1863
0 1333 2345
0 1558 2810
0 1220 177
0 1188 771
0 1220 1092
0 1237 1220
0 1333 1526
0 1445 1542
0 1606 1799
0 1783 2264
0 1975 2730
0 1911 562
0 1911 1028
0 1911 1445
0 1927 1815
0 1943 1863
32 1991 2023
0 2152 2248
0 2296 2296
0 2489 2698
418 2682 819
626 2682 1237
434 2650 1815
418 2634 2136
578 2650 2457
1172 2666 2489
1574 2698 2537
0 2842 2955
0 3019 3019
1172 3324 915
1253 3292 1429
1269 3308 2023
1140 3324 2537
1124 3324 2842
1269 3324 3196
1783 3292 3067
2136 3324 3035
1301 3437 3629
1638 3870 1220
1654 3854 1622
1638 3838 2120
1606 3838 2650
1622 3838 3051
1590 3854 3388
1670 3838 3710
2184 3822 3565
2602 3806 3404
1766 4095 1188
1879 4095 1477
1863 4095 2104
1847 4095 2698
1750 4095 3131
1718 4095 3469
1734 4095 3806
1847 4095 4095
2329 4095 3854
369 0 321
0 0 594
0 145 883
0 305 1220
0 450 1510
0 610 1815
0 787 2200
0 980 2602
0 1204 3051
96 225 0
0 241 353
0 401 610
0 514 947
0 594 1317
0 739 1686
0 915 2104
0 1124 2553
0 1333 2939
0 642 0
0 642 466
0 658 691
0 755 867
0 899 1124
0 1028 1510
0 1172 1911
0 1349 2377
0 1558 2842
0 1237 0
0 1237 578
0 1253 1092
0 1237 1204
0 1317 1445
0 1510 1558
0 1670 1911
0 1815 2312
0 2007 2762
0 1943 0
0 1927 883
0 1927 1461
0 1943 1766
225 1959 1863
193 2007 2072
0 2168 2248
0 2312 2296
0 2521 2730
610 2698 514
803 2682 1108
787 2650 1702
562 2634 2136
835 2682 2489
1269 2698 2521
1686 2730 2618
401 2842 2939
0 3019 2987
1269 3324 883
1413 3292 1413
1397 3324 1991
1333 3308 2473
1429 3340 2794
1413 3340 3148
1847 3276 3035
2216 3324 3083
1413 3437 3597
1590 3886 980
1718 3838 1349
1750 3854 2039
1670 3838 2650
1606 3822 3035
1734 3854 3404
1799 3838 3726
2248 3822 3581
2634 3790 3404
1799 4095 1108
1927 4095 1413
1943 4095 2023
1943 4095 2585
1847 4095 3115
1911 4095 3421
1911 4095 3774
1975 4095 4095
2409 4095 3886
739 0 0
369 0 835
0 161 915
0 450 1108
0 562 1413
0 723 1847
0 883 2232
0 1076 2650
0 1301 3131
530 257 0
562 225 257
0 401 787
0 578 1092
0 707 1445
0 867 1847
0 1044 2232
0 1188 2618
0 1429 3099
626 658 0
578 674 209
401 707 723
0 835 980
0 980 1317
0 1124 1702
0 1269 2088
0 1461 2537
0 1654 2971
755 1220 0
530 1269 257
257 1285 1012
434 1285 1204
0 1397 1429
0 1542 1606
0 1686 1991
0 1895 2441
0 2072 2923
883 1927 0
658 1943 434
594 1927 1237
642 1975 1718
883 1975 1863
610 2088 2168
0 2232 2216
0 2361 2393
0 2553 2826
1253 2682 0
1076 2698 562
1253 2698 1526
1220 2682 2104
1253 2698 2457
1574 2714 2489
1654 2746 2714
691 2907 2939
0 3067 3019
1622 3356 321
1413 3356 723
1638 3324 1750
1638 3340 2409
1622 3308 2778
1686 3308 3115
2023 3340 3067
2377 3324 3115
1574 3453 3565
1670 3886 450
1766 3870 1012
2007 3854 1895
1943 3822 2521
1943 3838 2987
1943 3854 3324
1927 3838 3677
2361 3806 3533
2682 3790 3421
1766 4095 594
1927 4095 1124
2104 4095 1879
2120 4095 2505
2072 4095 3067
2072 4095 3404
2088 4095 3726
2120 4095 4079
2585 4095 3854
1092 0 0
867 0 610
385 273 1188
0 434 1301
0 642 1477
0 803 1799
0 996 2248
0 1220 2714
0 1445 3180
883 305 0
1012 193 177
530 418 1124
0 562 1253
0 771 1445
0 980 1879
0 1124 2280
0 1349 2746
0 1574 3228
1076 707 0
980 755 80
947 755 835
514 883 1220
0 1076 1542
0 1253 1959
0 1445 2345
0 1622 2730
0 1815 3164
1317 1285 0
1253 1301 257
1172 1301 787
1044 1381 1301
145 1493 1526
0 1670 1895
0 1831 2280
0 2023 2682
0 2200 3099
1670 1927 0
1590 1911 305
1461 1975 883
1333 2039 1654
1429 2056 1895
1060 2136 2088
0 2329 2248
0 2505 2634
0 2666 3035
2104 2650 0
1879 2682 434
1766 2746 1060
1750 2714 1959
1815 2730 2377
1943 2714 2473
1863 2810 2794
1204 2955 2907
0 3115 2971
2216 3340 0
2120 3356 626
1927 3372 1156
2056 3308 2184
2056 3308 2666
2152 3340 3051
2361 3324 3051
2441 3340 3212
1799 3517 3549
2296 3870 305
2280 3886 626
2104 3902 1317
2345 3854 2184
2296 3806 2842
2312 3838 3244
2345 3822 3613
2569 3790 3533
2939 3790 3533
2248 4095 0
2184 4095 321
2232 4095 1349
2393 4095 2264
2393 4095 2923
2361 4095 3324
2296 4095 3677
2377 4095 4015
2746 4095 3838
1510 0 0
1429 0 418
899 337 1477
610 546 1654
0 739 1783
0 931 1975
0 1188 2312
0 1397 2746
0 1638 3228
1317 401 0
1558 48 0
1124 498 1333
787 674 1638
273 835 1766
0 1060 1959
0 1269 2329
0 1510 2810
0 1718 3228
1429 835 0
1413 883 0
1510 819 787
1092 996 1670
723 1156 1799
0 1349 1991
0 1590 2473
0 1783 2923
0 1991 3340
1831 1301 0
1815 1365 32
1670 1413 674
1638 1445 1429
1317 1558 1815
0 1815 2200
0 1975 2585
0 2184 2971
0 2393 3388
2216 1959 0
2168 1959 305
2120 2007 899
2023 2056 1429
1959 2104 1959
1477 2264 2200
257 2457 2585
0 2634 2923
0 2778 3276
2650 2634 0
2666 2666 401
2585 2666 996
2393 2746 1574
2329 2762 2264
2409 2762 2521
2088 2875 2762
1590 3019 2842
0 3212 3212
2955 3260 0
2875 3260 450
2714 3308 1060
2489 3372 1670
2521 3340 2521
2505 3340 2955
2714 3340 3067
2585 3388 3372
2056 3549 3453
2971 3806 0
2891 3806 385
2730 3854 1076
2537 3886 1670
2714 3838 2634
2682 3806 3180
2730 3806 3485
2923 3806 3517
3067 3806 3629
2842 4095 0
2842 4095 32
2698 4095 899
2537 4095 1766
2714 4095 2585
2714 4095 3228
2698 4095 3533
2762 4095 3902
3003 4095 3806
2039 0 0
2088 0 0
1734 369 1429
1269 658 2104
1012 899 2216
562 1076 2377
0 1333 2569
0 1558 2810
0 1831 3308
1911 482 0
2184 0 0
1847 562 1317
1397 803 2104
1124 996 2200
739 1172 2361
0 1445 2602
0 1686 2858
0 1943 3388
1991 1028 0
2007 996 0
2136 883 803
1686 1108 2007
1397 1237 2216
1124 1429 2361
0 1702 2618
0 1895 2939
0 2168 3437
2312 1477 0
2248 1510 0
2200 1574 610
2248 1526 1526
1927 1670 2329
1622 1863 2425
385 2104 2714
0 2312 3131
0 2537 3597
2842 2007 0
2778 2039 161
2730 2088 787
2618 2168 1365
2569 2168 2104
2216 2329 2521
1269 2553 2842
0 2794 3260
0 2939 3581
3212 2650 0
3180 2666 385
3099 2682 980
3051 2730 1526
2955 2778 2039
2858 2810 2585
2393 2987 2842
1750 3131 3148
546 3308 3485
3469 3228 0
3453 3276 514
3421 3260 1060
3340 3276 1542
3131 3340 2056
3051 3372 2875
3131 3340 3067
2875 3453 3292
2377 3597 3340
3613 3694 0
3613 3710 16
3517 3726 947
3324 3790 1526
3212 3838 2056
3180 3822 2955
3148 3790 3404
3292 3790 3501
3180 3822 3774
3565 4079 0
3437 4095 0
3388 4095 546
3148 4095 1333
2955 4095 2007
3099 4095 2939
3083 4095 3453
3164 4095 3790
3340 4063 3726
2666 0 0
2810 0 0
2521 385 1349
1959 851 2361
1750 1060 2730
1493 1269 2875
1140 1461 3003
0 1734 3228
0 1991 3453
2585 594 0
2842 0 0
2602 562 1172
2120 964 2312
1895 1172 2778
1606 1397 2907
1285 1542 3003
0 1815 3212
0 2104 3469
2602 1237 0
2794 1060 0
2907 883 642
2489 1204 2072
2104 1397 2730
1879 1606 2875
1686 1815 3067
610 2056 3260
0 2296 3533
2907 1670 0
2842 1686 0
2891 1654 626
3003 1574 1526
2521 1815 2682
2329 1975 2907
2039 2120 3083
1365 2393 3276
0 2618 3613
3356 2120 0
3292 2152 0
3244 2232 674
3196 2296 1349
3196 2248 2232
2875 2377 2939
2602 2537 3115
1959 2794 3324
0 3035 3790
3806 2682 0
3742 2698 305
3694 2698 883
3597 2746 1429
3453 2810 1927
3437 2842 2698
3051 2987 3131
2264 3212 3453
771 3421 3854
3999 3196 0
3950 3196 305
3902 3212 1012
3806 3244 1526
3742 3324 2072
3694 3324 2585
3581 3356 3099
3099 3501 3340
2569 3694 3645
4095 3645 0
4079 3677 128
4015 3661 851
3950 3694 1429
3854 3710 1943
3677 3774 2457
3565 3774 3228
3742 3758 3421
3421 3854 3645
4079 3967 0
4079 3967 0
3999 3983 450
3918 4015 1140
3694 4063 1734
3437 4095 2296
3501 4079 3212
3549 4047 3629
3645 4031 3710
3388 0 0
3565 0 0
3340 96 1108
2923 964 2473
2521 1220 3180
2296 1477 3404
2088 1654 3517
1847 1847 3645
1012 2168 3870
3340 723 0
3645 0 0
3469 546 980
3051 1076 2377
2650 1349 3212
2409 1526 3372
2152 1734 3517
1927 1943 3645
1237 2264 3918
3292 1365 0
3485 1140 0
3645 883 498
3340 1317 2088
2826 1574 3099
2746 1734 3437
2457 1943 3533
2184 2136 3677
1461 2409 3886
3517 1847 0
3501 1879 0
3710 1718 321
3758 1654 1461
3340 1879 2810
3035 2056 3404
2875 2248 3549
2602 2393 3677
1927 2682 3918
3838 2264 0
3822 2296 0
3726 2329 466
3854 2248 1204
3886 2296 2264
3421 2457 3372
3196 2585 3517
2923 2778 3677
2264 2987 3886
4095 2714 0
4095 2698 0
4095 2778 691
4015 2842 1317
3902 2875 1879
3967 2842 2794
3613 2987 3549
3308 3148 3677
2585 3388 3934
4095 3148 0
4095 3148 289
4095 3180 947
4095 3228 1461
4095 3260 1911
4095 3340 2489
4063 3340 3115
3645 3485 3565
2955 3710 3902
4095 3597 0
4095 3581 0
4095 3613 835
4095 3629 1381
4095 3661 1879
4095 3677 2457
4095 3694 2939
4047 3726 3453
3597 3886 3677
4095 3886 0
4095 3886 0
4095 3902 80
4095 3918 1028
4095 3934 1654
4095 3950 2152
3999 4015 2730
3918 3999 3421
3999 3967 3613
4095 674 0
4095 0 0
4095 0 915
3886 1012 2425
3404 1429 3485
3164 1622 3934
2955 1847 4047
2682 2088 4095
2537 2280 4095
4095 883 0
4095 0 0
4095 369 739
3918 1124 2280
3549 1542 3372
3276 1638 3934
3035 1911 4031
2810 2152 4095
2553 2296 4095
4047 1429 0
4095 1188 0
4095 723 0
4095 1317 2023
3694 1638 3212
3453 1863 3934
3212 2056 4031
2987 2280 4095
2778 2457 4095
4095 1991 0
4095 1959 0
4095 1734 0
4095 1670 1333
4095 1959 2826
3677 2168 3790
3501 2329 4047
3228 2505 4095
2987 2714 4095
4095 2393 0
4095 2425 0
4095 2425 434
4095 2232 980
4095 2248 2120
4063 2521 3517
3758 2634 3999
3549 2826 4095
3276 2971 4095
4095 2794 0
4095 2826 0
4095 2858 177
4095 2939 1156
4095 2875 1783
4095 2810 2794
4095 3003 3918
3870 3131 4047
3565 3292 4095
4095 3115 0
4095 3131 0
4095 3180 353
4095 3244 1220
4095 3324 1799
4095 3372 2329
4095 3292 3180
4095 3421 3934
3870 3565 4031
4095 3469 0
4095 3485 0
4095 3517 691
4095 3533 1269
4095 3581 1799
4095 3597 2264
4095 3661 2778
4095 3677 3501
4095 3790 3886
4095 3758 0
4095 3774 0
4095 3790 0
4095 3806 947
4095 3838 1558
4095 3854 2088
4095 3870 2618
4095 3902 3115
4095 3918 3581
