doc/3DLUTs/TensionGreen.3DL
#Created by: Adobe Photoshop CS6
#Copyright: Copyright 2012 Adobe Systems Inc.
0 256 512 767 1023
0 0 112
0 145 482
257 385 803
546 658 1204
819 915 1590
112 883 209
241 883 610
321 947 964
578 1092 1301
915 1285 1702
594 1815 434
819 1783 915
899 1831 1220
1028 1895 1606
1140 2023 2023
1397 2794 996
1510 2778 1493
1670 2778 1863
1783 2810 2152
1863 2875 2585
2200 3758 1734
2216 3758 2023
2505 3677 2585
2537 3726 2891
2666 3758 3164
771 145 80
450 434 578
514 562 867
707 787 1237
964 1012 1654
674 931 0
546 964 674
578 1060 1012
787 1172 1349
1012 1349 1750
867 1847 48
899 1847 867
1044 1863 1237
1108 1959 1670
1301 2023 2056
1542 2842 867
1558 2810 1333
1766 2794 1895
1863 2826 2184
1943 2891 2602
2264 3774 1606
2361 3774 1991
2553 3726 2585
2602 3742 2907
2730 3790 3228
1750 80 0
996 835 674
1012 931 1012
1108 1076 1349
1269 1285 1766
1702 964 0
1477 1092 691
1140 1285 1092
1204 1397 1461
1365 1542 1847
1558 1943 32
1526 1959 707
1413 2023 1397
1477 2088 1783
1622 2200 2184
2039 2891 674
1975 2875 1060
2007 2891 1895
2120 2907 2264
2216 2955 2666
2602 3806 1333
2569 3822 1734
2618 3822 2441
2826 3774 2939
2923 3838 3276
2746 225 0
2200 1028 771
1638 1413 1172
1702 1493 1526
1847 1638 1927
2842 867 0
2537 1156 691
1734 1638 1237
1799 1734 1638
1863 1863 2039
2650 2007 0
2650 2007 498
2377 2120 1542
2120 2280 1943
2152 2393 2361
2778 2939 787
2698 2955 1156
2618 3019 1815
2537 3067 2473
2618 3131 2858
3212 3854 1333
3148 3870 1574
3115 3934 2168
3115 3902 3035
3212 3934 3372
3790 16 0
3437 964 835
2473 1847 1510
2393 1927 1847
2473 2056 2264
3758 980 0
3710 1124 819
2682 1927 1558
2457 2120 1911
2602 2232 2361
3918 1879 0
3902 1927 482
3485 2200 1702
2730 2569 2216
2794 2650 2602
3774 2987 642
3774 3019 1060
3758 3019 1654
3437 3148 2618
3148 3292 3003
3950 3967 1445
3934 3983 1734
3854 3983 2264
3806 4015 2955
3983 4047 3967
