doc/3DLUTs/TensionGreen.3DL
#Created by: Adobe Photoshop CS6
#Copyright: Copyright 2012 Adobe Systems Inc.
0 128 256 384 512 639 767 895 1023
0 0 112
0 96 321
0 145 482
80 273 674
257 385 803
385 546 1028
546 658 1204
674 787 1397
819 915 1590
0 450 257
0 466 385
64 450 546
177 530 707
257 610 883
369 691 1060
578 803 1237
658 915 1413
819 1044 1638
112 883 209
177 867 498
241 883 610
321 899 803
321 947 964
482 1028 1156
578 1092 1301
787 1172 1510
915 1285 1702
257 1333 193
385 1333 594
498 1333 771
578 1349 883
626 1397 1092
691 1445 1269
739 1493 1461
899 1574 1654
1012 1622 1831
594 1815 434
658 1815 674
819 1783 915
819 1815 1076
899 1831 1220
883 1863 1445
1028 1895 1606
1044 1943 1831
1140 2023 2023
947 2312 739
931 2312 851
1156 2280 1220
1204 2296 1397
1220 2312 1526
1317 2312 1670
1397 2361 1863
1461 2393 2104
1542 2457 2329
1397 2794 996
1413 2794 1156
1510 2778 1493
1654 2762 1766
1670 2778 1863
1718 2778 2007
1783 2810 2152
1847 2842 2345
1863 2875 2585
1879 3292 1397
1831 3292 1542
1831 3292 1702
2023 3260 2072
2136 3228 2232
2120 3276 2393
2120 3276 2521
2232 3292 2682
2280 3324 2875
2200 3758 1734
2264 3742 1799
2216 3758 2023
2377 3726 2361
2505 3677 2585
2521 3710 2730
2537 3726 2891
2585 3742 3035
2666 3758 3164
209 64 145
48 177 321
80 241 514
225 353 674
321 450 819
434 578 1028
562 707 1220
723 835 1381
835 947 1590
305 450 48
209 498 418
177 530 578
273 594 755
369 642 915
482 739 1076
626 835 1237
755 931 1429
867 1092 1638
337 867 0
305 883 450
353 915 626
401 931 835
450 996 996
546 1060 1140
674 1108 1317
819 1204 1542
947 1301 1718
401 1349 96
434 1365 466
594 1365 787
626 1365 899
642 1413 1092
723 1477 1301
771 1510 1477
915 1590 1670
1028 1638 1847
642 1831 305
610 1815 578
883 1815 980
899 1815 1060
931 1847 1204
1028 1879 1413
1060 1911 1622
1092 1959 1847
1237 2023 2039
1044 2312 674
1060 2329 835
1140 2296 1172
1253 2296 1397
1285 2312 1542
1349 2345 1686
1381 2377 1943
1477 2393 2088
1526 2441 2312
1413 2810 1012
1461 2794 1156
1493 2794 1445
1686 2762 1766
1718 2778 1879
1766 2794 2056
1831 2794 2152
1879 2842 2361
1863 2875 2602
1895 3292 1317
1847 3292 1461
1863 3308 1686
2039 3260 2088
2136 3228 2232
2120 3276 2393
2168 3276 2537
2248 3324 2714
2264 3324 2907
2216 3758 1702
2264 3774 1799
2216 3742 1975
2361 3726 2296
2521 3710 2602
2553 3726 2714
2585 3726 2891
2650 3758 3051
2666 3790 3212
771 145 80
418 401 418
450 434 578
418 498 707
514 562 867
594 674 1060
707 787 1237
803 899 1429
964 1012 1654
819 482 0
691 530 401
498 626 594
482 674 771
530 739 915
626 819 1108
707 915 1285
835 1012 1477
980 1124 1638
674 931 0
626 947 321
546 964 674
562 996 835
578 1060 1012
707 1108 1188
787 1172 1349
947 1253 1542
1012 1349 1750
723 1397 0
674 1397 273
691 1381 723
771 1413 899
803 1445 1092
819 1493 1269
931 1542 1477
1044 1622 1670
1140 1686 1879
867 1847 48
883 1847 418
899 1847 867
996 1863 1124
1044 1863 1237
1108 1911 1461
1108 1959 1670
1156 2007 1863
1301 2023 2056
1156 2345 498
1172 2345 755
1172 2345 1108
1317 2312 1413
1349 2345 1574
1461 2345 1686
1445 2409 1959
1526 2441 2136
1622 2489 2377
1542 2842 867
1526 2826 1044
1558 2810 1333
1734 2794 1734
1766 2794 1895
1831 2810 2072
1863 2826 2184
1943 2858 2377
1943 2891 2602
1911 3308 1301
1943 3308 1413
1959 3292 1654
2023 3260 1975
2168 3276 2280
2184 3276 2377
2232 3292 2553
2280 3308 2698
2329 3340 2891
2264 3774 1606
2296 3758 1750
2361 3774 1991
2345 3742 2232
2553 3726 2585
2602 3726 2730
2602 3742 2907
2650 3742 3051
2730 3790 3228
1301 112 0
964 482 434
691 626 610
723 674 771
787 739 964
787 803 1092
883 899 1253
1012 1028 1477
1124 1140 1686
1317 434 0
1140 610 385
755 771 626
771 803 803
819 883 980
851 947 1156
931 1028 1317
1028 1124 1510
1124 1237 1702
1156 964 0
1124 964 128
1028 1028 691
851 1108 867
851 1140 1028
915 1204 1220
964 1269 1429
1076 1349 1590
1220 1445 1815
1092 1445 0
1092 1461 241
1044 1477 642
980 1510 980
964 1542 1140
1012 1558 1301
1108 1606 1510
1172 1686 1734
1301 1734 1927
1220 1895 0
1204 1879 321
1172 1895 626
1156 1911 1124
1253 1927 1301
1253 1959 1493
1253 1991 1702
1349 2056 1927
1429 2104 2104
1429 2361 273
1381 2377 514
1397 2377 931
1429 2377 1397
1526 2361 1590
1590 2393 1734
1622 2441 1975
1670 2489 2200
1750 2521 2377
1718 2842 658
1702 2858 899
1734 2858 1253
1766 2826 1638
1911 2826 1943
1959 2842 2088
2023 2858 2216
2023 2907 2457
2072 2923 2650
2039 3340 1092
2056 3340 1269
2088 3340 1574
2088 3340 1879
2296 3292 2280
2312 3324 2457
2312 3324 2602
2377 3324 2698
2473 3372 2923
2393 3790 1477
2393 3806 1606
2409 3790 1863
2441 3790 2152
2569 3742 2569
2714 3742 2762
2698 3742 2923
2730 3790 3099
2778 3806 3244
1750 80 0
1477 530 418
996 835 674
1028 867 835
1012 931 1012
1092 980 1172
1108 1076 1349
1188 1188 1542
1269 1285 1766
1686 514 0
1654 578 305
1124 931 691
1028 1012 835
1044 1044 1012
1124 1092 1204
1124 1172 1381
1269 1269 1574
1333 1349 1766
1702 964 0
1734 980 0
1477 1092 691
1108 1253 915
1140 1285 1092
1188 1349 1285
1204 1397 1461
1285 1477 1654
1365 1542 1847
1558 1477 0
1574 1493 80
1558 1510 498
1397 1574 1028
1269 1622 1188
1285 1670 1381
1317 1718 1574
1397 1783 1783
1493 1831 1975
1558 1943 32
1542 1943 321
1526 1959 707
1477 1991 1044
1413 2023 1397
1397 2056 1558
1477 2088 1783
1542 2136 2007
1622 2200 2184
1766 2393 353
1750 2425 546
1718 2409 867
1702 2441 1204
1718 2441 1622
1815 2473 1815
1766 2489 2007
1863 2537 2232
1879 2585 2425
2039 2891 674
2023 2891 771
1975 2875 1060
1975 2891 1526
2007 2891 1895
2104 2891 2120
2120 2907 2264
2104 2939 2505
2216 2955 2666
2296 3372 964
2296 3356 1076
2280 3356 1445
2248 3372 1831
2312 3356 2200
2425 3340 2457
2489 3356 2618
2521 3388 2778
2569 3388 2987
2602 3806 1333
2634 3822 1477
2569 3822 1734
2569 3822 2120
2618 3822 2441
2810 3774 2826
2826 3774 2939
2858 3822 3148
2923 3838 3276
2200 193 0
2072 482 321
1622 947 739
1317 1108 899
1317 1172 1076
1365 1220 1237
1413 1285 1429
1493 1365 1654
1526 1445 1831
2184 578 0
2184 578 273
1718 1028 739
1333 1204 947
1365 1253 1124
1397 1285 1285
1461 1365 1477
1461 1445 1670
1558 1542 1863
2312 931 0
2152 1044 64
1991 1140 691
1461 1397 1012
1429 1445 1140
1461 1510 1333
1510 1558 1542
1526 1606 1702
1606 1686 1895
2136 1493 0
2168 1477 0
2184 1493 385
1879 1622 1092
1558 1750 1269
1590 1783 1445
1590 1847 1670
1654 1895 1863
1750 1927 2056
2088 1975 0
2039 1975 305
2007 1991 626
2056 2007 980
1895 2056 1461
1734 2136 1654
1718 2184 1847
1831 2232 2056
1879 2264 2264
2152 2473 450
2136 2473 610
2104 2473 899
2088 2505 1253
2072 2505 1542
2007 2537 1895
1991 2585 2088
2023 2618 2329
2120 2650 2489
2377 2907 691
2393 2923 899
2361 2923 1140
2312 2923 1413
2264 2939 1718
2280 2971 2184
2312 2971 2312
2345 3035 2585
2377 3035 2730
2585 3372 980
2602 3388 1092
2569 3404 1349
2521 3404 1590
2553 3437 2007
2553 3437 2457
2634 3404 2682
2698 3437 2858
2746 3453 3035
2875 3854 1285
2858 3854 1381
2842 3854 1526
2778 3854 1879
2794 3838 2312
2858 3854 2698
2987 3854 3019
3067 3886 3196
3099 3886 3340
2746 225 0
2666 401 337
2200 1028 771
1702 1317 1028
1638 1413 1172
1686 1461 1349
1702 1493 1526
1783 1558 1734
1847 1638 1927
2682 626 0
2698 610 257
2312 1076 787
1766 1381 1028
1670 1477 1204
1718 1526 1381
1750 1558 1590
1799 1606 1750
1879 1686 1943
2842 867 0
2682 1044 112
2537 1156 691
2023 1510 1108
1734 1638 1237
1766 1686 1413
1799 1734 1638
1847 1799 1831
1863 1863 2039
2794 1445 0
2794 1461 0
2602 1542 594
2409 1670 1124
1847 1911 1397
1863 1943 1574
1911 1959 1766
1975 2023 2007
2007 2088 2184
2650 2007 0
2650 2007 0
2650 2007 498
2714 1991 947
2377 2120 1542
2023 2264 1766
2120 2280 1943
2120 2345 2136
2152 2393 2361
2682 2489 514
2634 2505 658
2585 2521 915
2553 2521 1188
2618 2537 1510
2489 2585 2007
2312 2650 2200
2312 2714 2393
2377 2714 2569
2778 2939 787
2730 2955 883
2698 2955 1156
2698 2987 1477
2618 3019 1815
2585 3019 2136
2537 3067 2473
2585 3083 2650
2618 3131 2858
2971 3388 1012
2955 3421 1204
2939 3421 1365
2842 3421 1638
2810 3453 1975
2794 3469 2280
2810 3485 2714
2891 3501 2907
2891 3533 3115
3212 3854 1333
3244 3886 1397
3148 3870 1574
3164 3918 1879
3115 3934 2168
3099 3934 2585
3115 3902 3035
3212 3886 3244
3212 3934 3372
3244 128 0
3228 128 305
2842 1028 771
2312 1461 1140
1975 1638 1269
2023 1670 1461
2039 1718 1654
2072 1750 1863
2168 1815 2088
3196 578 0
3260 514 257
2907 1092 771
2425 1477 1156
2007 1702 1333
2023 1718 1493
2072 1766 1702
2104 1815 1927
2184 1895 2120
3308 899 0
3196 1060 161
3083 1188 755
2618 1574 1204
2104 1831 1413
2136 1879 1574
2136 1911 1799
2168 1959 2007
2248 2023 2200
3421 1333 0
3340 1413 0
3180 1574 674
2955 1734 1220
2441 1991 1558
2200 2104 1718
2232 2152 1879
2296 2184 2104
2361 2232 2329
3276 1975 0
3308 1975 0
3340 1927 353
3164 2039 1140
2907 2200 1654
2377 2409 1879
2425 2425 2056
2457 2473 2280
2505 2505 2505
3196 2521 128
3180 2505 385
3164 2521 771
3212 2521 1140
3228 2489 1429
2923 2634 2104
2585 2762 2280
2618 2794 2473
2618 2858 2682
3260 2987 851
3244 3003 996
3180 3003 1220
3115 3019 1493
3115 3019 1734
3164 3051 2088
2987 3099 2537
2826 3180 2714
2875 3228 2955
3356 3453 1124
3340 3453 1237
3324 3453 1397
3292 3469 1702
3276 3501 1991
3228 3517 2377
3164 3533 2666
3099 3581 3003
3099 3597 3212
3565 3902 1333
3565 3902 1429
3533 3918 1654
3533 3950 1911
3453 3950 2200
3404 3983 2505
3372 3983 2842
3372 3999 3292
3421 4015 3469
3790 16 0
3774 32 305
3437 964 835
2955 1510 1269
2473 1847 1510
2361 1927 1670
2393 1927 1847
2425 1991 2023
2473 2056 2264
3774 450 0
3758 466 321
3517 1044 867
3035 1542 1285
2553 1879 1542
2377 1975 1670
2393 2007 1879
2441 2039 2039
2489 2072 2280
3758 980 0
3774 1012 257
3710 1124 819
3260 1590 1317
2682 1927 1558
2441 2088 1734
2457 2120 1911
2537 2168 2152
2602 2232 2361
4015 1269 0
3886 1429 0
3742 1590 771
3549 1718 1253
3083 2072 1702
2553 2296 1863
2618 2329 2039
2634 2361 2248
2666 2393 2473
3918 1879 0
3950 1879 0
3902 1927 482
3726 2056 1253
3485 2200 1702
2891 2473 2039
2730 2569 2216
2762 2618 2441
2794 2650 2602
3838 2473 0
3790 2473 128
3774 2473 642
3854 2473 1028
3677 2537 1638
3421 2698 2200
2923 2891 2425
2923 2907 2602
2971 2955 2810
3774 2987 642
3758 2987 803
3774 3019 1060
3758 3019 1365
3758 3019 1654
3758 3019 2023
3437 3148 2618
3131 3276 2826
3148 3292 3003
3806 3469 1188
3790 3469 1269
3758 3501 1526
3710 3517 1783
3677 3533 2023
3694 3549 2312
3677 3565 2650
3485 3629 3131
3388 3694 3292
3950 3967 1445
3918 3950 1558
3934 3983 1734
3870 3967 1975
3854 3983 2264
3806 3999 2585
3806 4015 2955
4015 4047 3501
3983 4047 3967
