doc/3DLUTs/TensionGreen.3DL
#Created by: Adobe Photoshop CS6
#Copyright: Copyright 2012 Adobe Systems Inc.
0 64 128 192 256 320 384 448 512 575 639 703 767 831 895 959 1023
0 0 112
0 0 193
0 96 321
0 128 401
0 145 482
0 209 578
80 273 674
161 337 755
257 385 803
273 466 899
385 546 1028
434 610 1124
546 658 1204
578 723 1285
674 787 1397
771 867 1477
819 915 1590
0 241 193
0 257 241
0 289 369
0 305 434
0 305 514
0 337 578
96 369 642
161 450 771
273 482 851
321 546 947
369 594 1028
482 642 1108
530 723 1188
610 771 1301
691 835 1381
739 883 1493
835 980 1590
0 450 257
0 450 321
0 466 385
32 466 482
64 450 546
80 530 658
177 530 707
225 562 803
257 610 883
369 642 964
369 691 1060
514 755 1156
578 803 1237
642 851 1301
658 915 1413
739 964 1510
819 1044 1638
16 658 225
80 658 385
80 642 434
161 642 482
145 658 594
209 691 674
209 707 771
273 739 835
353 755 899
401 803 1012
450 851 1092
514 883 1172
578 947 1285
658 964 1349
707 1044 1477
835 1092 1574
851 1156 1638
112 883 209
145 867 369
177 867 498
193 867 578
241 883 610
289 883 723
321 899 803
353 931 899
321 947 964
434 996 1060
482 1028 1156
578 1060 1220
578 1092 1301
707 1156 1413
787 1172 1510
867 1237 1590
915 1285 1702
161 1092 225
145 1076 369
289 1076 530
369 1076 610
337 1092 674
434 1108 739
418 1124 803
498 1140 915
482 1156 1028
546 1172 1076
562 1237 1188
626 1253 1301
674 1285 1381
755 1317 1477
835 1365 1558
883 1413 1670
980 1445 1766
257 1333 193
225 1349 369
385 1333 594
514 1317 674
498 1333 771
546 1349 819
578 1349 883
594 1365 980
626 1397 1092
642 1413 1172
691 1445 1269
707 1445 1333
739 1493 1461
803 1542 1558
899 1574 1654
915 1574 1734
1012 1622 1831
482 1574 273
530 1590 418
466 1590 594
626 1574 787
658 1574 819
691 1590 915
707 1606 1012
723 1606 1028
707 1606 1124
787 1622 1253
771 1654 1349
803 1670 1413
883 1702 1542
899 1718 1606
964 1750 1718
1012 1799 1815
1092 1815 1895
594 1815 434
626 1815 514
658 1815 674
755 1799 851
819 1783 915
787 1799 1012
819 1815 1076
867 1815 1156
899 1831 1220
883 1863 1333
883 1863 1445
964 1895 1542
1028 1895 1606
1012 1943 1766
1044 1943 1831
1092 1991 1927
1140 2023 2023
771 2056 578
755 2039 610
787 2056 723
883 2039 931
980 2023 1060
996 2023 1156
980 2023 1188
1012 2056 1301
1028 2039 1349
1076 2072 1429
1124 2088 1510
1076 2120 1686
1156 2120 1766
1188 2152 1879
1237 2168 1975
1301 2216 2088
1349 2248 2184
947 2312 739
1012 2329 803
931 2312 851
1028 2296 1028
1156 2280 1220
1204 2264 1317
1204 2296 1397
1253 2312 1477
1220 2312 1526
1301 2312 1606
1317 2312 1670
1365 2329 1750
1397 2361 1863
1381 2361 1975
1461 2393 2104
1429 2409 2216
1542 2457 2329
1188 2569 899
1188 2569 947
1156 2553 1012
1220 2553 1140
1365 2553 1365
1445 2537 1493
1413 2537 1542
1445 2537 1622
1461 2537 1670
1510 2569 1799
1526 2553 1831
1574 2569 1911
1606 2602 2039
1622 2602 2120
1622 2634 2264
1702 2650 2393
1718 2650 2457
1397 2794 996
1429 2794 1076
1413 2794 1156
1413 2778 1285
1510 2778 1493
1606 2762 1590
1654 2762 1766
1670 2762 1783
1670 2778 1863
1718 2794 1959
1718 2778 2007
1750 2794 2088
1783 2810 2152
1799 2810 2264
1847 2842 2345
1831 2858 2521
1863 2875 2585
1606 3035 1188
1622 3019 1253
1622 3035 1333
1574 3019 1429
1670 3019 1606
1718 3019 1734
1895 2987 1911
1863 2987 1975
1911 3003 2056
1927 3003 2120
1911 3035 2232
1943 3035 2280
1991 3035 2312
1991 3051 2457
2039 3083 2553
2104 3083 2618
2056 3115 2794
1879 3292 1397
1847 3276 1461
1831 3292 1542
1799 3276 1542
1831 3292 1702
1943 3260 1863
2023 3260 2072
2120 3244 2184
2136 3228 2232
2104 3228 2296
2120 3276 2393
2136 3260 2441
2120 3276 2521
2200 3292 2618
2232 3292 2682
2264 3308 2762
2280 3324 2875
1991 3517 1542
2023 3501 1622
1991 3517 1622
2039 3501 1718
2007 3501 1863
2152 3501 2056
2184 3485 2184
2296 3469 2345
2280 3469 2425
2361 3485 2505
2345 3485 2569
2329 3501 2634
2361 3501 2714
2377 3501 2778
2409 3517 2858
2441 3533 2939
2457 3533 3003
2200 3758 1734
2232 3758 1766
2264 3742 1799
2216 3758 1879
2216 3758 2023
2329 3742 2168
2377 3726 2361
2473 3710 2473
2505 3677 2585
2505 3710 2666
2521 3710 2730
2537 3710 2810
2537 3726 2891
2569 3742 2971
2585 3742 3035
2650 3774 3099
2666 3758 3164
0 80 161
0 80 193
0 128 337
0 161 418
0 193 482
32 257 578
128 305 658
225 369 755
289 434 835
321 482 899
385 546 1028
434 610 1124
514 691 1204
594 739 1301
674 819 1381
771 867 1477
803 947 1606
0 273 80
0 289 273
0 289 353
0 305 434
0 337 514
96 369 626
145 418 691
257 450 771
289 498 851
337 562 964
434 626 1060
482 642 1108
530 739 1204
642 787 1301
707 851 1397
771 899 1477
835 980 1590
64 466 112
32 450 305
96 466 401
96 466 498
80 498 562
96 514 626
145 562 723
241 594 803
305 626 883
369 674 964
401 707 1076
514 755 1156
562 819 1253
642 867 1317
658 915 1413
787 980 1526
819 1044 1638
145 658 161
96 674 305
161 658 450
145 691 514
193 674 594
225 707 691
225 739 787
321 755 851
337 787 931
385 803 996
498 851 1108
530 899 1188
578 947 1285
674 980 1365
739 1044 1461
819 1108 1558
883 1156 1638
209 883 80
177 867 321
241 867 498
289 867 546
305 883 626
321 899 723
337 915 803
418 931 883
385 980 980
466 996 1060
514 1028 1156
546 1076 1237
626 1092 1317
723 1172 1429
803 1188 1510
867 1237 1590
931 1301 1718
209 1108 112
289 1108 305
321 1108 514
385 1092 594
401 1092 674
434 1108 755
434 1140 819
514 1156 931
562 1172 1028
562 1204 1108
546 1220 1172
626 1253 1301
723 1301 1397
771 1333 1493
835 1381 1574
883 1413 1654
980 1445 1766
273 1333 209
369 1333 369
385 1349 546
530 1333 691
530 1333 723
530 1333 803
578 1349 883
594 1365 980
626 1397 1092
658 1413 1188
691 1445 1269
723 1461 1333
755 1493 1461
803 1526 1558
899 1574 1654
931 1606 1750
1028 1638 1847
498 1590 289
530 1574 418
482 1590 562
610 1590 739
658 1574 803
691 1574 915
707 1590 1012
723 1606 1028
739 1638 1156
803 1638 1253
771 1670 1349
867 1686 1429
915 1718 1526
931 1734 1638
980 1783 1734
1060 1799 1815
1092 1815 1895
610 1815 337
658 1831 482
610 1815 626
723 1815 787
819 1815 964
851 1799 1012
835 1815 1044
867 1831 1156
947 1831 1188
947 1847 1301
980 1879 1413
980 1895 1542
1060 1911 1622
1012 1943 1766
1108 1959 1847
1076 1975 1911
1140 2023 2023
803 2056 514
819 2056 626
803 2056 691
851 2039 867
980 2039 1060
996 2039 1156
1060 2056 1220
1060 2056 1301
1044 2056 1365
1076 2072 1445
1124 2088 1510
1124 2120 1686
1188 2104 1750
1204 2168 1895
1269 2184 2007
1301 2216 2088
1333 2232 2168
980 2329 723
1060 2312 787
996 2329 867
1044 2312 996
1172 2296 1204
1237 2296 1333
1204 2280 1381
1237 2296 1461
1269 2312 1542
1301 2312 1606
1349 2345 1686
1365 2329 1750
1365 2361 1911
1381 2361 1991
1461 2377 2072
1461 2441 2248
1542 2457 2329
1188 2553 867
1220 2553 947
1204 2553 1012
1253 2569 1140
1317 2553 1317
1413 2537 1461
1477 2553 1574
1461 2553 1638
1493 2553 1702
1526 2569 1783
1542 2569 1847
1558 2569 1895
1606 2602 2023
1670 2602 2136
1686 2634 2248
1670 2634 2361
1702 2650 2457
1429 2810 1028
1429 2778 1076
1413 2794 1156
1413 2810 1237
1493 2794 1445
1590 2762 1590
1638 2746 1718
1670 2762 1799
1654 2762 1847
1686 2778 1927
1734 2794 2007
1750 2794 2088
1783 2810 2168
1815 2826 2280
1895 2842 2361
1831 2858 2521
1863 2875 2602
1622 3019 1220
1638 3019 1220
1606 3019 1333
1606 3035 1413
1638 3019 1574
1718 3019 1750
1863 3003 1879
1879 3003 1943
1911 3003 2056
1911 3003 2136
1959 3019 2232
1943 3019 2264
1991 3035 2312
1975 3019 2425
2072 3067 2537
2120 3083 2634
2056 3099 2778
1863 3292 1381
1847 3276 1381
1847 3292 1493
1831 3292 1574
1831 3292 1702
1959 3276 1879
2023 3260 2088
2104 3228 2168
2120 3228 2232
2104 3228 2296
2120 3276 2393
2120 3260 2441
2152 3260 2521
2216 3292 2569
2232 3308 2698
2280 3324 2778
2248 3308 2891
1991 3517 1542
2056 3517 1606
2039 3517 1670
2056 3517 1734
2023 3517 1879
2120 3501 2023
2168 3485 2216
2296 3453 2345
2280 3469 2409
2377 3485 2473
2345 3485 2569
2312 3485 2618
2361 3501 2714
2377 3501 2778
2409 3517 2858
2441 3517 2939
2473 3549 3019
2200 3758 1734
2200 3758 1734
2280 3742 1815
2216 3758 1879
2232 3758 1991
2280 3742 2136
2361 3742 2329
2473 3694 2521
2505 3694 2602
2521 3710 2650
2537 3726 2746
2537 3710 2810
2569 3726 2891
2569 3742 2955
2602 3758 3051
2618 3742 3083
2666 3774 3164
209 64 145
0 161 241
48 177 321
96 225 434
80 241 514
128 289 594
225 353 674
273 385 771
321 450 819
385 498 947
434 578 1028
498 610 1092
562 707 1220
642 755 1301
723 835 1381
771 883 1493
835 947 1590
321 257 0
177 289 321
112 321 353
112 353 450
96 369 530
209 418 626
257 450 691
321 482 803
337 514 867
434 578 964
466 658 1044
498 691 1124
578 739 1220
674 803 1317
723 867 1413
803 947 1493
851 996 1606
305 450 48
289 466 225
209 498 418
193 514 498
177 530 578
257 546 658
273 594 755
337 610 819
369 642 915
401 707 996
482 739 1076
578 787 1140
626 835 1237
642 899 1349
755 931 1429
803 996 1542
867 1092 1638
337 658 16
305 674 177
209 691 434
289 707 514
273 707 626
289 707 674
337 755 771
305 787 867
418 803 931
450 835 1012
514 883 1092
578 899 1204
658 964 1285
674 1028 1397
771 1060 1461
787 1124 1574
915 1172 1654
337 867 0
257 899 241
305 883 450
401 883 562
353 915 626
385 915 739
401 931 835
418 964 883
450 996 996
466 1012 1060
546 1060 1140
610 1092 1253
674 1108 1317
755 1156 1429
819 1204 1542
883 1253 1606
947 1301 1718
321 1108 48
337 1124 257
321 1124 450
466 1124 626
466 1140 674
482 1124 707
530 1140 835
562 1156 931
546 1172 996
562 1204 1108
610 1237 1204
642 1269 1317
691 1301 1397
803 1349 1477
851 1381 1574
931 1413 1670
980 1461 1783
401 1349 96
418 1349 273
434 1365 466
578 1349 658
594 1365 787
610 1365 835
626 1365 899
658 1397 964
642 1413 1092
691 1429 1172
723 1477 1301
739 1477 1365
771 1510 1477
867 1542 1574
915 1590 1670
996 1606 1766
1028 1638 1847
578 1590 193
562 1590 353
562 1590 530
626 1606 707
739 1590 835
755 1606 931
755 1606 964
787 1622 1028
787 1622 1156
803 1638 1253
835 1670 1365
883 1702 1461
947 1702 1526
931 1750 1638
980 1766 1734
1076 1799 1831
1124 1847 1927
642 1831 305
674 1815 401
610 1815 578
739 1815 771
883 1815 980
867 1815 1028
899 1815 1060
931 1847 1172
931 1847 1204
947 1863 1317
1028 1879 1413
1012 1879 1542
1060 1911 1622
1092 1943 1702
1092 1959 1847
1092 1991 1927
1237 2023 2039
803 2056 498
835 2056 546
851 2056 691
851 2056 883
996 2039 1076
1044 2023 1156
1076 2072 1220
1076 2072 1317
1108 2072 1381
1124 2072 1445
1124 2088 1526
1140 2136 1702
1204 2136 1766
1269 2184 1879
1253 2184 1991
1301 2216 2088
1349 2248 2184
1044 2312 674
1012 2312 755
1060 2329 835
1076 2329 980
1140 2296 1172
1237 2296 1333
1253 2296 1397
1253 2296 1429
1285 2312 1542
1317 2329 1606
1349 2345 1686
1413 2345 1766
1381 2377 1943
1413 2393 2007
1477 2393 2088
1461 2441 2232
1526 2441 2312
1253 2553 819
1253 2569 915
1285 2569 996
1237 2569 1124
1333 2553 1301
1413 2537 1461
1477 2537 1558
1510 2553 1638
1526 2553 1702
1526 2569 1783
1542 2553 1831
1590 2585 1927
1606 2602 2023
1686 2618 2152
1686 2618 2232
1686 2634 2377
1734 2682 2473
1413 2810 1012
1445 2810 1092
1461 2794 1156
1429 2794 1269
1493 2794 1445
1622 2778 1574
1686 2762 1766
1702 2794 1815
1718 2778 1879
1750 2794 1959
1766 2794 2056
1750 2794 2088
1831 2794 2152
1847 2810 2280
1879 2842 2361
1879 2858 2521
1863 2875 2602
1622 3035 1156
1654 3035 1237
1686 3051 1365
1638 3019 1397
1654 3035 1542
1734 3003 1702
1847 2987 1879
1927 3003 1991
1911 3019 2056
1959 3035 2152
1975 3035 2216
2007 3035 2280
2023 3035 2312
2088 3067 2425
2088 3067 2553
2104 3083 2618
2056 3099 2794
1895 3292 1317
1863 3276 1381
1847 3292 1461
1815 3292 1558
1863 3308 1686
1975 3276 1895
2039 3260 2088
2120 3244 2168
2136 3228 2232
2136 3276 2329
2120 3276 2393
2152 3276 2473
2168 3276 2537
2232 3308 2602
2248 3324 2714
2280 3324 2778
2264 3324 2907
2039 3533 1493
2056 3517 1606
2007 3501 1654
2023 3517 1702
2039 3533 1847
2120 3501 1975
2200 3501 2200
2312 3485 2361
2345 3485 2441
2377 3485 2473
2345 3485 2569
2329 3501 2634
2393 3501 2714
2393 3517 2794
2409 3517 2858
2441 3533 2939
2473 3565 3067
2216 3758 1702
2200 3758 1734
2264 3774 1799
2248 3742 1879
2216 3742 1975
2296 3758 2104
2361 3726 2296
2473 3710 2457
2521 3710 2602
2537 3694 2666
2553 3726 2714
2553 3726 2826
2585 3726 2891
2618 3742 2971
2650 3758 3051
2650 3774 3099
2666 3790 3212
530 161 193
337 257 337
273 289 385
273 289 434
321 337 546
305 385 626
305 418 707
369 450 803
418 514 883
482 562 964
530 610 1044
562 674 1124
610 723 1204
691 787 1317
755 867 1429
819 931 1493
899 996 1606
594 273 0
498 305 257
305 385 385
305 418 482
289 434 562
321 450 642
321 498 723
401 546 803
418 594 899
434 610 964
482 674 1060
578 739 1156
674 771 1237
691 819 1349
755 883 1397
867 964 1526
